; -- Obstacle-avoidance G-code --
; Generated by Obstacle Avoidance Tool
; Transform: rotation=0.00 deg  offset=(0.00, 0.00) m
%
G00 G90 G17 G21

G00 X-1.0979 Y7.2796
G00 X-1.0979 Y7.1272
ON
G01 X-1.0979 Y2.7626
G01 X-0.9979 Y2.7626
G01 X-0.9979 Y7.1272
G01 X-1.0979 Y7.1272
OFF
G00 X-0.6383 Y7.1025
G04 X-0.7030 Y7.1475
G00 X-0.6383 Y7.1025
ON
G01 X-0.6383 Y7.0788
G01 X-0.7677 Y7.0788
G01 X-0.7677 Y7.0980
G01 X-0.7653 Y7.1006
G01 X-0.7606 Y7.1061
G01 X-0.7558 Y7.1120
G01 X-0.7511 Y7.1183
G01 X-0.7463 Y7.1251
G01 X-0.7416 Y7.1322
G01 X-0.7369 Y7.1398
G01 X-0.7322 Y7.1478
G01 X-0.7299 Y7.1520
G01 X-0.7275 Y7.1562
G01 X-0.7231 Y7.1647
G01 X-0.7190 Y7.1732
G01 X-0.7151 Y7.1818
G01 X-0.7115 Y7.1905
G01 X-0.7081 Y7.1992
G01 X-0.7050 Y7.2080
G01 X-0.7022 Y7.2168
G01 X-0.7009 Y7.2213
G01 X-0.7000 Y7.2244
G01 X-0.6983 Y7.2309
G01 X-0.6968 Y7.2374
G01 X-0.6955 Y7.2441
G01 X-0.6943 Y7.2510
G01 X-0.6933 Y7.2580
G01 X-0.6924 Y7.2652
G01 X-0.6918 Y7.2725
G01 X-0.6915 Y7.2762
G01 X-0.6662 Y7.2762
G01 X-0.6662 Y7.2733
G01 X-0.6666 Y7.2671
G01 X-0.6673 Y7.2605
G01 X-0.6681 Y7.2537
G01 X-0.6693 Y7.2466
G01 X-0.6707 Y7.2392
G01 X-0.6724 Y7.2314
G01 X-0.6744 Y7.2234
G01 X-0.6754 Y7.2192
G01 X-0.6766 Y7.2151
G01 X-0.6790 Y7.2068
G01 X-0.6817 Y7.1986
G01 X-0.6847 Y7.1904
G01 X-0.6879 Y7.1824
G01 X-0.6913 Y7.1744
G01 X-0.6949 Y7.1665
G01 X-0.6988 Y7.1587
G01 X-0.7009 Y7.1548
G01 X-0.7030 Y7.1509
G01 X-0.7072 Y7.1435
G01 X-0.7114 Y7.1363
G01 X-0.7158 Y7.1295
G01 X-0.7202 Y7.1230
G01 X-0.7247 Y7.1167
G01 X-0.7292 Y7.1108
G01 X-0.7338 Y7.1052
G01 X-0.7361 Y7.1025
G01 X-0.6383 Y7.1025
OFF
G00 X-0.6102 Y7.2526
G04 X-0.5442 Y7.1459
G00 X-0.6102 Y7.2526
ON
G01 X-0.6102 Y7.2762
G01 X-0.4781 Y7.2762
G01 X-0.4781 Y7.2740
G01 X-0.4782 Y7.2708
G01 X-0.4785 Y7.2686
G01 X-0.4788 Y7.2665
G01 X-0.4793 Y7.2644
G01 X-0.4799 Y7.2623
G01 X-0.4806 Y7.2602
G01 X-0.4809 Y7.2592
G01 X-0.4816 Y7.2575
G01 X-0.4830 Y7.2541
G01 X-0.4847 Y7.2508
G01 X-0.4865 Y7.2474
G01 X-0.4885 Y7.2441
G01 X-0.4907 Y7.2408
G01 X-0.4932 Y7.2375
G01 X-0.4957 Y7.2342
G01 X-0.4971 Y7.2326
G01 X-0.4985 Y7.2309
G01 X-0.5016 Y7.2275
G01 X-0.5050 Y7.2240
G01 X-0.5087 Y7.2203
G01 X-0.5127 Y7.2166
G01 X-0.5171 Y7.2126
G01 X-0.5241 Y7.2065
G01 X-0.5292 Y7.2023
G01 X-0.5332 Y7.1990
G01 X-0.5407 Y7.1927
G01 X-0.5475 Y7.1867
G01 X-0.5537 Y7.1810
G01 X-0.5592 Y7.1757
G01 X-0.5640 Y7.1708
G01 X-0.5682 Y7.1662
G01 X-0.5717 Y7.1619
G01 X-0.5732 Y7.1599
G01 X-0.5746 Y7.1580
G01 X-0.5771 Y7.1541
G01 X-0.5792 Y7.1503
G01 X-0.5810 Y7.1466
G01 X-0.5824 Y7.1429
G01 X-0.5835 Y7.1393
G01 X-0.5842 Y7.1357
G01 X-0.5846 Y7.1321
G01 X-0.5846 Y7.1304
G01 X-0.5846 Y7.1286
G01 X-0.5843 Y7.1251
G01 X-0.5836 Y7.1217
G01 X-0.5826 Y7.1185
G01 X-0.5813 Y7.1154
G01 X-0.5797 Y7.1125
G01 X-0.5777 Y7.1097
G01 X-0.5755 Y7.1070
G01 X-0.5742 Y7.1058
G01 X-0.5729 Y7.1046
G01 X-0.5701 Y7.1024
G01 X-0.5671 Y7.1005
G01 X-0.5639 Y7.0989
G01 X-0.5605 Y7.0977
G01 X-0.5569 Y7.0967
G01 X-0.5531 Y7.0961
G01 X-0.5491 Y7.0958
G01 X-0.5470 Y7.0958
G01 X-0.5448 Y7.0958
G01 X-0.5406 Y7.0961
G01 X-0.5367 Y7.0968
G01 X-0.5329 Y7.0978
G01 X-0.5293 Y7.0991
G01 X-0.5260 Y7.1008
G01 X-0.5229 Y7.1028
G01 X-0.5201 Y7.1051
G01 X-0.5187 Y7.1064
G01 X-0.5174 Y7.1078
G01 X-0.5151 Y7.1107
G01 X-0.5131 Y7.1138
G01 X-0.5114 Y7.1173
G01 X-0.5101 Y7.1209
G01 X-0.5090 Y7.1249
G01 X-0.5084 Y7.1291
G01 X-0.5080 Y7.1335
G01 X-0.5080 Y7.1358
G01 X-0.4826 Y7.1333
G01 X-0.4828 Y7.1315
G01 X-0.4832 Y7.1281
G01 X-0.4838 Y7.1248
G01 X-0.4845 Y7.1216
G01 X-0.4852 Y7.1185
G01 X-0.4861 Y7.1155
G01 X-0.4871 Y7.1126
G01 X-0.4882 Y7.1098
G01 X-0.4894 Y7.1071
G01 X-0.4908 Y7.1045
G01 X-0.4922 Y7.1020
G01 X-0.4938 Y7.0996
G01 X-0.4954 Y7.0974
G01 X-0.4972 Y7.0952
G01 X-0.4991 Y7.0932
G01 X-0.5011 Y7.0912
G01 X-0.5021 Y7.0903
G01 X-0.5032 Y7.0894
G01 X-0.5054 Y7.0876
G01 X-0.5077 Y7.0860
G01 X-0.5101 Y7.0845
G01 X-0.5126 Y7.0831
G01 X-0.5151 Y7.0819
G01 X-0.5178 Y7.0807
G01 X-0.5206 Y7.0797
G01 X-0.5234 Y7.0787
G01 X-0.5263 Y7.0779
G01 X-0.5293 Y7.0772
G01 X-0.5325 Y7.0767
G01 X-0.5357 Y7.0762
G01 X-0.5389 Y7.0758
G01 X-0.5423 Y7.0756
G01 X-0.5458 Y7.0755
G01 X-0.5476 Y7.0755
G01 X-0.5494 Y7.0755
G01 X-0.5529 Y7.0756
G01 X-0.5563 Y7.0759
G01 X-0.5596 Y7.0762
G01 X-0.5628 Y7.0767
G01 X-0.5659 Y7.0774
G01 X-0.5690 Y7.0781
G01 X-0.5719 Y7.0790
G01 X-0.5748 Y7.0800
G01 X-0.5775 Y7.0811
G01 X-0.5802 Y7.0824
G01 X-0.5828 Y7.0837
G01 X-0.5852 Y7.0852
G01 X-0.5876 Y7.0868
G01 X-0.5899 Y7.0886
G01 X-0.5921 Y7.0905
G01 X-0.5931 Y7.0914
G01 X-0.5942 Y7.0924
G01 X-0.5961 Y7.0945
G01 X-0.5980 Y7.0966
G01 X-0.5997 Y7.0988
G01 X-0.6013 Y7.1010
G01 X-0.6027 Y7.1033
G01 X-0.6040 Y7.1057
G01 X-0.6052 Y7.1081
G01 X-0.6062 Y7.1105
G01 X-0.6072 Y7.1131
G01 X-0.6079 Y7.1157
G01 X-0.6086 Y7.1183
G01 X-0.6091 Y7.1210
G01 X-0.6095 Y7.1238
G01 X-0.6098 Y7.1266
G01 X-0.6099 Y7.1295
G01 X-0.6099 Y7.1310
G01 X-0.6099 Y7.1325
G01 X-0.6097 Y7.1355
G01 X-0.6094 Y7.1384
G01 X-0.6090 Y7.1414
G01 X-0.6084 Y7.1443
G01 X-0.6076 Y7.1473
G01 X-0.6067 Y7.1502
G01 X-0.6056 Y7.1531
G01 X-0.6050 Y7.1546
G01 X-0.6044 Y7.1560
G01 X-0.6029 Y7.1590
G01 X-0.6013 Y7.1619
G01 X-0.5995 Y7.1649
G01 X-0.5975 Y7.1680
G01 X-0.5952 Y7.1711
G01 X-0.5928 Y7.1742
G01 X-0.5901 Y7.1774
G01 X-0.5887 Y7.1790
G01 X-0.5873 Y7.1806
G01 X-0.5839 Y7.1841
G01 X-0.5802 Y7.1879
G01 X-0.5759 Y7.1920
G01 X-0.5686 Y7.1987
G01 X-0.5573 Y7.2087
G01 X-0.5509 Y7.2142
G01 X-0.5457 Y7.2186
G01 X-0.5366 Y7.2264
G01 X-0.5295 Y7.2327
G01 X-0.5244 Y7.2375
G01 X-0.5226 Y7.2393
G01 X-0.5210 Y7.2410
G01 X-0.5182 Y7.2443
G01 X-0.5156 Y7.2476
G01 X-0.5133 Y7.2509
G01 X-0.5122 Y7.2526
G01 X-0.6102 Y7.2526
OFF
G00 X-0.3675 Y7.1979
G04 X-0.3597 Y7.1462
G00 X-0.3675 Y7.1979
ON
G01 X-0.3675 Y7.1743
G01 X-0.4521 Y7.1743
G01 X-0.4521 Y7.2484
G01 X-0.4497 Y7.2503
G01 X-0.4448 Y7.2540
G01 X-0.4398 Y7.2574
G01 X-0.4348 Y7.2605
G01 X-0.4298 Y7.2634
G01 X-0.4248 Y7.2661
G01 X-0.4196 Y7.2686
G01 X-0.4145 Y7.2708
G01 X-0.4119 Y7.2718
G01 X-0.4093 Y7.2727
G01 X-0.4041 Y7.2744
G01 X-0.3989 Y7.2759
G01 X-0.3936 Y7.2771
G01 X-0.3883 Y7.2781
G01 X-0.3829 Y7.2788
G01 X-0.3775 Y7.2793
G01 X-0.3721 Y7.2796
G01 X-0.3694 Y7.2796
G01 X-0.3657 Y7.2796
G01 X-0.3585 Y7.2792
G01 X-0.3515 Y7.2784
G01 X-0.3446 Y7.2772
G01 X-0.3379 Y7.2756
G01 X-0.3314 Y7.2736
G01 X-0.3251 Y7.2713
G01 X-0.3189 Y7.2685
G01 X-0.3159 Y7.2670
G01 X-0.3144 Y7.2662
G01 X-0.3114 Y7.2645
G01 X-0.3086 Y7.2628
G01 X-0.3059 Y7.2609
G01 X-0.3032 Y7.2590
G01 X-0.3007 Y7.2570
G01 X-0.2982 Y7.2549
G01 X-0.2959 Y7.2527
G01 X-0.2936 Y7.2504
G01 X-0.2914 Y7.2480
G01 X-0.2893 Y7.2456
G01 X-0.2873 Y7.2430
G01 X-0.2854 Y7.2404
G01 X-0.2836 Y7.2377
G01 X-0.2819 Y7.2349
G01 X-0.2803 Y7.2320
G01 X-0.2795 Y7.2305
G01 X-0.2780 Y7.2275
G01 X-0.2753 Y7.2213
G01 X-0.2730 Y7.2150
G01 X-0.2711 Y7.2085
G01 X-0.2696 Y7.2018
G01 X-0.2684 Y7.1950
G01 X-0.2677 Y7.1880
G01 X-0.2673 Y7.1808
G01 X-0.2673 Y7.1771
G01 X-0.2673 Y7.1735
G01 X-0.2677 Y7.1663
G01 X-0.2684 Y7.1593
G01 X-0.2696 Y7.1523
G01 X-0.2711 Y7.1455
G01 X-0.2730 Y7.1388
G01 X-0.2753 Y7.1322
G01 X-0.2780 Y7.1258
G01 X-0.2794 Y7.1226
G01 X-0.2802 Y7.1210
G01 X-0.2818 Y7.1180
G01 X-0.2835 Y7.1150
G01 X-0.2853 Y7.1122
G01 X-0.2872 Y7.1094
G01 X-0.2891 Y7.1068
G01 X-0.2911 Y7.1042
G01 X-0.2932 Y7.1017
G01 X-0.2954 Y7.0994
G01 X-0.2977 Y7.0971
G01 X-0.3001 Y7.0950
G01 X-0.3025 Y7.0930
G01 X-0.3050 Y7.0910
G01 X-0.3077 Y7.0892
G01 X-0.3104 Y7.0874
G01 X-0.3131 Y7.0858
G01 X-0.3146 Y7.0850
G01 X-0.3160 Y7.0843
G01 X-0.3189 Y7.0828
G01 X-0.3219 Y7.0815
G01 X-0.3249 Y7.0802
G01 X-0.3280 Y7.0791
G01 X-0.3311 Y7.0780
G01 X-0.3359 Y7.0766
G01 X-0.3425 Y7.0751
G01 X-0.3493 Y7.0739
G01 X-0.3564 Y7.0732
G01 X-0.3636 Y7.0728
G01 X-0.3673 Y7.0728
G01 X-0.3700 Y7.0728
G01 X-0.3753 Y7.0730
G01 X-0.3805 Y7.0734
G01 X-0.3855 Y7.0741
G01 X-0.3904 Y7.0750
G01 X-0.3952 Y7.0761
G01 X-0.3998 Y7.0774
G01 X-0.4043 Y7.0789
G01 X-0.4065 Y7.0798
G01 X-0.4087 Y7.0807
G01 X-0.4128 Y7.0826
G01 X-0.4167 Y7.0847
G01 X-0.4204 Y7.0870
G01 X-0.4239 Y7.0895
G01 X-0.4270 Y7.0921
G01 X-0.4300 Y7.0949
G01 X-0.4327 Y7.0978
G01 X-0.4340 Y7.0994
G01 X-0.4352 Y7.1010
G01 X-0.4376 Y7.1044
G01 X-0.4398 Y7.1080
G01 X-0.4418 Y7.1119
G01 X-0.4437 Y7.1160
G01 X-0.4454 Y7.1203
G01 X-0.4470 Y7.1249
G01 X-0.4485 Y7.1297
G01 X-0.4491 Y7.1322
G01 X-0.4253 Y7.1387
G01 X-0.4247 Y7.1369
G01 X-0.4235 Y7.1332
G01 X-0.4223 Y7.1298
G01 X-0.4209 Y7.1266
G01 X-0.4195 Y7.1236
G01 X-0.4181 Y7.1208
G01 X-0.4165 Y7.1182
G01 X-0.4149 Y7.1158
G01 X-0.4141 Y7.1147
G01 X-0.4132 Y7.1136
G01 X-0.4114 Y7.1116
G01 X-0.4094 Y7.1096
G01 X-0.4072 Y7.1077
G01 X-0.4048 Y7.1060
G01 X-0.4022 Y7.1043
G01 X-0.3995 Y7.1028
G01 X-0.3965 Y7.1014
G01 X-0.3950 Y7.1007
G01 X-0.3934 Y7.1001
G01 X-0.3903 Y7.0989
G01 X-0.3870 Y7.0979
G01 X-0.3836 Y7.0971
G01 X-0.3802 Y7.0965
G01 X-0.3767 Y7.0960
G01 X-0.3730 Y7.0956
G01 X-0.3694 Y7.0955
G01 X-0.3675 Y7.0955
G01 X-0.3652 Y7.0955
G01 X-0.3608 Y7.0956
G01 X-0.3566 Y7.0960
G01 X-0.3525 Y7.0965
G01 X-0.3486 Y7.0972
G01 X-0.3449 Y7.0981
G01 X-0.3412 Y7.0991
G01 X-0.3378 Y7.1003
G01 X-0.3361 Y7.1010
G01 X-0.3345 Y7.1017
G01 X-0.3313 Y7.1032
G01 X-0.3283 Y7.1048
G01 X-0.3255 Y7.1065
G01 X-0.3229 Y7.1083
G01 X-0.3203 Y7.1102
G01 X-0.3180 Y7.1122
G01 X-0.3158 Y7.1144
G01 X-0.3148 Y7.1155
G01 X-0.3138 Y7.1166
G01 X-0.3119 Y7.1189
G01 X-0.3101 Y7.1213
G01 X-0.3084 Y7.1237
G01 X-0.3068 Y7.1262
G01 X-0.3053 Y7.1287
G01 X-0.3040 Y7.1313
G01 X-0.3027 Y7.1339
G01 X-0.3022 Y7.1353
G01 X-0.3012 Y7.1376
G01 X-0.2996 Y7.1423
G01 X-0.2981 Y7.1472
G01 X-0.2969 Y7.1521
G01 X-0.2960 Y7.1571
G01 X-0.2953 Y7.1622
G01 X-0.2948 Y7.1675
G01 X-0.2946 Y7.1728
G01 X-0.2946 Y7.1755
G01 X-0.2946 Y7.1788
G01 X-0.2948 Y7.1852
G01 X-0.2954 Y7.1913
G01 X-0.2963 Y7.1972
G01 X-0.2974 Y7.2028
G01 X-0.2989 Y7.2081
G01 X-0.3006 Y7.2132
G01 X-0.3026 Y7.2179
G01 X-0.3037 Y7.2202
G01 X-0.3049 Y7.2224
G01 X-0.3075 Y7.2266
G01 X-0.3103 Y7.2306
G01 X-0.3134 Y7.2342
G01 X-0.3167 Y7.2375
G01 X-0.3203 Y7.2406
G01 X-0.3242 Y7.2433
G01 X-0.3284 Y7.2458
G01 X-0.3305 Y7.2469
G01 X-0.3327 Y7.2480
G01 X-0.3372 Y7.2499
G01 X-0.3417 Y7.2515
G01 X-0.3463 Y7.2529
G01 X-0.3510 Y7.2540
G01 X-0.3557 Y7.2548
G01 X-0.3605 Y7.2554
G01 X-0.3654 Y7.2556
G01 X-0.3679 Y7.2556
G01 X-0.3700 Y7.2556
G01 X-0.3743 Y7.2554
G01 X-0.3785 Y7.2550
G01 X-0.3828 Y7.2544
G01 X-0.3869 Y7.2536
G01 X-0.3911 Y7.2526
G01 X-0.3953 Y7.2513
G01 X-0.3994 Y7.2499
G01 X-0.4014 Y7.2491
G01 X-0.4034 Y7.2482
G01 X-0.4073 Y7.2466
G01 X-0.4109 Y7.2449
G01 X-0.4142 Y7.2431
G01 X-0.4173 Y7.2414
G01 X-0.4202 Y7.2396
G01 X-0.4228 Y7.2378
G01 X-0.4251 Y7.2359
G01 X-0.4262 Y7.2350
G01 X-0.4262 Y7.1979
G01 X-0.3675 Y7.1979
OFF
G00 X1.4121 Y6.2767
ON
G01 X1.4121 Y2.7626
G01 X1.5121 Y2.7626
G01 X1.5121 Y7.1272
G01 X1.4121 Y7.1272
G01 X1.4121 Y6.2767
OFF
G00 X1.8463 Y7.1257
G04 X1.8139 Y7.0965
G00 X1.8463 Y7.1257
ON
G01 X1.8463 Y7.1274
G01 X1.8460 Y7.1308
G01 X1.8454 Y7.1340
G01 X1.8446 Y7.1371
G01 X1.8435 Y7.1400
G01 X1.8420 Y7.1427
G01 X1.8404 Y7.1453
G01 X1.8384 Y7.1477
G01 X1.8373 Y7.1488
G01 X1.8361 Y7.1499
G01 X1.8337 Y7.1519
G01 X1.8311 Y7.1536
G01 X1.8283 Y7.1550
G01 X1.8254 Y7.1561
G01 X1.8222 Y7.1569
G01 X1.8189 Y7.1575
G01 X1.8155 Y7.1578
G01 X1.8137 Y7.1578
G01 X1.8119 Y7.1578
G01 X1.8085 Y7.1575
G01 X1.8053 Y7.1569
G01 X1.8023 Y7.1561
G01 X1.7994 Y7.1550
G01 X1.7966 Y7.1536
G01 X1.7941 Y7.1519
G01 X1.7917 Y7.1500
G01 X1.7905 Y7.1489
G01 X1.7894 Y7.1477
G01 X1.7875 Y7.1454
G01 X1.7858 Y7.1429
G01 X1.7844 Y7.1403
G01 X1.7833 Y7.1376
G01 X1.7824 Y7.1347
G01 X1.7819 Y7.1317
G01 X1.7816 Y7.1286
G01 X1.7816 Y7.1270
G01 X1.7816 Y7.1254
G01 X1.7819 Y7.1221
G01 X1.7824 Y7.1190
G01 X1.7833 Y7.1160
G01 X1.7845 Y7.1132
G01 X1.7859 Y7.1105
G01 X1.7876 Y7.1079
G01 X1.7897 Y7.1055
G01 X1.7908 Y7.1043
G01 X1.7920 Y7.1032
G01 X1.7944 Y7.1012
G01 X1.7970 Y7.0995
G01 X1.7998 Y7.0981
G01 X1.8027 Y7.0969
G01 X1.8057 Y7.0960
G01 X1.8089 Y7.0955
G01 X1.8122 Y7.0952
G01 X1.8139 Y7.0952
G01 X1.8157 Y7.0952
G01 X1.8190 Y7.0955
G01 X1.8222 Y7.0960
G01 X1.8253 Y7.0969
G01 X1.8282 Y7.0980
G01 X1.8309 Y7.0994
G01 X1.8335 Y7.1011
G01 X1.8360 Y7.1030
G01 X1.8371 Y7.1041
G01 X1.8383 Y7.1053
G01 X1.8403 Y7.1076
G01 X1.8420 Y7.1101
G01 X1.8434 Y7.1127
G01 X1.8446 Y7.1154
G01 X1.8454 Y7.1182
G01 X1.8460 Y7.1211
G01 X1.8463 Y7.1241
G01 X1.8463 Y7.1257
OFF
G00 X1.8414 Y7.1672
G04 X1.8138 Y7.1471
G00 X1.8414 Y7.1672
ON
G01 X1.8433 Y7.1665
G01 X1.8469 Y7.1650
G01 X1.8503 Y7.1633
G01 X1.8534 Y7.1614
G01 X1.8562 Y7.1595
G01 X1.8588 Y7.1573
G01 X1.8612 Y7.1550
G01 X1.8633 Y7.1526
G01 X1.8642 Y7.1513
G01 X1.8651 Y7.1500
G01 X1.8667 Y7.1473
G01 X1.8681 Y7.1444
G01 X1.8693 Y7.1415
G01 X1.8702 Y7.1384
G01 X1.8709 Y7.1351
G01 X1.8714 Y7.1318
G01 X1.8716 Y7.1283
G01 X1.8716 Y7.1265
G01 X1.8716 Y7.1252
G01 X1.8715 Y7.1225
G01 X1.8712 Y7.1199
G01 X1.8709 Y7.1173
G01 X1.8704 Y7.1148
G01 X1.8698 Y7.1124
G01 X1.8690 Y7.1100
G01 X1.8682 Y7.1076
G01 X1.8672 Y7.1053
G01 X1.8661 Y7.1031
G01 X1.8649 Y7.1009
G01 X1.8635 Y7.0988
G01 X1.8621 Y7.0967
G01 X1.8605 Y7.0947
G01 X1.8588 Y7.0927
G01 X1.8569 Y7.0908
G01 X1.8550 Y7.0890
G01 X1.8529 Y7.0872
G01 X1.8508 Y7.0856
G01 X1.8486 Y7.0841
G01 X1.8463 Y7.0827
G01 X1.8440 Y7.0814
G01 X1.8415 Y7.0803
G01 X1.8390 Y7.0792
G01 X1.8364 Y7.0783
G01 X1.8337 Y7.0775
G01 X1.8309 Y7.0768
G01 X1.8281 Y7.0762
G01 X1.8252 Y7.0757
G01 X1.8221 Y7.0754
G01 X1.8191 Y7.0752
G01 X1.8159 Y7.0750
G01 X1.8143 Y7.0750
G01 X1.8126 Y7.0750
G01 X1.8095 Y7.0752
G01 X1.8063 Y7.0754
G01 X1.8033 Y7.0758
G01 X1.8004 Y7.0762
G01 X1.7975 Y7.0768
G01 X1.7947 Y7.0775
G01 X1.7920 Y7.0784
G01 X1.7894 Y7.0793
G01 X1.7868 Y7.0804
G01 X1.7843 Y7.0816
G01 X1.7819 Y7.0829
G01 X1.7796 Y7.0843
G01 X1.7774 Y7.0858
G01 X1.7752 Y7.0875
G01 X1.7732 Y7.0893
G01 X1.7722 Y7.0902
G01 X1.7693 Y7.0931
G01 X1.7676 Y7.0951
G01 X1.7660 Y7.0972
G01 X1.7645 Y7.0993
G01 X1.7631 Y7.1014
G01 X1.7619 Y7.1036
G01 X1.7607 Y7.1059
G01 X1.7597 Y7.1082
G01 X1.7589 Y7.1106
G01 X1.7581 Y7.1130
G01 X1.7575 Y7.1155
G01 X1.7570 Y7.1180
G01 X1.7566 Y7.1205
G01 X1.7564 Y7.1232
G01 X1.7562 Y7.1258
G01 X1.7562 Y7.1272
G01 X1.7562 Y7.1289
G01 X1.7565 Y7.1323
G01 X1.7569 Y7.1355
G01 X1.7576 Y7.1387
G01 X1.7585 Y7.1417
G01 X1.7597 Y7.1446
G01 X1.7611 Y7.1474
G01 X1.7627 Y7.1501
G01 X1.7635 Y7.1514
G01 X1.7645 Y7.1526
G01 X1.7665 Y7.1551
G01 X1.7688 Y7.1573
G01 X1.7714 Y7.1595
G01 X1.7742 Y7.1615
G01 X1.7772 Y7.1633
G01 X1.7804 Y7.1650
G01 X1.7839 Y7.1665
G01 X1.7857 Y7.1672
G01 X1.7835 Y7.1680
G01 X1.7791 Y7.1698
G01 X1.7751 Y7.1717
G01 X1.7713 Y7.1739
G01 X1.7678 Y7.1763
G01 X1.7645 Y7.1790
G01 X1.7616 Y7.1819
G01 X1.7589 Y7.1850
G01 X1.7576 Y7.1866
G01 X1.7565 Y7.1883
G01 X1.7544 Y7.1918
G01 X1.7526 Y7.1955
G01 X1.7510 Y7.1993
G01 X1.7498 Y7.2033
G01 X1.7489 Y7.2075
G01 X1.7483 Y7.2118
G01 X1.7480 Y7.2163
G01 X1.7480 Y7.2186
G01 X1.7480 Y7.2201
G01 X1.7482 Y7.2233
G01 X1.7484 Y7.2264
G01 X1.7489 Y7.2294
G01 X1.7494 Y7.2323
G01 X1.7501 Y7.2352
G01 X1.7510 Y7.2380
G01 X1.7520 Y7.2408
G01 X1.7531 Y7.2435
G01 X1.7544 Y7.2461
G01 X1.7558 Y7.2487
G01 X1.7574 Y7.2512
G01 X1.7591 Y7.2536
G01 X1.7609 Y7.2560
G01 X1.7629 Y7.2583
G01 X1.7650 Y7.2606
G01 X1.7661 Y7.2617
G01 X1.7673 Y7.2627
G01 X1.7696 Y7.2648
G01 X1.7721 Y7.2667
G01 X1.7746 Y7.2685
G01 X1.7772 Y7.2701
G01 X1.7800 Y7.2716
G01 X1.7828 Y7.2730
G01 X1.7856 Y7.2742
G01 X1.7886 Y7.2753
G01 X1.7917 Y7.2763
G01 X1.7949 Y7.2771
G01 X1.7981 Y7.2778
G01 X1.8015 Y7.2783
G01 X1.8049 Y7.2787
G01 X1.8084 Y7.2790
G01 X1.8120 Y7.2791
G01 X1.8139 Y7.2791
G01 X1.8157 Y7.2791
G01 X1.8193 Y7.2790
G01 X1.8228 Y7.2787
G01 X1.8262 Y7.2783
G01 X1.8296 Y7.2778
G01 X1.8328 Y7.2771
G01 X1.8360 Y7.2762
G01 X1.8391 Y7.2753
G01 X1.8421 Y7.2742
G01 X1.8449 Y7.2730
G01 X1.8478 Y7.2716
G01 X1.8505 Y7.2701
G01 X1.8531 Y7.2684
G01 X1.8556 Y7.2667
G01 X1.8581 Y7.2647
G01 X1.8604 Y7.2627
G01 X1.8616 Y7.2616
G01 X1.8627 Y7.2605
G01 X1.8648 Y7.2582
G01 X1.8668 Y7.2559
G01 X1.8686 Y7.2535
G01 X1.8703 Y7.2511
G01 X1.8719 Y7.2485
G01 X1.8733 Y7.2459
G01 X1.8746 Y7.2433
G01 X1.8757 Y7.2405
G01 X1.8767 Y7.2377
G01 X1.8776 Y7.2349
G01 X1.8783 Y7.2319
G01 X1.8788 Y7.2289
G01 X1.8793 Y7.2258
G01 X1.8795 Y7.2227
G01 X1.8797 Y7.2195
G01 X1.8797 Y7.2179
G01 X1.8797 Y7.2155
G01 X1.8794 Y7.2108
G01 X1.8787 Y7.2063
G01 X1.8778 Y7.2020
G01 X1.8766 Y7.1979
G01 X1.8750 Y7.1940
G01 X1.8731 Y7.1903
G01 X1.8710 Y7.1869
G01 X1.8698 Y7.1852
G01 X1.8685 Y7.1836
G01 X1.8657 Y7.1805
G01 X1.8627 Y7.1778
G01 X1.8594 Y7.1753
G01 X1.8559 Y7.1730
G01 X1.8521 Y7.1710
G01 X1.8480 Y7.1693
G01 X1.8437 Y7.1679
G01 X1.8414 Y7.1672
OFF
G00 X1.8544 Y7.2181
G04 X1.8138 Y7.1885
G00 X1.8544 Y7.2181
ON
G01 X1.8544 Y7.2194
G01 X1.8542 Y7.2220
G01 X1.8539 Y7.2246
G01 X1.8535 Y7.2271
G01 X1.8528 Y7.2297
G01 X1.8521 Y7.2322
G01 X1.8512 Y7.2347
G01 X1.8501 Y7.2372
G01 X1.8495 Y7.2384
G01 X1.8488 Y7.2396
G01 X1.8475 Y7.2419
G01 X1.8459 Y7.2441
G01 X1.8442 Y7.2462
G01 X1.8424 Y7.2481
G01 X1.8404 Y7.2498
G01 X1.8383 Y7.2514
G01 X1.8360 Y7.2529
G01 X1.8347 Y7.2536
G01 X1.8335 Y7.2543
G01 X1.8310 Y7.2555
G01 X1.8285 Y7.2565
G01 X1.8259 Y7.2573
G01 X1.8232 Y7.2580
G01 X1.8206 Y7.2585
G01 X1.8178 Y7.2588
G01 X1.8151 Y7.2590
G01 X1.8136 Y7.2590
G01 X1.8115 Y7.2590
G01 X1.8073 Y7.2586
G01 X1.8033 Y7.2579
G01 X1.7994 Y7.2569
G01 X1.7958 Y7.2554
G01 X1.7924 Y7.2537
G01 X1.7892 Y7.2515
G01 X1.7861 Y7.2491
G01 X1.7847 Y7.2477
G01 X1.7833 Y7.2462
G01 X1.7808 Y7.2432
G01 X1.7787 Y7.2400
G01 X1.7769 Y7.2366
G01 X1.7755 Y7.2330
G01 X1.7744 Y7.2292
G01 X1.7737 Y7.2252
G01 X1.7733 Y7.2210
G01 X1.7733 Y7.2189
G01 X1.7733 Y7.2167
G01 X1.7737 Y7.2124
G01 X1.7744 Y7.2084
G01 X1.7755 Y7.2045
G01 X1.7770 Y7.2009
G01 X1.7788 Y7.1974
G01 X1.7810 Y7.1941
G01 X1.7836 Y7.1910
G01 X1.7850 Y7.1895
G01 X1.7865 Y7.1881
G01 X1.7896 Y7.1856
G01 X1.7929 Y7.1834
G01 X1.7964 Y7.1816
G01 X1.8001 Y7.1801
G01 X1.8040 Y7.1791
G01 X1.8080 Y7.1783
G01 X1.8123 Y7.1780
G01 X1.8145 Y7.1780
G01 X1.8166 Y7.1780
G01 X1.8208 Y7.1783
G01 X1.8247 Y7.1790
G01 X1.8285 Y7.1801
G01 X1.8321 Y7.1816
G01 X1.8354 Y7.1833
G01 X1.8386 Y7.1855
G01 X1.8417 Y7.1880
G01 X1.8431 Y7.1894
G01 X1.8445 Y7.1908
G01 X1.8469 Y7.1939
G01 X1.8491 Y7.1971
G01 X1.8508 Y7.2005
G01 X1.8522 Y7.2041
G01 X1.8533 Y7.2079
G01 X1.8540 Y7.2118
G01 X1.8544 Y7.2159
G01 X1.8544 Y7.2181
OFF
G00 X1.9058 Y7.2522
G04 X1.9718 Y7.1454
G00 X1.9058 Y7.2522
ON
G01 X1.9058 Y7.2758
G01 X2.0379 Y7.2758
G01 X2.0379 Y7.2736
G01 X2.0378 Y7.2703
G01 X2.0375 Y7.2682
G01 X2.0372 Y7.2660
G01 X2.0367 Y7.2639
G01 X2.0361 Y7.2618
G01 X2.0354 Y7.2597
G01 X2.0351 Y7.2587
G01 X2.0344 Y7.2570
G01 X2.0330 Y7.2537
G01 X2.0313 Y7.2503
G01 X2.0295 Y7.2470
G01 X2.0275 Y7.2436
G01 X2.0253 Y7.2403
G01 X2.0228 Y7.2370
G01 X2.0203 Y7.2337
G01 X2.0189 Y7.2321
G01 X2.0175 Y7.2305
G01 X2.0144 Y7.2271
G01 X2.0110 Y7.2235
G01 X2.0073 Y7.2199
G01 X2.0033 Y7.2161
G01 X1.9989 Y7.2122
G01 X1.9919 Y7.2061
G01 X1.9868 Y7.2019
G01 X1.9828 Y7.1986
G01 X1.9753 Y7.1922
G01 X1.9685 Y7.1862
G01 X1.9623 Y7.1806
G01 X1.9568 Y7.1753
G01 X1.9520 Y7.1703
G01 X1.9478 Y7.1657
G01 X1.9443 Y7.1615
G01 X1.9428 Y7.1595
G01 X1.9414 Y7.1575
G01 X1.9389 Y7.1537
G01 X1.9368 Y7.1499
G01 X1.9350 Y7.1461
G01 X1.9336 Y7.1424
G01 X1.9325 Y7.1388
G01 X1.9318 Y7.1352
G01 X1.9314 Y7.1317
G01 X1.9314 Y7.1299
G01 X1.9314 Y7.1281
G01 X1.9317 Y7.1246
G01 X1.9324 Y7.1213
G01 X1.9334 Y7.1180
G01 X1.9347 Y7.1150
G01 X1.9363 Y7.1120
G01 X1.9383 Y7.1092
G01 X1.9405 Y7.1066
G01 X1.9418 Y7.1053
G01 X1.9431 Y7.1041
G01 X1.9459 Y7.1019
G01 X1.9489 Y7.1000
G01 X1.9521 Y7.0985
G01 X1.9555 Y7.0972
G01 X1.9591 Y7.0963
G01 X1.9629 Y7.0957
G01 X1.9669 Y7.0953
G01 X1.9690 Y7.0953
G01 X1.9712 Y7.0953
G01 X1.9754 Y7.0957
G01 X1.9793 Y7.0963
G01 X1.9831 Y7.0973
G01 X1.9867 Y7.0987
G01 X1.9900 Y7.1003
G01 X1.9931 Y7.1023
G01 X1.9959 Y7.1046
G01 X1.9973 Y7.1059
G01 X1.9986 Y7.1073
G01 X2.0009 Y7.1102
G01 X2.0029 Y7.1134
G01 X2.0046 Y7.1168
G01 X2.0059 Y7.1205
G01 X2.0070 Y7.1244
G01 X2.0076 Y7.1286
G01 X2.0080 Y7.1331
G01 X2.0080 Y7.1354
G01 X2.0334 Y7.1328
G01 X2.0332 Y7.1311
G01 X2.0328 Y7.1276
G01 X2.0322 Y7.1243
G01 X2.0315 Y7.1211
G01 X2.0308 Y7.1180
G01 X2.0299 Y7.1150
G01 X2.0289 Y7.1121
G01 X2.0278 Y7.1093
G01 X2.0266 Y7.1066
G01 X2.0252 Y7.1040
G01 X2.0238 Y7.1016
G01 X2.0222 Y7.0992
G01 X2.0206 Y7.0969
G01 X2.0188 Y7.0948
G01 X2.0169 Y7.0927
G01 X2.0149 Y7.0907
G01 X2.0139 Y7.0898
G01 X2.0128 Y7.0889
G01 X2.0106 Y7.0872
G01 X2.0083 Y7.0856
G01 X2.0059 Y7.0840
G01 X2.0034 Y7.0827
G01 X2.0009 Y7.0814
G01 X1.9982 Y7.0802
G01 X1.9954 Y7.0792
G01 X1.9926 Y7.0783
G01 X1.9897 Y7.0775
G01 X1.9867 Y7.0768
G01 X1.9835 Y7.0762
G01 X1.9803 Y7.0757
G01 X1.9771 Y7.0754
G01 X1.9737 Y7.0752
G01 X1.9702 Y7.0750
G01 X1.9684 Y7.0750
G01 X1.9666 Y7.0750
G01 X1.9631 Y7.0752
G01 X1.9597 Y7.0754
G01 X1.9564 Y7.0758
G01 X1.9532 Y7.0763
G01 X1.9501 Y7.0769
G01 X1.9470 Y7.0777
G01 X1.9441 Y7.0785
G01 X1.9412 Y7.0795
G01 X1.9385 Y7.0806
G01 X1.9358 Y7.0819
G01 X1.9332 Y7.0833
G01 X1.9308 Y7.0848
G01 X1.9284 Y7.0864
G01 X1.9261 Y7.0881
G01 X1.9239 Y7.0900
G01 X1.9229 Y7.0910
G01 X1.9218 Y7.0920
G01 X1.9199 Y7.0940
G01 X1.9180 Y7.0961
G01 X1.9163 Y7.0983
G01 X1.9147 Y7.1006
G01 X1.9133 Y7.1028
G01 X1.9120 Y7.1052
G01 X1.9108 Y7.1076
G01 X1.9098 Y7.1101
G01 X1.9088 Y7.1126
G01 X1.9081 Y7.1152
G01 X1.9074 Y7.1179
G01 X1.9069 Y7.1206
G01 X1.9065 Y7.1233
G01 X1.9062 Y7.1262
G01 X1.9061 Y7.1290
G01 X1.9061 Y7.1305
G01 X1.9061 Y7.1320
G01 X1.9063 Y7.1350
G01 X1.9066 Y7.1380
G01 X1.9070 Y7.1409
G01 X1.9076 Y7.1439
G01 X1.9084 Y7.1468
G01 X1.9093 Y7.1497
G01 X1.9104 Y7.1527
G01 X1.9110 Y7.1541
G01 X1.9116 Y7.1556
G01 X1.9131 Y7.1585
G01 X1.9147 Y7.1615
G01 X1.9165 Y7.1645
G01 X1.9185 Y7.1675
G01 X1.9208 Y7.1706
G01 X1.9232 Y7.1737
G01 X1.9259 Y7.1769
G01 X1.9273 Y7.1785
G01 X1.9287 Y7.1801
G01 X1.9321 Y7.1837
G01 X1.9358 Y7.1875
G01 X1.9401 Y7.1916
G01 X1.9474 Y7.1983
G01 X1.9587 Y7.2083
G01 X1.9651 Y7.2137
G01 X1.9703 Y7.2181
G01 X1.9794 Y7.2259
G01 X1.9865 Y7.2322
G01 X1.9916 Y7.2370
G01 X1.9934 Y7.2389
G01 X1.9950 Y7.2405
G01 X1.9978 Y7.2438
G01 X2.0004 Y7.2472
G01 X2.0027 Y7.2505
G01 X2.0038 Y7.2522
G01 X1.9058 Y7.2522
OFF
G00 X2.1485 Y7.1974
G04 X2.1563 Y7.1457
G00 X2.1485 Y7.1974
ON
G01 X2.1485 Y7.1738
G01 X2.0639 Y7.1738
G01 X2.0639 Y7.2479
G01 X2.0663 Y7.2498
G01 X2.0712 Y7.2535
G01 X2.0762 Y7.2569
G01 X2.0812 Y7.2601
G01 X2.0862 Y7.2630
G01 X2.0912 Y7.2657
G01 X2.0964 Y7.2681
G01 X2.1015 Y7.2703
G01 X2.1041 Y7.2713
G01 X2.1067 Y7.2723
G01 X2.1119 Y7.2740
G01 X2.1171 Y7.2754
G01 X2.1224 Y7.2767
G01 X2.1277 Y7.2776
G01 X2.1331 Y7.2784
G01 X2.1385 Y7.2789
G01 X2.1439 Y7.2791
G01 X2.1466 Y7.2791
G01 X2.1503 Y7.2791
G01 X2.1575 Y7.2787
G01 X2.1645 Y7.2779
G01 X2.1714 Y7.2767
G01 X2.1781 Y7.2751
G01 X2.1846 Y7.2732
G01 X2.1909 Y7.2708
G01 X2.1971 Y7.2680
G01 X2.2001 Y7.2665
G01 X2.2016 Y7.2657
G01 X2.2046 Y7.2641
G01 X2.2074 Y7.2623
G01 X2.2101 Y7.2605
G01 X2.2128 Y7.2585
G01 X2.2153 Y7.2565
G01 X2.2178 Y7.2544
G01 X2.2201 Y7.2522
G01 X2.2224 Y7.2499
G01 X2.2246 Y7.2476
G01 X2.2267 Y7.2451
G01 X2.2287 Y7.2426
G01 X2.2306 Y7.2399
G01 X2.2324 Y7.2372
G01 X2.2341 Y7.2344
G01 X2.2357 Y7.2315
G01 X2.2365 Y7.2300
G01 X2.2380 Y7.2270
G01 X2.2407 Y7.2209
G01 X2.2430 Y7.2145
G01 X2.2449 Y7.2081
G01 X2.2464 Y7.2014
G01 X2.2476 Y7.1945
G01 X2.2483 Y7.1875
G01 X2.2487 Y7.1803
G01 X2.2487 Y7.1767
G01 X2.2487 Y7.1730
G01 X2.2483 Y7.1659
G01 X2.2476 Y7.1588
G01 X2.2464 Y7.1519
G01 X2.2449 Y7.1450
G01 X2.2430 Y7.1384
G01 X2.2407 Y7.1318
G01 X2.2380 Y7.1253
G01 X2.2366 Y7.1222
G01 X2.2358 Y7.1206
G01 X2.2342 Y7.1175
G01 X2.2325 Y7.1146
G01 X2.2307 Y7.1117
G01 X2.2288 Y7.1089
G01 X2.2269 Y7.1063
G01 X2.2249 Y7.1037
G01 X2.2228 Y7.1013
G01 X2.2206 Y7.0989
G01 X2.2183 Y7.0967
G01 X2.2159 Y7.0945
G01 X2.2135 Y7.0925
G01 X2.2110 Y7.0906
G01 X2.2083 Y7.0887
G01 X2.2056 Y7.0870
G01 X2.2029 Y7.0853
G01 X2.2014 Y7.0846
G01 X2.2000 Y7.0838
G01 X2.1971 Y7.0824
G01 X2.1941 Y7.0810
G01 X2.1911 Y7.0798
G01 X2.1880 Y7.0786
G01 X2.1849 Y7.0776
G01 X2.1801 Y7.0762
G01 X2.1735 Y7.0746
G01 X2.1667 Y7.0735
G01 X2.1596 Y7.0727
G01 X2.1524 Y7.0723
G01 X2.1487 Y7.0723
G01 X2.1460 Y7.0723
G01 X2.1407 Y7.0725
G01 X2.1355 Y7.0730
G01 X2.1305 Y7.0736
G01 X2.1256 Y7.0745
G01 X2.1208 Y7.0756
G01 X2.1162 Y7.0769
G01 X2.1117 Y7.0785
G01 X2.1095 Y7.0793
G01 X2.1073 Y7.0802
G01 X2.1032 Y7.0822
G01 X2.0993 Y7.0843
G01 X2.0956 Y7.0865
G01 X2.0921 Y7.0890
G01 X2.0890 Y7.0916
G01 X2.0860 Y7.0944
G01 X2.0833 Y7.0974
G01 X2.0820 Y7.0989
G01 X2.0808 Y7.1005
G01 X2.0784 Y7.1039
G01 X2.0762 Y7.1075
G01 X2.0742 Y7.1114
G01 X2.0723 Y7.1155
G01 X2.0706 Y7.1198
G01 X2.0690 Y7.1244
G01 X2.0675 Y7.1292
G01 X2.0669 Y7.1317
G01 X2.0907 Y7.1383
G01 X2.0913 Y7.1364
G01 X2.0925 Y7.1328
G01 X2.0937 Y7.1294
G01 X2.0951 Y7.1262
G01 X2.0965 Y7.1232
G01 X2.0979 Y7.1204
G01 X2.0995 Y7.1178
G01 X2.1011 Y7.1154
G01 X2.1019 Y7.1143
G01 X2.1028 Y7.1132
G01 X2.1046 Y7.1111
G01 X2.1066 Y7.1091
G01 X2.1088 Y7.1073
G01 X2.1112 Y7.1055
G01 X2.1138 Y7.1039
G01 X2.1165 Y7.1023
G01 X2.1195 Y7.1009
G01 X2.1210 Y7.1003
G01 X2.1226 Y7.0996
G01 X2.1257 Y7.0985
G01 X2.1290 Y7.0975
G01 X2.1324 Y7.0967
G01 X2.1358 Y7.0960
G01 X2.1393 Y7.0955
G01 X2.1430 Y7.0952
G01 X2.1466 Y7.0950
G01 X2.1485 Y7.0950
G01 X2.1508 Y7.0950
G01 X2.1552 Y7.0952
G01 X2.1594 Y7.0955
G01 X2.1635 Y7.0961
G01 X2.1674 Y7.0967
G01 X2.1711 Y7.0976
G01 X2.1748 Y7.0986
G01 X2.1782 Y7.0998
G01 X2.1799 Y7.1005
G01 X2.1815 Y7.1012
G01 X2.1847 Y7.1027
G01 X2.1877 Y7.1043
G01 X2.1905 Y7.1060
G01 X2.1931 Y7.1078
G01 X2.1957 Y7.1098
G01 X2.1980 Y7.1118
G01 X2.2002 Y7.1139
G01 X2.2012 Y7.1150
G01 X2.2022 Y7.1162
G01 X2.2041 Y7.1185
G01 X2.2059 Y7.1208
G01 X2.2076 Y7.1233
G01 X2.2092 Y7.1257
G01 X2.2107 Y7.1283
G01 X2.2120 Y7.1308
G01 X2.2133 Y7.1335
G01 X2.2138 Y7.1348
G01 X2.2148 Y7.1371
G01 X2.2164 Y7.1419
G01 X2.2179 Y7.1467
G01 X2.2191 Y7.1516
G01 X2.2200 Y7.1567
G01 X2.2207 Y7.1618
G01 X2.2212 Y7.1670
G01 X2.2214 Y7.1723
G01 X2.2214 Y7.1750
G01 X2.2214 Y7.1783
G01 X2.2212 Y7.1847
G01 X2.2206 Y7.1909
G01 X2.2197 Y7.1967
G01 X2.2186 Y7.2023
G01 X2.2171 Y7.2077
G01 X2.2154 Y7.2127
G01 X2.2134 Y7.2175
G01 X2.2123 Y7.2198
G01 X2.2111 Y7.2220
G01 X2.2085 Y7.2262
G01 X2.2057 Y7.2301
G01 X2.2026 Y7.2337
G01 X2.1993 Y7.2371
G01 X2.1957 Y7.2401
G01 X2.1918 Y7.2429
G01 X2.1876 Y7.2454
G01 X2.1855 Y7.2465
G01 X2.1833 Y7.2475
G01 X2.1788 Y7.2494
G01 X2.1743 Y7.2511
G01 X2.1697 Y7.2524
G01 X2.1650 Y7.2535
G01 X2.1603 Y7.2544
G01 X2.1555 Y7.2549
G01 X2.1506 Y7.2552
G01 X2.1481 Y7.2552
G01 X2.1460 Y7.2552
G01 X2.1417 Y7.2550
G01 X2.1375 Y7.2546
G01 X2.1332 Y7.2539
G01 X2.1291 Y7.2531
G01 X2.1249 Y7.2521
G01 X2.1207 Y7.2509
G01 X2.1166 Y7.2494
G01 X2.1146 Y7.2486
G01 X2.1126 Y7.2478
G01 X2.1087 Y7.2461
G01 X2.1051 Y7.2444
G01 X2.1018 Y7.2427
G01 X2.0987 Y7.2409
G01 X2.0958 Y7.2391
G01 X2.0932 Y7.2373
G01 X2.0909 Y7.2355
G01 X2.0898 Y7.2345
G01 X2.0898 Y7.1974
G01 X2.1485 Y7.1974
OFF
G00 X4.2220 Y6.0379
ON
G01 X4.2220 Y2.7626
G01 X4.3220 Y2.7626
G01 X4.3220 Y6.0645
OFF
G04 X4.2720 Y6.0212
G00 X4.3220 Y6.0645
ON
G01 X4.2220 Y6.0645
G01 X4.2220 Y6.0379
OFF
G00 X4.9393 Y7.1413
G04 X4.9786 Y7.1108
G00 X4.9393 Y7.1413
ON
G01 X4.9393 Y7.1387
G01 X4.9397 Y7.1337
G01 X4.9404 Y7.1289
G01 X4.9414 Y7.1244
G01 X4.9428 Y7.1203
G01 X4.9441 Y7.1173
G01 X4.9451 Y7.1154
G01 X4.9461 Y7.1136
G01 X4.9473 Y7.1118
G01 X4.9485 Y7.1101
G01 X4.9498 Y7.1085
G01 X4.9519 Y7.1062
G01 X4.9548 Y7.1035
G01 X4.9579 Y7.1012
G01 X4.9612 Y7.0992
G01 X4.9645 Y7.0977
G01 X4.9681 Y7.0965
G01 X4.9717 Y7.0957
G01 X4.9756 Y7.0953
G01 X4.9775 Y7.0953
G01 X4.9796 Y7.0953
G01 X4.9826 Y7.0956
G01 X4.9845 Y7.0959
G01 X4.9864 Y7.0964
G01 X4.9883 Y7.0969
G01 X4.9902 Y7.0975
G01 X4.9920 Y7.0982
G01 X4.9937 Y7.0991
G01 X4.9955 Y7.1000
G01 X4.9980 Y7.1016
G01 X5.0013 Y7.1041
G01 X5.0045 Y7.1071
G01 X5.0060 Y7.1087
G01 X5.0082 Y7.1112
G01 X5.0095 Y7.1130
G01 X5.0107 Y7.1149
G01 X5.0119 Y7.1168
G01 X5.0129 Y7.1188
G01 X5.0138 Y7.1208
G01 X5.0147 Y7.1229
G01 X5.0154 Y7.1251
G01 X5.0161 Y7.1273
G01 X5.0169 Y7.1308
G01 X5.0177 Y7.1356
G01 X5.0180 Y7.1407
G01 X5.0180 Y7.1433
G01 X5.0180 Y7.1457
G01 X5.0177 Y7.1502
G01 X5.0170 Y7.1546
G01 X5.0159 Y7.1587
G01 X5.0145 Y7.1625
G01 X5.0127 Y7.1662
G01 X5.0105 Y7.1696
G01 X5.0080 Y7.1728
G01 X5.0066 Y7.1744
G01 X5.0052 Y7.1758
G01 X5.0021 Y7.1784
G01 X4.9989 Y7.1807
G01 X4.9956 Y7.1825
G01 X4.9920 Y7.1840
G01 X4.9883 Y7.1851
G01 X4.9844 Y7.1859
G01 X4.9803 Y7.1863
G01 X4.9782 Y7.1863
G01 X4.9761 Y7.1863
G01 X4.9720 Y7.1859
G01 X4.9682 Y7.1851
G01 X4.9645 Y7.1840
G01 X4.9610 Y7.1825
G01 X4.9577 Y7.1807
G01 X4.9546 Y7.1784
G01 X4.9516 Y7.1758
G01 X4.9502 Y7.1744
G01 X4.9483 Y7.1720
G01 X4.9471 Y7.1704
G01 X4.9460 Y7.1687
G01 X4.9449 Y7.1669
G01 X4.9440 Y7.1651
G01 X4.9428 Y7.1622
G01 X4.9414 Y7.1580
G01 X4.9404 Y7.1536
G01 X4.9397 Y7.1489
G01 X4.9393 Y7.1439
G01 X4.9393 Y7.1413
OFF
G00 X5.0397 Y7.2294
G04 X4.9777 Y7.1471
G00 X5.0397 Y7.2294
ON
G01 X5.0161 Y7.2273
G01 X5.0157 Y7.2294
G01 X5.0148 Y7.2332
G01 X5.0137 Y7.2368
G01 X5.0124 Y7.2401
G01 X5.0110 Y7.2432
G01 X5.0094 Y7.2459
G01 X5.0076 Y7.2484
G01 X5.0057 Y7.2505
G01 X5.0047 Y7.2515
G01 X5.0036 Y7.2524
G01 X5.0013 Y7.2541
G01 X4.9989 Y7.2555
G01 X4.9964 Y7.2566
G01 X4.9937 Y7.2576
G01 X4.9908 Y7.2583
G01 X4.9878 Y7.2588
G01 X4.9846 Y7.2590
G01 X4.9830 Y7.2590
G01 X4.9816 Y7.2590
G01 X4.9789 Y7.2588
G01 X4.9762 Y7.2585
G01 X4.9736 Y7.2580
G01 X4.9712 Y7.2574
G01 X4.9688 Y7.2566
G01 X4.9664 Y7.2556
G01 X4.9642 Y7.2545
G01 X4.9631 Y7.2538
G01 X4.9621 Y7.2532
G01 X4.9600 Y7.2518
G01 X4.9581 Y7.2502
G01 X4.9563 Y7.2486
G01 X4.9545 Y7.2469
G01 X4.9529 Y7.2451
G01 X4.9513 Y7.2431
G01 X4.9499 Y7.2410
G01 X4.9492 Y7.2400
G01 X4.9485 Y7.2389
G01 X4.9472 Y7.2365
G01 X4.9460 Y7.2340
G01 X4.9448 Y7.2312
G01 X4.9436 Y7.2283
G01 X4.9426 Y7.2252
G01 X4.9410 Y7.2201
G01 X4.9401 Y7.2166
G01 X4.9396 Y7.2147
G01 X4.9388 Y7.2110
G01 X4.9381 Y7.2073
G01 X4.9376 Y7.2036
G01 X4.9371 Y7.1998
G01 X4.9368 Y7.1960
G01 X4.9365 Y7.1922
G01 X4.9364 Y7.1884
G01 X4.9364 Y7.1865
G01 X4.9364 Y7.1845
G01 X4.9365 Y7.1816
G01 X4.9375 Y7.1831
G01 X4.9395 Y7.1859
G01 X4.9417 Y7.1885
G01 X4.9440 Y7.1910
G01 X4.9465 Y7.1934
G01 X4.9492 Y7.1957
G01 X4.9521 Y7.1978
G01 X4.9551 Y7.1997
G01 X4.9566 Y7.2007
G01 X4.9582 Y7.2015
G01 X4.9615 Y7.2031
G01 X4.9648 Y7.2045
G01 X4.9682 Y7.2056
G01 X4.9717 Y7.2066
G01 X4.9752 Y7.2072
G01 X4.9788 Y7.2077
G01 X4.9824 Y7.2079
G01 X4.9842 Y7.2079
G01 X4.9858 Y7.2079
G01 X4.9888 Y7.2078
G01 X4.9918 Y7.2075
G01 X4.9947 Y7.2071
G01 X4.9976 Y7.2065
G01 X5.0004 Y7.2058
G01 X5.0031 Y7.2050
G01 X5.0058 Y7.2040
G01 X5.0084 Y7.2029
G01 X5.0110 Y7.2016
G01 X5.0135 Y7.2002
G01 X5.0160 Y7.1987
G01 X5.0183 Y7.1970
G01 X5.0207 Y7.1951
G01 X5.0229 Y7.1932
G01 X5.0251 Y7.1911
G01 X5.0262 Y7.1900
G01 X5.0273 Y7.1888
G01 X5.0293 Y7.1865
G01 X5.0312 Y7.1841
G01 X5.0329 Y7.1815
G01 X5.0345 Y7.1789
G01 X5.0360 Y7.1762
G01 X5.0373 Y7.1734
G01 X5.0386 Y7.1706
G01 X5.0396 Y7.1676
G01 X5.0406 Y7.1645
G01 X5.0414 Y7.1614
G01 X5.0420 Y7.1582
G01 X5.0426 Y7.1548
G01 X5.0430 Y7.1514
G01 X5.0433 Y7.1479
G01 X5.0434 Y7.1443
G01 X5.0434 Y7.1425
G01 X5.0434 Y7.1406
G01 X5.0432 Y7.1369
G01 X5.0430 Y7.1333
G01 X5.0425 Y7.1298
G01 X5.0420 Y7.1263
G01 X5.0413 Y7.1230
G01 X5.0404 Y7.1198
G01 X5.0395 Y7.1166
G01 X5.0383 Y7.1136
G01 X5.0371 Y7.1106
G01 X5.0357 Y7.1077
G01 X5.0341 Y7.1049
G01 X5.0325 Y7.1022
G01 X5.0306 Y7.0997
G01 X5.0287 Y7.0971
G01 X5.0266 Y7.0947
G01 X5.0255 Y7.0936
G01 X5.0243 Y7.0924
G01 X5.0220 Y7.0903
G01 X5.0197 Y7.0882
G01 X5.0172 Y7.0863
G01 X5.0147 Y7.0846
G01 X5.0121 Y7.0830
G01 X5.0094 Y7.0816
G01 X5.0067 Y7.0803
G01 X5.0039 Y7.0791
G01 X5.0010 Y7.0781
G01 X4.9980 Y7.0772
G01 X4.9950 Y7.0765
G01 X4.9919 Y7.0759
G01 X4.9888 Y7.0755
G01 X4.9855 Y7.0752
G01 X4.9822 Y7.0750
G01 X4.9806 Y7.0750
G01 X4.9781 Y7.0750
G01 X4.9734 Y7.0754
G01 X4.9687 Y7.0761
G01 X4.9641 Y7.0770
G01 X4.9597 Y7.0783
G01 X4.9553 Y7.0800
G01 X4.9511 Y7.0820
G01 X4.9469 Y7.0843
G01 X4.9449 Y7.0855
G01 X4.9429 Y7.0869
G01 X4.9391 Y7.0898
G01 X4.9356 Y7.0930
G01 X4.9323 Y7.0964
G01 X4.9292 Y7.1002
G01 X4.9264 Y7.1042
G01 X4.9238 Y7.1085
G01 X4.9215 Y7.1131
G01 X4.9204 Y7.1155
G01 X4.9199 Y7.1167
G01 X4.9189 Y7.1193
G01 X4.9175 Y7.1234
G01 X4.9160 Y7.1293
G01 X4.9147 Y7.1358
G01 X4.9136 Y7.1428
G01 X4.9128 Y7.1504
G01 X4.9123 Y7.1585
G01 X4.9120 Y7.1672
G01 X4.9120 Y7.1717
G01 X4.9120 Y7.1764
G01 X4.9123 Y7.1855
G01 X4.9128 Y7.1941
G01 X4.9136 Y7.2022
G01 X4.9146 Y7.2099
G01 X4.9159 Y7.2170
G01 X4.9175 Y7.2237
G01 X4.9193 Y7.2298
G01 X4.9203 Y7.2327
G01 X4.9214 Y7.2355
G01 X4.9237 Y7.2408
G01 X4.9263 Y7.2458
G01 X4.9291 Y7.2505
G01 X4.9322 Y7.2548
G01 X4.9356 Y7.2588
G01 X4.9392 Y7.2624
G01 X4.9430 Y7.2658
G01 X4.9451 Y7.2673
G01 X4.9471 Y7.2687
G01 X4.9514 Y7.2713
G01 X4.9559 Y7.2735
G01 X4.9605 Y7.2754
G01 X4.9653 Y7.2769
G01 X4.9703 Y7.2780
G01 X4.9755 Y7.2787
G01 X4.9808 Y7.2791
G01 X4.9836 Y7.2791
G01 X4.9865 Y7.2791
G01 X4.9907 Y7.2788
G01 X4.9934 Y7.2785
G01 X4.9961 Y7.2781
G01 X4.9987 Y7.2776
G01 X5.0012 Y7.2770
G01 X5.0037 Y7.2763
G01 X5.0061 Y7.2755
G01 X5.0084 Y7.2745
G01 X5.0107 Y7.2735
G01 X5.0128 Y7.2724
G01 X5.0150 Y7.2712
G01 X5.0170 Y7.2699
G01 X5.0190 Y7.2684
G01 X5.0209 Y7.2669
G01 X5.0228 Y7.2653
G01 X5.0246 Y7.2636
G01 X5.0262 Y7.2618
G01 X5.0278 Y7.2599
G01 X5.0293 Y7.2579
G01 X5.0307 Y7.2559
G01 X5.0320 Y7.2538
G01 X5.0332 Y7.2516
G01 X5.0343 Y7.2493
G01 X5.0353 Y7.2469
G01 X5.0363 Y7.2444
G01 X5.0371 Y7.2419
G01 X5.0379 Y7.2393
G01 X5.0385 Y7.2366
G01 X5.0393 Y7.2324
G01 X5.0397 Y7.2294
OFF
G00 X5.0698 Y7.2522
G04 X5.1358 Y7.1454
G00 X5.0698 Y7.2522
ON
G01 X5.0698 Y7.2758
G01 X5.2019 Y7.2758
G01 X5.2019 Y7.2736
G01 X5.2018 Y7.2703
G01 X5.2015 Y7.2682
G01 X5.2012 Y7.2660
G01 X5.2007 Y7.2639
G01 X5.2001 Y7.2618
G01 X5.1994 Y7.2597
G01 X5.1991 Y7.2587
G01 X5.1984 Y7.2570
G01 X5.1970 Y7.2537
G01 X5.1953 Y7.2503
G01 X5.1935 Y7.2470
G01 X5.1915 Y7.2436
G01 X5.1893 Y7.2403
G01 X5.1868 Y7.2370
G01 X5.1843 Y7.2337
G01 X5.1829 Y7.2321
G01 X5.1815 Y7.2305
G01 X5.1784 Y7.2271
G01 X5.1750 Y7.2235
G01 X5.1713 Y7.2199
G01 X5.1673 Y7.2161
G01 X5.1629 Y7.2122
G01 X5.1559 Y7.2061
G01 X5.1508 Y7.2019
G01 X5.1468 Y7.1986
G01 X5.1393 Y7.1922
G01 X5.1325 Y7.1862
G01 X5.1263 Y7.1806
G01 X5.1208 Y7.1753
G01 X5.1160 Y7.1703
G01 X5.1118 Y7.1657
G01 X5.1083 Y7.1615
G01 X5.1068 Y7.1595
G01 X5.1054 Y7.1575
G01 X5.1029 Y7.1537
G01 X5.1008 Y7.1499
G01 X5.0990 Y7.1461
G01 X5.0976 Y7.1424
G01 X5.0965 Y7.1388
G01 X5.0958 Y7.1352
G01 X5.0954 Y7.1317
G01 X5.0954 Y7.1299
G01 X5.0954 Y7.1281
G01 X5.0957 Y7.1246
G01 X5.0964 Y7.1213
G01 X5.0974 Y7.1180
G01 X5.0987 Y7.1150
G01 X5.1003 Y7.1120
G01 X5.1023 Y7.1092
G01 X5.1045 Y7.1066
G01 X5.1058 Y7.1053
G01 X5.1071 Y7.1041
G01 X5.1099 Y7.1019
G01 X5.1129 Y7.1000
G01 X5.1161 Y7.0985
G01 X5.1195 Y7.0972
G01 X5.1231 Y7.0963
G01 X5.1269 Y7.0957
G01 X5.1309 Y7.0953
G01 X5.1330 Y7.0953
G01 X5.1352 Y7.0953
G01 X5.1394 Y7.0957
G01 X5.1433 Y7.0963
G01 X5.1471 Y7.0973
G01 X5.1507 Y7.0987
G01 X5.1540 Y7.1003
G01 X5.1571 Y7.1023
G01 X5.1599 Y7.1046
G01 X5.1613 Y7.1059
G01 X5.1626 Y7.1073
G01 X5.1649 Y7.1102
G01 X5.1669 Y7.1134
G01 X5.1686 Y7.1168
G01 X5.1699 Y7.1205
G01 X5.1710 Y7.1244
G01 X5.1716 Y7.1286
G01 X5.1720 Y7.1331
G01 X5.1720 Y7.1354
G01 X5.1974 Y7.1328
G01 X5.1972 Y7.1311
G01 X5.1968 Y7.1276
G01 X5.1962 Y7.1243
G01 X5.1955 Y7.1211
G01 X5.1948 Y7.1180
G01 X5.1939 Y7.1150
G01 X5.1929 Y7.1121
G01 X5.1918 Y7.1093
G01 X5.1906 Y7.1066
G01 X5.1892 Y7.1040
G01 X5.1878 Y7.1016
G01 X5.1862 Y7.0992
G01 X5.1846 Y7.0969
G01 X5.1828 Y7.0948
G01 X5.1809 Y7.0927
G01 X5.1789 Y7.0907
G01 X5.1779 Y7.0898
G01 X5.1768 Y7.0889
G01 X5.1746 Y7.0872
G01 X5.1723 Y7.0856
G01 X5.1699 Y7.0840
G01 X5.1674 Y7.0827
G01 X5.1649 Y7.0814
G01 X5.1622 Y7.0802
G01 X5.1594 Y7.0792
G01 X5.1566 Y7.0783
G01 X5.1537 Y7.0775
G01 X5.1507 Y7.0768
G01 X5.1475 Y7.0762
G01 X5.1443 Y7.0757
G01 X5.1411 Y7.0754
G01 X5.1377 Y7.0752
G01 X5.1342 Y7.0750
G01 X5.1324 Y7.0750
G01 X5.1306 Y7.0750
G01 X5.1271 Y7.0752
G01 X5.1237 Y7.0754
G01 X5.1204 Y7.0758
G01 X5.1172 Y7.0763
G01 X5.1141 Y7.0769
G01 X5.1110 Y7.0777
G01 X5.1081 Y7.0785
G01 X5.1052 Y7.0795
G01 X5.1025 Y7.0806
G01 X5.0998 Y7.0819
G01 X5.0972 Y7.0833
G01 X5.0948 Y7.0848
G01 X5.0924 Y7.0864
G01 X5.0901 Y7.0881
G01 X5.0879 Y7.0900
G01 X5.0869 Y7.0910
G01 X5.0858 Y7.0920
G01 X5.0839 Y7.0940
G01 X5.0820 Y7.0961
G01 X5.0803 Y7.0983
G01 X5.0787 Y7.1006
G01 X5.0773 Y7.1028
G01 X5.0760 Y7.1052
G01 X5.0748 Y7.1076
G01 X5.0738 Y7.1101
G01 X5.0728 Y7.1126
G01 X5.0721 Y7.1152
G01 X5.0714 Y7.1179
G01 X5.0709 Y7.1206
G01 X5.0705 Y7.1233
G01 X5.0702 Y7.1262
G01 X5.0701 Y7.1290
G01 X5.0701 Y7.1305
G01 X5.0701 Y7.1320
G01 X5.0703 Y7.1350
G01 X5.0706 Y7.1380
G01 X5.0710 Y7.1409
G01 X5.0716 Y7.1439
G01 X5.0724 Y7.1468
G01 X5.0733 Y7.1497
G01 X5.0744 Y7.1527
G01 X5.0750 Y7.1541
G01 X5.0756 Y7.1556
G01 X5.0771 Y7.1585
G01 X5.0787 Y7.1615
G01 X5.0805 Y7.1645
G01 X5.0825 Y7.1675
G01 X5.0848 Y7.1706
G01 X5.0872 Y7.1737
G01 X5.0899 Y7.1769
G01 X5.0913 Y7.1785
G01 X5.0927 Y7.1801
G01 X5.0961 Y7.1837
G01 X5.0998 Y7.1875
G01 X5.1041 Y7.1916
G01 X5.1114 Y7.1983
G01 X5.1227 Y7.2083
G01 X5.1291 Y7.2137
G01 X5.1343 Y7.2181
G01 X5.1434 Y7.2259
G01 X5.1505 Y7.2322
G01 X5.1556 Y7.2370
G01 X5.1574 Y7.2389
G01 X5.1590 Y7.2405
G01 X5.1618 Y7.2438
G01 X5.1644 Y7.2472
G01 X5.1667 Y7.2505
G01 X5.1678 Y7.2522
G01 X5.0698 Y7.2522
OFF
G00 X5.3125 Y7.1974
G04 X5.3203 Y7.1457
G00 X5.3125 Y7.1974
ON
G01 X5.3125 Y7.1738
G01 X5.2279 Y7.1738
G01 X5.2279 Y7.2479
G01 X5.2303 Y7.2498
G01 X5.2352 Y7.2535
G01 X5.2402 Y7.2569
G01 X5.2452 Y7.2601
G01 X5.2502 Y7.2630
G01 X5.2552 Y7.2657
G01 X5.2604 Y7.2681
G01 X5.2655 Y7.2703
G01 X5.2681 Y7.2713
G01 X5.2707 Y7.2723
G01 X5.2759 Y7.2740
G01 X5.2811 Y7.2754
G01 X5.2864 Y7.2767
G01 X5.2917 Y7.2776
G01 X5.2971 Y7.2784
G01 X5.3025 Y7.2789
G01 X5.3079 Y7.2791
G01 X5.3106 Y7.2791
G01 X5.3143 Y7.2791
G01 X5.3215 Y7.2787
G01 X5.3285 Y7.2779
G01 X5.3354 Y7.2767
G01 X5.3421 Y7.2751
G01 X5.3486 Y7.2732
G01 X5.3549 Y7.2708
G01 X5.3611 Y7.2680
G01 X5.3641 Y7.2665
G01 X5.3656 Y7.2657
G01 X5.3686 Y7.2641
G01 X5.3714 Y7.2623
G01 X5.3741 Y7.2605
G01 X5.3768 Y7.2585
G01 X5.3793 Y7.2565
G01 X5.3818 Y7.2544
G01 X5.3841 Y7.2522
G01 X5.3864 Y7.2499
G01 X5.3886 Y7.2476
G01 X5.3907 Y7.2451
G01 X5.3927 Y7.2426
G01 X5.3946 Y7.2399
G01 X5.3964 Y7.2372
G01 X5.3981 Y7.2344
G01 X5.3997 Y7.2315
G01 X5.4005 Y7.2300
G01 X5.4020 Y7.2270
G01 X5.4047 Y7.2209
G01 X5.4070 Y7.2145
G01 X5.4089 Y7.2081
G01 X5.4104 Y7.2014
G01 X5.4116 Y7.1945
G01 X5.4123 Y7.1875
G01 X5.4127 Y7.1803
G01 X5.4127 Y7.1767
G01 X5.4127 Y7.1730
G01 X5.4123 Y7.1659
G01 X5.4116 Y7.1588
G01 X5.4104 Y7.1519
G01 X5.4089 Y7.1450
G01 X5.4070 Y7.1384
G01 X5.4047 Y7.1318
G01 X5.4020 Y7.1253
G01 X5.4006 Y7.1222
G01 X5.3998 Y7.1206
G01 X5.3982 Y7.1175
G01 X5.3965 Y7.1146
G01 X5.3947 Y7.1117
G01 X5.3928 Y7.1089
G01 X5.3909 Y7.1063
G01 X5.3889 Y7.1037
G01 X5.3868 Y7.1013
G01 X5.3846 Y7.0989
G01 X5.3823 Y7.0967
G01 X5.3799 Y7.0945
G01 X5.3775 Y7.0925
G01 X5.3750 Y7.0906
G01 X5.3723 Y7.0887
G01 X5.3696 Y7.0870
G01 X5.3669 Y7.0853
G01 X5.3654 Y7.0846
G01 X5.3640 Y7.0838
G01 X5.3611 Y7.0824
G01 X5.3581 Y7.0810
G01 X5.3551 Y7.0798
G01 X5.3520 Y7.0786
G01 X5.3489 Y7.0776
G01 X5.3441 Y7.0762
G01 X5.3375 Y7.0746
G01 X5.3307 Y7.0735
G01 X5.3236 Y7.0727
G01 X5.3164 Y7.0723
G01 X5.3127 Y7.0723
G01 X5.3100 Y7.0723
G01 X5.3047 Y7.0725
G01 X5.2995 Y7.0730
G01 X5.2945 Y7.0736
G01 X5.2896 Y7.0745
G01 X5.2848 Y7.0756
G01 X5.2802 Y7.0769
G01 X5.2757 Y7.0785
G01 X5.2735 Y7.0793
G01 X5.2713 Y7.0802
G01 X5.2672 Y7.0822
G01 X5.2633 Y7.0843
G01 X5.2596 Y7.0865
G01 X5.2561 Y7.0890
G01 X5.2530 Y7.0916
G01 X5.2500 Y7.0944
G01 X5.2473 Y7.0974
G01 X5.2460 Y7.0989
G01 X5.2448 Y7.1005
G01 X5.2424 Y7.1039
G01 X5.2402 Y7.1075
G01 X5.2382 Y7.1114
G01 X5.2363 Y7.1155
G01 X5.2346 Y7.1198
G01 X5.2330 Y7.1244
G01 X5.2315 Y7.1292
G01 X5.2309 Y7.1317
G01 X5.2547 Y7.1383
G01 X5.2553 Y7.1364
G01 X5.2565 Y7.1328
G01 X5.2577 Y7.1294
G01 X5.2591 Y7.1262
G01 X5.2605 Y7.1232
G01 X5.2619 Y7.1204
G01 X5.2635 Y7.1178
G01 X5.2651 Y7.1154
G01 X5.2659 Y7.1143
G01 X5.2668 Y7.1132
G01 X5.2686 Y7.1111
G01 X5.2706 Y7.1091
G01 X5.2728 Y7.1073
G01 X5.2752 Y7.1055
G01 X5.2778 Y7.1039
G01 X5.2805 Y7.1023
G01 X5.2835 Y7.1009
G01 X5.2850 Y7.1003
G01 X5.2866 Y7.0996
G01 X5.2897 Y7.0985
G01 X5.2930 Y7.0975
G01 X5.2964 Y7.0967
G01 X5.2998 Y7.0960
G01 X5.3033 Y7.0955
G01 X5.3070 Y7.0952
G01 X5.3106 Y7.0950
G01 X5.3125 Y7.0950
G01 X5.3148 Y7.0950
G01 X5.3192 Y7.0952
G01 X5.3234 Y7.0955
G01 X5.3275 Y7.0961
G01 X5.3314 Y7.0967
G01 X5.3351 Y7.0976
G01 X5.3388 Y7.0986
G01 X5.3422 Y7.0998
G01 X5.3439 Y7.1005
G01 X5.3455 Y7.1012
G01 X5.3487 Y7.1027
G01 X5.3517 Y7.1043
G01 X5.3545 Y7.1060
G01 X5.3571 Y7.1078
G01 X5.3597 Y7.1098
G01 X5.3620 Y7.1118
G01 X5.3642 Y7.1139
G01 X5.3652 Y7.1150
G01 X5.3662 Y7.1162
G01 X5.3681 Y7.1185
G01 X5.3699 Y7.1208
G01 X5.3716 Y7.1233
G01 X5.3732 Y7.1257
G01 X5.3747 Y7.1283
G01 X5.3760 Y7.1308
G01 X5.3773 Y7.1335
G01 X5.3778 Y7.1348
G01 X5.3788 Y7.1371
G01 X5.3804 Y7.1419
G01 X5.3819 Y7.1467
G01 X5.3831 Y7.1516
G01 X5.3840 Y7.1567
G01 X5.3847 Y7.1618
G01 X5.3852 Y7.1670
G01 X5.3854 Y7.1723
G01 X5.3854 Y7.1750
G01 X5.3854 Y7.1783
G01 X5.3852 Y7.1847
G01 X5.3846 Y7.1909
G01 X5.3837 Y7.1967
G01 X5.3826 Y7.2023
G01 X5.3811 Y7.2077
G01 X5.3794 Y7.2127
G01 X5.3774 Y7.2175
G01 X5.3763 Y7.2198
G01 X5.3751 Y7.2220
G01 X5.3725 Y7.2262
G01 X5.3697 Y7.2301
G01 X5.3666 Y7.2337
G01 X5.3633 Y7.2371
G01 X5.3597 Y7.2401
G01 X5.3558 Y7.2429
G01 X5.3516 Y7.2454
G01 X5.3495 Y7.2465
G01 X5.3473 Y7.2475
G01 X5.3428 Y7.2494
G01 X5.3383 Y7.2511
G01 X5.3337 Y7.2524
G01 X5.3290 Y7.2535
G01 X5.3243 Y7.2544
G01 X5.3195 Y7.2549
G01 X5.3146 Y7.2552
G01 X5.3121 Y7.2552
G01 X5.3100 Y7.2552
G01 X5.3057 Y7.2550
G01 X5.3015 Y7.2546
G01 X5.2972 Y7.2539
G01 X5.2931 Y7.2531
G01 X5.2889 Y7.2521
G01 X5.2847 Y7.2509
G01 X5.2806 Y7.2494
G01 X5.2786 Y7.2486
G01 X5.2766 Y7.2478
G01 X5.2727 Y7.2461
G01 X5.2691 Y7.2444
G01 X5.2658 Y7.2427
G01 X5.2627 Y7.2409
G01 X5.2598 Y7.2391
G01 X5.2572 Y7.2373
G01 X5.2549 Y7.2355
G01 X5.2538 Y7.2345
G01 X5.2538 Y7.1974
G01 X5.3125 Y7.1974
OFF
G00 X7.0319 Y7.1272
ON
G01 X7.0319 Y2.7626
G01 X7.1319 Y2.7626
G01 X7.1319 Y7.1272
G01 X7.0319 Y7.1272
OFF
G00 X9.6304 Y6.0575
ON
G01 X9.9362 Y2.7626
G01 X10.0366 Y2.7626
G01 X9.7308 Y6.0575
G01 X9.6304 Y6.0575
OFF
G00 X12.2548 Y3.3572
ON
G01 X12.4886 Y3.2345
G01 X12.9301 Y4.0755
G01 X13.1859 Y1.3190
G01 X13.4486 Y1.3434
G01 X13.1927 Y4.0999
G01 X13.7815 Y3.3545
G01 X13.9886 Y3.5182
G01 X12.9978 Y4.7726
G01 X12.2548 Y3.3572
OFF
G00 X7.8965 Y2.6072
ON
G01 X8.0017 Y2.6072
G01 X7.7311 Y2.9885
G01 X7.9577 Y3.3089
G01 X7.8510 Y3.3089
OFF
G04 X7.7644 Y3.1564
G00 X7.8510 Y3.3089
ON
G01 X7.7248 Y3.1303
G01 X7.6778 Y3.0638
G01 X7.5037 Y3.3088
G01 X7.3986 Y3.3088
G01 X7.6252 Y2.9895
G01 X7.3548 Y2.6071
G01 X7.4616 Y2.6071
G01 X7.6374 Y2.8562
G01 X7.6788 Y2.9142
G01 X7.8965 Y2.6072
OFF
G00 X7.6341 Y2.1692
G04 X7.6517 Y2.0392
G00 X7.6341 Y2.1692
ON
G01 X7.6341 Y2.1214
G01 X7.7208 Y2.1214
G01 X7.7208 Y2.0988
G01 X7.6297 Y1.9692
G01 X7.6095 Y1.9692
G01 X7.6095 Y2.0988
G01 X7.5826 Y2.0988
G01 X7.5826 Y2.1214
G01 X7.6095 Y2.1214
G01 X7.6095 Y2.1692
G01 X7.6341 Y2.1692
OFF
G00 X7.6341 Y2.0988
G04 X7.6654 Y2.0237
G00 X7.6341 Y2.0988
ON
G01 X7.6341 Y2.0085
G01 X7.6967 Y2.0988
G01 X7.6341 Y2.0988
OFF
G00 X7.5574 Y2.0706
G04 X7.4922 Y2.0405
G00 X7.5574 Y2.0706
ON
G01 X7.5574 Y2.0662
G01 X7.5571 Y2.0578
G01 X7.5567 Y2.0498
G01 X7.5560 Y2.0422
G01 X7.5551 Y2.0351
G01 X7.5540 Y2.0284
G01 X7.5526 Y2.0221
G01 X7.5510 Y2.0162
G01 X7.5501 Y2.0135
G01 X7.5492 Y2.0108
G01 X7.5471 Y2.0057
G01 X7.5449 Y2.0009
G01 X7.5424 Y1.9964
G01 X7.5397 Y1.9923
G01 X7.5367 Y1.9884
G01 X7.5336 Y1.9849
G01 X7.5302 Y1.9816
G01 X7.5284 Y1.9801
G01 X7.5257 Y1.9781
G01 X7.5238 Y1.9768
G01 X7.5218 Y1.9756
G01 X7.5187 Y1.9740
G01 X7.5144 Y1.9722
G01 X7.5099 Y1.9707
G01 X7.5051 Y1.9696
G01 X7.5002 Y1.9689
G01 X7.4949 Y1.9685
G01 X7.4922 Y1.9685
G01 X7.4902 Y1.9685
G01 X7.4863 Y1.9687
G01 X7.4826 Y1.9691
G01 X7.4789 Y1.9697
G01 X7.4754 Y1.9705
G01 X7.4720 Y1.9715
G01 X7.4687 Y1.9727
G01 X7.4655 Y1.9742
G01 X7.4640 Y1.9749
G01 X7.4625 Y1.9758
G01 X7.4596 Y1.9776
G01 X7.4568 Y1.9795
G01 X7.4541 Y1.9817
G01 X7.4516 Y1.9840
G01 X7.4493 Y1.9865
G01 X7.4470 Y1.9892
G01 X7.4449 Y1.9921
G01 X7.4439 Y1.9936
G01 X7.4430 Y1.9952
G01 X7.4411 Y1.9984
G01 X7.4393 Y2.0018
G01 X7.4377 Y2.0053
G01 X7.4361 Y2.0090
G01 X7.4347 Y2.0129
G01 X7.4334 Y2.0170
G01 X7.4321 Y2.0212
G01 X7.4316 Y2.0233
G01 X7.4310 Y2.0256
G01 X7.4300 Y2.0303
G01 X7.4292 Y2.0355
G01 X7.4285 Y2.0410
G01 X7.4279 Y2.0469
G01 X7.4275 Y2.0532
G01 X7.4272 Y2.0599
G01 X7.4271 Y2.0669
G01 X7.4271 Y2.0706
G01 X7.4271 Y2.0749
G01 X7.4273 Y2.0833
G01 X7.4278 Y2.0913
G01 X7.4284 Y2.0988
G01 X7.4294 Y2.1059
G01 X7.4305 Y2.1126
G01 X7.4318 Y2.1188
G01 X7.4334 Y2.1247
G01 X7.4343 Y2.1274
G01 X7.4352 Y2.1301
G01 X7.4373 Y2.1352
G01 X7.4395 Y2.1400
G01 X7.4420 Y2.1445
G01 X7.4447 Y2.1486
G01 X7.4476 Y2.1525
G01 X7.4508 Y2.1561
G01 X7.4541 Y2.1593
G01 X7.4559 Y2.1608
G01 X7.4587 Y2.1629
G01 X7.4606 Y2.1642
G01 X7.4626 Y2.1654
G01 X7.4646 Y2.1665
G01 X7.4667 Y2.1675
G01 X7.4699 Y2.1689
G01 X7.4745 Y2.1703
G01 X7.4793 Y2.1714
G01 X7.4843 Y2.1722
G01 X7.4895 Y2.1725
G01 X7.4922 Y2.1725
G01 X7.4940 Y2.1725
G01 X7.4975 Y2.1724
G01 X7.5010 Y2.1721
G01 X7.5043 Y2.1716
G01 X7.5075 Y2.1709
G01 X7.5106 Y2.1701
G01 X7.5137 Y2.1692
G01 X7.5166 Y2.1680
G01 X7.5194 Y2.1667
G01 X7.5222 Y2.1653
G01 X7.5248 Y2.1637
G01 X7.5274 Y2.1619
G01 X7.5298 Y2.1600
G01 X7.5322 Y2.1579
G01 X7.5344 Y2.1556
G01 X7.5366 Y2.1532
G01 X7.5376 Y2.1519
G01 X7.5388 Y2.1503
G01 X7.5412 Y2.1470
G01 X7.5433 Y2.1433
G01 X7.5453 Y2.1395
G01 X7.5472 Y2.1354
G01 X7.5489 Y2.1310
G01 X7.5504 Y2.1264
G01 X7.5518 Y2.1216
G01 X7.5531 Y2.1165
G01 X7.5541 Y2.1112
G01 X7.5551 Y2.1056
G01 X7.5558 Y2.0998
G01 X7.5565 Y2.0937
G01 X7.5569 Y2.0874
G01 X7.5572 Y2.0809
G01 X7.5574 Y2.0741
G01 X7.5574 Y2.0706
OFF
G00 X7.5321 Y2.0706
G04 X7.4922 Y2.0406
G00 X7.5321 Y2.0706
ON
G01 X7.5321 Y2.0766
G01 X7.5317 Y2.0879
G01 X7.5312 Y2.0957
G01 X7.5307 Y2.1006
G01 X7.5302 Y2.1052
G01 X7.5296 Y2.1096
G01 X7.5289 Y2.1137
G01 X7.5280 Y2.1175
G01 X7.5271 Y2.1211
G01 X7.5262 Y2.1244
G01 X7.5251 Y2.1275
G01 X7.5239 Y2.1303
G01 X7.5227 Y2.1328
G01 X7.5213 Y2.1351
G01 X7.5206 Y2.1362
G01 X7.5199 Y2.1372
G01 X7.5184 Y2.1391
G01 X7.5169 Y2.1409
G01 X7.5153 Y2.1425
G01 X7.5137 Y2.1441
G01 X7.5121 Y2.1454
G01 X7.5104 Y2.1467
G01 X7.5086 Y2.1479
G01 X7.5069 Y2.1489
G01 X7.5051 Y2.1498
G01 X7.5032 Y2.1505
G01 X7.5013 Y2.1512
G01 X7.4994 Y2.1517
G01 X7.4974 Y2.1521
G01 X7.4953 Y2.1523
G01 X7.4933 Y2.1524
G01 X7.4922 Y2.1524
G01 X7.4912 Y2.1524
G01 X7.4891 Y2.1523
G01 X7.4871 Y2.1521
G01 X7.4851 Y2.1517
G01 X7.4832 Y2.1512
G01 X7.4813 Y2.1505
G01 X7.4794 Y2.1498
G01 X7.4776 Y2.1489
G01 X7.4758 Y2.1478
G01 X7.4741 Y2.1467
G01 X7.4724 Y2.1454
G01 X7.4708 Y2.1440
G01 X7.4692 Y2.1425
G01 X7.4676 Y2.1408
G01 X7.4661 Y2.1390
G01 X7.4646 Y2.1371
G01 X7.4639 Y2.1361
G01 X7.4632 Y2.1351
G01 X7.4618 Y2.1328
G01 X7.4606 Y2.1302
G01 X7.4594 Y2.1274
G01 X7.4583 Y2.1243
G01 X7.4573 Y2.1210
G01 X7.4564 Y2.1174
G01 X7.4556 Y2.1136
G01 X7.4549 Y2.1095
G01 X7.4543 Y2.1051
G01 X7.4537 Y2.1005
G01 X7.4533 Y2.0957
G01 X7.4528 Y2.0879
G01 X7.4524 Y2.0766
G01 X7.4524 Y2.0706
G01 X7.4524 Y2.0645
G01 X7.4528 Y2.0532
G01 X7.4533 Y2.0454
G01 X7.4537 Y2.0406
G01 X7.4543 Y2.0359
G01 X7.4549 Y2.0316
G01 X7.4556 Y2.0275
G01 X7.4564 Y2.0236
G01 X7.4573 Y2.0200
G01 X7.4583 Y2.0167
G01 X7.4594 Y2.0137
G01 X7.4605 Y2.0109
G01 X7.4618 Y2.0083
G01 X7.4631 Y2.0060
G01 X7.4638 Y2.0050
G01 X7.4660 Y2.0021
G01 X7.4676 Y2.0003
G01 X7.4691 Y1.9986
G01 X7.4708 Y1.9971
G01 X7.4724 Y1.9957
G01 X7.4741 Y1.9945
G01 X7.4759 Y1.9933
G01 X7.4777 Y1.9923
G01 X7.4795 Y1.9914
G01 X7.4814 Y1.9907
G01 X7.4833 Y1.9900
G01 X7.4853 Y1.9895
G01 X7.4873 Y1.9891
G01 X7.4893 Y1.9889
G01 X7.4914 Y1.9888
G01 X7.4925 Y1.9888
G01 X7.4936 Y1.9888
G01 X7.4956 Y1.9889
G01 X7.4976 Y1.9891
G01 X7.4996 Y1.9894
G01 X7.5015 Y1.9899
G01 X7.5033 Y1.9904
G01 X7.5051 Y1.9911
G01 X7.5068 Y1.9919
G01 X7.5085 Y1.9928
G01 X7.5102 Y1.9938
G01 X7.5117 Y1.9949
G01 X7.5133 Y1.9961
G01 X7.5147 Y1.9975
G01 X7.5162 Y1.9989
G01 X7.5175 Y2.0005
G01 X7.5188 Y2.0022
G01 X7.5203 Y2.0042
G01 X7.5217 Y2.0068
G01 X7.5231 Y2.0095
G01 X7.5244 Y2.0125
G01 X7.5256 Y2.0158
G01 X7.5267 Y2.0193
G01 X7.5276 Y2.0230
G01 X7.5285 Y2.0270
G01 X7.5293 Y2.0312
G01 X7.5300 Y2.0357
G01 X7.5306 Y2.0404
G01 X7.5311 Y2.0453
G01 X7.5315 Y2.0505
G01 X7.5318 Y2.0560
G01 X7.5320 Y2.0646
G01 X7.5320 Y2.0706
OFF
G00 X7.8265 Y2.0909
G04 X7.8343 Y2.0392
G00 X7.8265 Y2.0909
ON
G01 X7.8265 Y2.0672
G01 X7.7419 Y2.0672
G01 X7.7419 Y2.1414
G01 X7.7443 Y2.1433
G01 X7.7492 Y2.1469
G01 X7.7542 Y2.1503
G01 X7.7592 Y2.1535
G01 X7.7642 Y2.1564
G01 X7.7692 Y2.1591
G01 X7.7744 Y2.1615
G01 X7.7795 Y2.1637
G01 X7.7821 Y2.1647
G01 X7.7847 Y2.1657
G01 X7.7899 Y2.1674
G01 X7.7951 Y2.1689
G01 X7.8004 Y2.1701
G01 X7.8057 Y2.1711
G01 X7.8111 Y2.1718
G01 X7.8165 Y2.1723
G01 X7.8219 Y2.1725
G01 X7.8246 Y2.1725
G01 X7.8283 Y2.1725
G01 X7.8355 Y2.1721
G01 X7.8425 Y2.1713
G01 X7.8494 Y2.1702
G01 X7.8561 Y2.1686
G01 X7.8626 Y2.1666
G01 X7.8689 Y2.1642
G01 X7.8751 Y2.1615
G01 X7.8781 Y2.1600
G01 X7.8796 Y2.1592
G01 X7.8826 Y2.1575
G01 X7.8854 Y2.1557
G01 X7.8881 Y2.1539
G01 X7.8908 Y2.1520
G01 X7.8933 Y2.1499
G01 X7.8958 Y2.1478
G01 X7.8981 Y2.1456
G01 X7.9004 Y2.1434
G01 X7.9026 Y2.1410
G01 X7.9047 Y2.1385
G01 X7.9067 Y2.1360
G01 X7.9086 Y2.1334
G01 X7.9104 Y2.1306
G01 X7.9121 Y2.1278
G01 X7.9137 Y2.1249
G01 X7.9145 Y2.1235
G01 X7.9160 Y2.1204
G01 X7.9187 Y2.1143
G01 X7.9210 Y2.1080
G01 X7.9229 Y2.1015
G01 X7.9244 Y2.0948
G01 X7.9256 Y2.0880
G01 X7.9263 Y2.0810
G01 X7.9267 Y2.0738
G01 X7.9267 Y2.0701
G01 X7.9267 Y2.0665
G01 X7.9263 Y2.0593
G01 X7.9256 Y2.0522
G01 X7.9244 Y2.0453
G01 X7.9229 Y2.0385
G01 X7.9210 Y2.0318
G01 X7.9187 Y2.0252
G01 X7.9160 Y2.0188
G01 X7.9146 Y2.0156
G01 X7.9138 Y2.0140
G01 X7.9122 Y2.0110
G01 X7.9105 Y2.0080
G01 X7.9087 Y2.0051
G01 X7.9068 Y2.0024
G01 X7.9049 Y1.9997
G01 X7.9029 Y1.9972
G01 X7.9008 Y1.9947
G01 X7.8986 Y1.9924
G01 X7.8963 Y1.9901
G01 X7.8939 Y1.9880
G01 X7.8915 Y1.9859
G01 X7.8890 Y1.9840
G01 X7.8863 Y1.9822
G01 X7.8836 Y1.9804
G01 X7.8809 Y1.9788
G01 X7.8794 Y1.9780
G01 X7.8780 Y1.9772
G01 X7.8751 Y1.9758
G01 X7.8721 Y1.9745
G01 X7.8691 Y1.9732
G01 X7.8660 Y1.9721
G01 X7.8629 Y1.9710
G01 X7.8581 Y1.9696
G01 X7.8515 Y1.9681
G01 X7.8447 Y1.9669
G01 X7.8376 Y1.9661
G01 X7.8304 Y1.9658
G01 X7.8267 Y1.9658
G01 X7.8240 Y1.9658
G01 X7.8187 Y1.9660
G01 X7.8135 Y1.9664
G01 X7.8085 Y1.9671
G01 X7.8036 Y1.9679
G01 X7.7988 Y1.9690
G01 X7.7942 Y1.9704
G01 X7.7897 Y1.9719
G01 X7.7875 Y1.9728
G01 X7.7853 Y1.9737
G01 X7.7812 Y1.9756
G01 X7.7773 Y1.9777
G01 X7.7736 Y1.9800
G01 X7.7701 Y1.9824
G01 X7.7670 Y1.9851
G01 X7.7640 Y1.9878
G01 X7.7613 Y1.9908
G01 X7.7600 Y1.9924
G01 X7.7588 Y1.9940
G01 X7.7564 Y1.9974
G01 X7.7542 Y2.0010
G01 X7.7522 Y2.0048
G01 X7.7503 Y2.0089
G01 X7.7486 Y2.0133
G01 X7.7470 Y2.0179
G01 X7.7455 Y2.0227
G01 X7.7449 Y2.0252
G01 X7.7687 Y2.0317
G01 X7.7693 Y2.0298
G01 X7.7705 Y2.0262
G01 X7.7717 Y2.0228
G01 X7.7731 Y2.0196
G01 X7.7745 Y2.0166
G01 X7.7759 Y2.0138
G01 X7.7775 Y2.0112
G01 X7.7791 Y2.0088
G01 X7.7799 Y2.0077
G01 X7.7808 Y2.0066
G01 X7.7826 Y2.0045
G01 X7.7846 Y2.0026
G01 X7.7868 Y2.0007
G01 X7.7892 Y1.9990
G01 X7.7918 Y1.9973
G01 X7.7945 Y1.9958
G01 X7.7975 Y1.9944
G01 X7.7990 Y1.9937
G01 X7.8006 Y1.9931
G01 X7.8037 Y1.9919
G01 X7.8070 Y1.9909
G01 X7.8104 Y1.9901
G01 X7.8138 Y1.9894
G01 X7.8173 Y1.9889
G01 X7.8210 Y1.9886
G01 X7.8246 Y1.9884
G01 X7.8265 Y1.9884
G01 X7.8288 Y1.9884
G01 X7.8332 Y1.9886
G01 X7.8374 Y1.9890
G01 X7.8415 Y1.9895
G01 X7.8454 Y1.9902
G01 X7.8491 Y1.9910
G01 X7.8528 Y1.9921
G01 X7.8562 Y1.9933
G01 X7.8579 Y1.9940
G01 X7.8595 Y1.9947
G01 X7.8627 Y1.9961
G01 X7.8657 Y1.9977
G01 X7.8685 Y1.9994
G01 X7.8711 Y2.0013
G01 X7.8737 Y2.0032
G01 X7.8760 Y2.0052
G01 X7.8782 Y2.0074
G01 X7.8792 Y2.0085
G01 X7.8802 Y2.0096
G01 X7.8821 Y2.0119
G01 X7.8839 Y2.0143
G01 X7.8856 Y2.0167
G01 X7.8872 Y2.0192
G01 X7.8887 Y2.0217
G01 X7.8900 Y2.0243
G01 X7.8913 Y2.0269
G01 X7.8918 Y2.0282
G01 X7.8928 Y2.0306
G01 X7.8944 Y2.0353
G01 X7.8959 Y2.0401
G01 X7.8971 Y2.0451
G01 X7.8980 Y2.0501
G01 X7.8987 Y2.0552
G01 X7.8992 Y2.0604
G01 X7.8994 Y2.0658
G01 X7.8994 Y2.0685
G01 X7.8994 Y2.0718
G01 X7.8992 Y2.0782
G01 X7.8986 Y2.0843
G01 X7.8977 Y2.0902
G01 X7.8966 Y2.0958
G01 X7.8951 Y2.1011
G01 X7.8934 Y2.1061
G01 X7.8914 Y2.1109
G01 X7.8903 Y2.1132
G01 X7.8891 Y2.1154
G01 X7.8865 Y2.1196
G01 X7.8837 Y2.1235
G01 X7.8806 Y2.1272
G01 X7.8773 Y2.1305
G01 X7.8737 Y2.1336
G01 X7.8698 Y2.1363
G01 X7.8656 Y2.1388
G01 X7.8635 Y2.1399
G01 X7.8613 Y2.1410
G01 X7.8568 Y2.1429
G01 X7.8523 Y2.1445
G01 X7.8477 Y2.1459
G01 X7.8430 Y2.1470
G01 X7.8383 Y2.1478
G01 X7.8335 Y2.1483
G01 X7.8286 Y2.1486
G01 X7.8261 Y2.1486
G01 X7.8240 Y2.1486
G01 X7.8197 Y2.1484
G01 X7.8155 Y2.1480
G01 X7.8112 Y2.1474
G01 X7.8071 Y2.1466
G01 X7.8029 Y2.1455
G01 X7.7987 Y2.1443
G01 X7.7946 Y2.1428
G01 X7.7926 Y2.1420
G01 X7.7906 Y2.1412
G01 X7.7867 Y2.1395
G01 X7.7831 Y2.1378
G01 X7.7798 Y2.1361
G01 X7.7767 Y2.1344
G01 X7.7738 Y2.1326
G01 X7.7712 Y2.1308
G01 X7.7689 Y2.1289
G01 X7.7678 Y2.1280
G01 X7.7678 Y2.0909
G01 X7.8265 Y2.0909
OFF
G00 X5.2985 Y2.0909
G04 X5.3063 Y2.0392
G00 X5.2985 Y2.0909
ON
G01 X5.2985 Y2.0672
G01 X5.2139 Y2.0672
G01 X5.2139 Y2.1414
G01 X5.2163 Y2.1433
G01 X5.2212 Y2.1469
G01 X5.2262 Y2.1503
G01 X5.2312 Y2.1535
G01 X5.2362 Y2.1564
G01 X5.2412 Y2.1591
G01 X5.2464 Y2.1615
G01 X5.2515 Y2.1637
G01 X5.2541 Y2.1647
G01 X5.2567 Y2.1657
G01 X5.2619 Y2.1674
G01 X5.2671 Y2.1689
G01 X5.2724 Y2.1701
G01 X5.2777 Y2.1711
G01 X5.2831 Y2.1718
G01 X5.2885 Y2.1723
G01 X5.2939 Y2.1725
G01 X5.2966 Y2.1725
G01 X5.3003 Y2.1725
G01 X5.3075 Y2.1721
G01 X5.3145 Y2.1713
G01 X5.3214 Y2.1702
G01 X5.3281 Y2.1686
G01 X5.3346 Y2.1666
G01 X5.3409 Y2.1642
G01 X5.3471 Y2.1615
G01 X5.3501 Y2.1600
G01 X5.3516 Y2.1592
G01 X5.3546 Y2.1575
G01 X5.3574 Y2.1557
G01 X5.3601 Y2.1539
G01 X5.3628 Y2.1520
G01 X5.3653 Y2.1499
G01 X5.3678 Y2.1478
G01 X5.3701 Y2.1456
G01 X5.3724 Y2.1434
G01 X5.3746 Y2.1410
G01 X5.3767 Y2.1385
G01 X5.3787 Y2.1360
G01 X5.3806 Y2.1334
G01 X5.3824 Y2.1306
G01 X5.3841 Y2.1278
G01 X5.3857 Y2.1249
G01 X5.3865 Y2.1235
G01 X5.3880 Y2.1204
G01 X5.3907 Y2.1143
G01 X5.3930 Y2.1080
G01 X5.3949 Y2.1015
G01 X5.3964 Y2.0948
G01 X5.3976 Y2.0880
G01 X5.3983 Y2.0810
G01 X5.3987 Y2.0738
G01 X5.3987 Y2.0701
G01 X5.3987 Y2.0665
G01 X5.3983 Y2.0593
G01 X5.3976 Y2.0522
G01 X5.3964 Y2.0453
G01 X5.3949 Y2.0385
G01 X5.3930 Y2.0318
G01 X5.3907 Y2.0252
G01 X5.3880 Y2.0188
G01 X5.3866 Y2.0156
G01 X5.3858 Y2.0140
G01 X5.3842 Y2.0110
G01 X5.3825 Y2.0080
G01 X5.3807 Y2.0051
G01 X5.3788 Y2.0024
G01 X5.3769 Y1.9997
G01 X5.3749 Y1.9972
G01 X5.3728 Y1.9947
G01 X5.3706 Y1.9924
G01 X5.3683 Y1.9901
G01 X5.3659 Y1.9880
G01 X5.3635 Y1.9859
G01 X5.3610 Y1.9840
G01 X5.3583 Y1.9822
G01 X5.3556 Y1.9804
G01 X5.3529 Y1.9788
G01 X5.3514 Y1.9780
G01 X5.3500 Y1.9772
G01 X5.3471 Y1.9758
G01 X5.3441 Y1.9745
G01 X5.3411 Y1.9732
G01 X5.3380 Y1.9721
G01 X5.3349 Y1.9710
G01 X5.3301 Y1.9696
G01 X5.3235 Y1.9681
G01 X5.3167 Y1.9669
G01 X5.3096 Y1.9661
G01 X5.3024 Y1.9658
G01 X5.2987 Y1.9658
G01 X5.2960 Y1.9658
G01 X5.2907 Y1.9660
G01 X5.2855 Y1.9664
G01 X5.2805 Y1.9671
G01 X5.2756 Y1.9679
G01 X5.2708 Y1.9690
G01 X5.2662 Y1.9704
G01 X5.2617 Y1.9719
G01 X5.2595 Y1.9728
G01 X5.2573 Y1.9737
G01 X5.2532 Y1.9756
G01 X5.2493 Y1.9777
G01 X5.2456 Y1.9800
G01 X5.2421 Y1.9824
G01 X5.2390 Y1.9851
G01 X5.2360 Y1.9878
G01 X5.2333 Y1.9908
G01 X5.2320 Y1.9924
G01 X5.2308 Y1.9940
G01 X5.2284 Y1.9974
G01 X5.2262 Y2.0010
G01 X5.2242 Y2.0048
G01 X5.2223 Y2.0089
G01 X5.2206 Y2.0133
G01 X5.2190 Y2.0179
G01 X5.2175 Y2.0227
G01 X5.2169 Y2.0252
G01 X5.2407 Y2.0317
G01 X5.2413 Y2.0298
G01 X5.2425 Y2.0262
G01 X5.2437 Y2.0228
G01 X5.2451 Y2.0196
G01 X5.2465 Y2.0166
G01 X5.2479 Y2.0138
G01 X5.2495 Y2.0112
G01 X5.2511 Y2.0088
G01 X5.2519 Y2.0077
G01 X5.2528 Y2.0066
G01 X5.2546 Y2.0045
G01 X5.2566 Y2.0026
G01 X5.2588 Y2.0007
G01 X5.2612 Y1.9990
G01 X5.2638 Y1.9973
G01 X5.2665 Y1.9958
G01 X5.2695 Y1.9944
G01 X5.2710 Y1.9937
G01 X5.2726 Y1.9931
G01 X5.2757 Y1.9919
G01 X5.2790 Y1.9909
G01 X5.2824 Y1.9901
G01 X5.2858 Y1.9894
G01 X5.2893 Y1.9889
G01 X5.2930 Y1.9886
G01 X5.2966 Y1.9884
G01 X5.2985 Y1.9884
G01 X5.3008 Y1.9884
G01 X5.3052 Y1.9886
G01 X5.3094 Y1.9890
G01 X5.3135 Y1.9895
G01 X5.3174 Y1.9902
G01 X5.3211 Y1.9910
G01 X5.3248 Y1.9921
G01 X5.3282 Y1.9933
G01 X5.3299 Y1.9940
G01 X5.3315 Y1.9947
G01 X5.3347 Y1.9961
G01 X5.3377 Y1.9977
G01 X5.3405 Y1.9994
G01 X5.3431 Y2.0013
G01 X5.3457 Y2.0032
G01 X5.3480 Y2.0052
G01 X5.3502 Y2.0074
G01 X5.3512 Y2.0085
G01 X5.3522 Y2.0096
G01 X5.3541 Y2.0119
G01 X5.3559 Y2.0143
G01 X5.3576 Y2.0167
G01 X5.3592 Y2.0192
G01 X5.3607 Y2.0217
G01 X5.3620 Y2.0243
G01 X5.3633 Y2.0269
G01 X5.3638 Y2.0282
G01 X5.3648 Y2.0306
G01 X5.3664 Y2.0353
G01 X5.3679 Y2.0401
G01 X5.3691 Y2.0451
G01 X5.3700 Y2.0501
G01 X5.3707 Y2.0552
G01 X5.3712 Y2.0604
G01 X5.3714 Y2.0658
G01 X5.3714 Y2.0685
G01 X5.3714 Y2.0718
G01 X5.3712 Y2.0782
G01 X5.3706 Y2.0843
G01 X5.3697 Y2.0902
G01 X5.3686 Y2.0958
G01 X5.3671 Y2.1011
G01 X5.3654 Y2.1061
G01 X5.3634 Y2.1109
G01 X5.3623 Y2.1132
G01 X5.3611 Y2.1154
G01 X5.3585 Y2.1196
G01 X5.3557 Y2.1235
G01 X5.3526 Y2.1272
G01 X5.3493 Y2.1305
G01 X5.3457 Y2.1336
G01 X5.3418 Y2.1363
G01 X5.3376 Y2.1388
G01 X5.3355 Y2.1399
G01 X5.3333 Y2.1410
G01 X5.3288 Y2.1429
G01 X5.3243 Y2.1445
G01 X5.3197 Y2.1459
G01 X5.3150 Y2.1470
G01 X5.3103 Y2.1478
G01 X5.3055 Y2.1483
G01 X5.3006 Y2.1486
G01 X5.2981 Y2.1486
G01 X5.2960 Y2.1486
G01 X5.2917 Y2.1484
G01 X5.2875 Y2.1480
G01 X5.2832 Y2.1474
G01 X5.2791 Y2.1466
G01 X5.2749 Y2.1455
G01 X5.2707 Y2.1443
G01 X5.2666 Y2.1428
G01 X5.2646 Y2.1420
G01 X5.2626 Y2.1412
G01 X5.2587 Y2.1395
G01 X5.2551 Y2.1378
G01 X5.2518 Y2.1361
G01 X5.2487 Y2.1344
G01 X5.2458 Y2.1326
G01 X5.2432 Y2.1308
G01 X5.2409 Y2.1289
G01 X5.2398 Y2.1280
G01 X5.2398 Y2.0909
G01 X5.2985 Y2.0909
OFF
G00 X5.1846 Y2.1162
G04 X5.1191 Y2.0406
G00 X5.1846 Y2.1162
ON
G01 X5.1600 Y2.1130
G01 X5.1595 Y2.1155
G01 X5.1582 Y2.1204
G01 X5.1568 Y2.1249
G01 X5.1552 Y2.1290
G01 X5.1534 Y2.1328
G01 X5.1514 Y2.1362
G01 X5.1493 Y2.1392
G01 X5.1469 Y2.1419
G01 X5.1457 Y2.1431
G01 X5.1444 Y2.1442
G01 X5.1417 Y2.1462
G01 X5.1389 Y2.1479
G01 X5.1360 Y2.1494
G01 X5.1329 Y2.1505
G01 X5.1296 Y2.1514
G01 X5.1262 Y2.1520
G01 X5.1227 Y2.1523
G01 X5.1209 Y2.1523
G01 X5.1187 Y2.1523
G01 X5.1146 Y2.1519
G01 X5.1106 Y2.1511
G01 X5.1067 Y2.1500
G01 X5.1031 Y2.1485
G01 X5.0996 Y2.1466
G01 X5.0963 Y2.1444
G01 X5.0931 Y2.1418
G01 X5.0916 Y2.1403
G01 X5.0902 Y2.1388
G01 X5.0876 Y2.1356
G01 X5.0853 Y2.1322
G01 X5.0835 Y2.1287
G01 X5.0820 Y2.1250
G01 X5.0809 Y2.1211
G01 X5.0801 Y2.1170
G01 X5.0798 Y2.1128
G01 X5.0798 Y2.1106
G01 X5.0798 Y2.1085
G01 X5.0801 Y2.1044
G01 X5.0808 Y2.1006
G01 X5.0818 Y2.0969
G01 X5.0832 Y2.0934
G01 X5.0849 Y2.0901
G01 X5.0870 Y2.0870
G01 X5.0894 Y2.0841
G01 X5.0908 Y2.0827
G01 X5.0922 Y2.0813
G01 X5.0951 Y2.0789
G01 X5.0982 Y2.0769
G01 X5.1016 Y2.0752
G01 X5.1051 Y2.0738
G01 X5.1088 Y2.0727
G01 X5.1127 Y2.0721
G01 X5.1167 Y2.0717
G01 X5.1189 Y2.0717
G01 X5.1206 Y2.0717
G01 X5.1245 Y2.0721
G01 X5.1289 Y2.0727
G01 X5.1336 Y2.0738
G01 X5.1362 Y2.0744
G01 X5.1334 Y2.0529
G01 X5.1312 Y2.0531
G01 X5.1295 Y2.0531
G01 X5.1275 Y2.0531
G01 X5.1237 Y2.0529
G01 X5.1200 Y2.0524
G01 X5.1164 Y2.0516
G01 X5.1128 Y2.0506
G01 X5.1094 Y2.0493
G01 X5.1061 Y2.0478
G01 X5.1028 Y2.0460
G01 X5.1013 Y2.0450
G01 X5.0990 Y2.0434
G01 X5.0976 Y2.0422
G01 X5.0964 Y2.0410
G01 X5.0952 Y2.0397
G01 X5.0941 Y2.0383
G01 X5.0931 Y2.0369
G01 X5.0922 Y2.0354
G01 X5.0915 Y2.0338
G01 X5.0908 Y2.0322
G01 X5.0902 Y2.0305
G01 X5.0897 Y2.0287
G01 X5.0891 Y2.0259
G01 X5.0887 Y2.0219
G01 X5.0887 Y2.0198
G01 X5.0887 Y2.0181
G01 X5.0890 Y2.0149
G01 X5.0896 Y2.0118
G01 X5.0904 Y2.0089
G01 X5.0916 Y2.0061
G01 X5.0930 Y2.0034
G01 X5.0947 Y2.0009
G01 X5.0967 Y1.9986
G01 X5.0978 Y1.9974
G01 X5.0990 Y1.9964
G01 X5.1015 Y1.9944
G01 X5.1041 Y1.9928
G01 X5.1069 Y1.9914
G01 X5.1098 Y1.9903
G01 X5.1129 Y1.9894
G01 X5.1162 Y1.9889
G01 X5.1197 Y1.9886
G01 X5.1214 Y1.9886
G01 X5.1232 Y1.9886
G01 X5.1267 Y1.9889
G01 X5.1299 Y1.9895
G01 X5.1331 Y1.9903
G01 X5.1361 Y1.9914
G01 X5.1389 Y1.9929
G01 X5.1416 Y1.9945
G01 X5.1441 Y1.9965
G01 X5.1453 Y1.9976
G01 X5.1465 Y1.9988
G01 X5.1487 Y2.0013
G01 X5.1506 Y2.0041
G01 X5.1524 Y2.0072
G01 X5.1539 Y2.0106
G01 X5.1552 Y2.0143
G01 X5.1563 Y2.0183
G01 X5.1572 Y2.0225
G01 X5.1576 Y2.0247
G01 X5.1821 Y2.0203
G01 X5.1815 Y2.0172
G01 X5.1805 Y2.0128
G01 X5.1796 Y2.0100
G01 X5.1787 Y2.0073
G01 X5.1777 Y2.0046
G01 X5.1766 Y2.0021
G01 X5.1754 Y1.9996
G01 X5.1741 Y1.9972
G01 X5.1728 Y1.9949
G01 X5.1713 Y1.9927
G01 X5.1697 Y1.9905
G01 X5.1681 Y1.9885
G01 X5.1664 Y1.9865
G01 X5.1646 Y1.9847
G01 X5.1627 Y1.9829
G01 X5.1607 Y1.9812
G01 X5.1586 Y1.9796
G01 X5.1565 Y1.9781
G01 X5.1543 Y1.9767
G01 X5.1521 Y1.9755
G01 X5.1498 Y1.9743
G01 X5.1474 Y1.9732
G01 X5.1450 Y1.9723
G01 X5.1425 Y1.9714
G01 X5.1400 Y1.9707
G01 X5.1374 Y1.9701
G01 X5.1347 Y1.9695
G01 X5.1320 Y1.9691
G01 X5.1292 Y1.9688
G01 X5.1263 Y1.9686
G01 X5.1234 Y1.9685
G01 X5.1220 Y1.9685
G01 X5.1199 Y1.9685
G01 X5.1159 Y1.9687
G01 X5.1120 Y1.9691
G01 X5.1081 Y1.9698
G01 X5.1043 Y1.9707
G01 X5.1007 Y1.9718
G01 X5.0970 Y1.9731
G01 X5.0935 Y1.9746
G01 X5.0918 Y1.9755
G01 X5.0901 Y1.9764
G01 X5.0868 Y1.9783
G01 X5.0838 Y1.9804
G01 X5.0810 Y1.9826
G01 X5.0783 Y1.9850
G01 X5.0759 Y1.9875
G01 X5.0737 Y1.9902
G01 X5.0716 Y1.9931
G01 X5.0707 Y1.9946
G01 X5.0698 Y1.9961
G01 X5.0682 Y1.9992
G01 X5.0668 Y2.0023
G01 X5.0657 Y2.0055
G01 X5.0648 Y2.0087
G01 X5.0641 Y2.0120
G01 X5.0637 Y2.0153
G01 X5.0634 Y2.0187
G01 X5.0634 Y2.0204
G01 X5.0634 Y2.0220
G01 X5.0636 Y2.0251
G01 X5.0641 Y2.0282
G01 X5.0647 Y2.0312
G01 X5.0656 Y2.0342
G01 X5.0667 Y2.0370
G01 X5.0680 Y2.0398
G01 X5.0695 Y2.0426
G01 X5.0704 Y2.0439
G01 X5.0712 Y2.0452
G01 X5.0732 Y2.0477
G01 X5.0754 Y2.0501
G01 X5.0777 Y2.0524
G01 X5.0803 Y2.0545
G01 X5.0831 Y2.0565
G01 X5.0861 Y2.0583
G01 X5.0893 Y2.0600
G01 X5.0910 Y2.0608
G01 X5.0888 Y2.0613
G01 X5.0846 Y2.0626
G01 X5.0806 Y2.0642
G01 X5.0770 Y2.0661
G01 X5.0735 Y2.0682
G01 X5.0703 Y2.0706
G01 X5.0674 Y2.0733
G01 X5.0647 Y2.0762
G01 X5.0634 Y2.0778
G01 X5.0622 Y2.0794
G01 X5.0601 Y2.0828
G01 X5.0583 Y2.0865
G01 X5.0567 Y2.0903
G01 X5.0555 Y2.0943
G01 X5.0546 Y2.0985
G01 X5.0540 Y2.1030
G01 X5.0537 Y2.1076
G01 X5.0537 Y2.1100
G01 X5.0537 Y2.1116
G01 X5.0538 Y2.1148
G01 X5.0541 Y2.1180
G01 X5.0546 Y2.1211
G01 X5.0551 Y2.1241
G01 X5.0559 Y2.1271
G01 X5.0568 Y2.1300
G01 X5.0578 Y2.1328
G01 X5.0590 Y2.1356
G01 X5.0604 Y2.1383
G01 X5.0619 Y2.1409
G01 X5.0635 Y2.1435
G01 X5.0653 Y2.1460
G01 X5.0672 Y2.1485
G01 X5.0693 Y2.1509
G01 X5.0716 Y2.1532
G01 X5.0727 Y2.1544
G01 X5.0739 Y2.1555
G01 X5.0764 Y2.1576
G01 X5.0789 Y2.1596
G01 X5.0816 Y2.1615
G01 X5.0843 Y2.1632
G01 X5.0871 Y2.1647
G01 X5.0899 Y2.1662
G01 X5.0929 Y2.1674
G01 X5.0959 Y2.1686
G01 X5.0990 Y2.1696
G01 X5.1021 Y2.1704
G01 X5.1054 Y2.1711
G01 X5.1087 Y2.1717
G01 X5.1121 Y2.1721
G01 X5.1156 Y2.1724
G01 X5.1192 Y2.1726
G01 X5.1210 Y2.1726
G01 X5.1227 Y2.1726
G01 X5.1259 Y2.1724
G01 X5.1290 Y2.1722
G01 X5.1321 Y2.1718
G01 X5.1351 Y2.1713
G01 X5.1381 Y2.1707
G01 X5.1409 Y2.1700
G01 X5.1437 Y2.1691
G01 X5.1465 Y2.1681
G01 X5.1491 Y2.1670
G01 X5.1517 Y2.1658
G01 X5.1542 Y2.1645
G01 X5.1567 Y2.1630
G01 X5.1591 Y2.1614
G01 X5.1614 Y2.1597
G01 X5.1636 Y2.1578
G01 X5.1647 Y2.1569
G01 X5.1658 Y2.1559
G01 X5.1679 Y2.1538
G01 X5.1698 Y2.1517
G01 X5.1716 Y2.1496
G01 X5.1733 Y2.1473
G01 X5.1749 Y2.1450
G01 X5.1764 Y2.1426
G01 X5.1778 Y2.1401
G01 X5.1790 Y2.1376
G01 X5.1801 Y2.1349
G01 X5.1811 Y2.1323
G01 X5.1820 Y2.1295
G01 X5.1828 Y2.1267
G01 X5.1835 Y2.1238
G01 X5.1840 Y2.1208
G01 X5.1844 Y2.1177
G01 X5.1846 Y2.1162
OFF
G00 X5.0257 Y2.1229
G04 X4.9637 Y2.0405
G00 X5.0257 Y2.1229
ON
G01 X5.0021 Y2.1207
G01 X5.0017 Y2.1228
G01 X5.0008 Y2.1267
G01 X4.9997 Y2.1303
G01 X4.9984 Y2.1336
G01 X4.9970 Y2.1366
G01 X4.9954 Y2.1393
G01 X4.9936 Y2.1418
G01 X4.9917 Y2.1440
G01 X4.9907 Y2.1449
G01 X4.9896 Y2.1458
G01 X4.9873 Y2.1475
G01 X4.9849 Y2.1489
G01 X4.9824 Y2.1501
G01 X4.9797 Y2.1510
G01 X4.9768 Y2.1517
G01 X4.9738 Y2.1522
G01 X4.9706 Y2.1524
G01 X4.9690 Y2.1524
G01 X4.9676 Y2.1524
G01 X4.9649 Y2.1523
G01 X4.9622 Y2.1519
G01 X4.9596 Y2.1515
G01 X4.9572 Y2.1508
G01 X4.9548 Y2.1500
G01 X4.9524 Y2.1490
G01 X4.9502 Y2.1479
G01 X4.9491 Y2.1473
G01 X4.9481 Y2.1466
G01 X4.9460 Y2.1452
G01 X4.9441 Y2.1437
G01 X4.9423 Y2.1421
G01 X4.9405 Y2.1403
G01 X4.9389 Y2.1385
G01 X4.9373 Y2.1365
G01 X4.9359 Y2.1345
G01 X4.9352 Y2.1334
G01 X4.9345 Y2.1323
G01 X4.9332 Y2.1299
G01 X4.9320 Y2.1274
G01 X4.9308 Y2.1247
G01 X4.9296 Y2.1217
G01 X4.9286 Y2.1186
G01 X4.9270 Y2.1136
G01 X4.9261 Y2.1100
G01 X4.9256 Y2.1081
G01 X4.9248 Y2.1044
G01 X4.9241 Y2.1007
G01 X4.9236 Y2.0970
G01 X4.9231 Y2.0932
G01 X4.9228 Y2.0895
G01 X4.9225 Y2.0857
G01 X4.9224 Y2.0819
G01 X4.9224 Y2.0800
G01 X4.9224 Y2.0779
G01 X4.9225 Y2.0751
G01 X4.9235 Y2.0765
G01 X4.9255 Y2.0793
G01 X4.9277 Y2.0820
G01 X4.9300 Y2.0845
G01 X4.9325 Y2.0869
G01 X4.9352 Y2.0891
G01 X4.9381 Y2.0912
G01 X4.9411 Y2.0932
G01 X4.9426 Y2.0941
G01 X4.9442 Y2.0950
G01 X4.9475 Y2.0966
G01 X4.9508 Y2.0979
G01 X4.9542 Y2.0991
G01 X4.9577 Y2.1000
G01 X4.9612 Y2.1007
G01 X4.9648 Y2.1011
G01 X4.9684 Y2.1014
G01 X4.9702 Y2.1014
G01 X4.9718 Y2.1014
G01 X4.9748 Y2.1012
G01 X4.9778 Y2.1009
G01 X4.9807 Y2.1005
G01 X4.9836 Y2.1000
G01 X4.9864 Y2.0993
G01 X4.9891 Y2.0984
G01 X4.9918 Y2.0974
G01 X4.9944 Y2.0963
G01 X4.9970 Y2.0950
G01 X4.9995 Y2.0936
G01 X5.0020 Y2.0921
G01 X5.0043 Y2.0904
G01 X5.0067 Y2.0886
G01 X5.0089 Y2.0866
G01 X5.0111 Y2.0845
G01 X5.0122 Y2.0834
G01 X5.0133 Y2.0823
G01 X5.0153 Y2.0799
G01 X5.0172 Y2.0775
G01 X5.0189 Y2.0750
G01 X5.0205 Y2.0724
G01 X5.0220 Y2.0697
G01 X5.0233 Y2.0669
G01 X5.0246 Y2.0640
G01 X5.0256 Y2.0610
G01 X5.0266 Y2.0580
G01 X5.0274 Y2.0548
G01 X5.0280 Y2.0516
G01 X5.0286 Y2.0483
G01 X5.0290 Y2.0449
G01 X5.0293 Y2.0414
G01 X5.0294 Y2.0378
G01 X5.0294 Y2.0359
G01 X5.0294 Y2.0341
G01 X5.0292 Y2.0303
G01 X5.0290 Y2.0267
G01 X5.0285 Y2.0232
G01 X5.0280 Y2.0198
G01 X5.0273 Y2.0164
G01 X5.0264 Y2.0132
G01 X5.0255 Y2.0100
G01 X5.0243 Y2.0070
G01 X5.0231 Y2.0040
G01 X5.0217 Y2.0012
G01 X5.0201 Y1.9984
G01 X5.0185 Y1.9957
G01 X5.0166 Y1.9931
G01 X5.0147 Y1.9906
G01 X5.0126 Y1.9882
G01 X5.0115 Y1.9870
G01 X5.0103 Y1.9859
G01 X5.0080 Y1.9837
G01 X5.0057 Y1.9817
G01 X5.0032 Y1.9798
G01 X5.0007 Y1.9780
G01 X4.9981 Y1.9764
G01 X4.9954 Y1.9750
G01 X4.9927 Y1.9737
G01 X4.9899 Y1.9725
G01 X4.9870 Y1.9715
G01 X4.9840 Y1.9707
G01 X4.9810 Y1.9699
G01 X4.9779 Y1.9693
G01 X4.9748 Y1.9689
G01 X4.9715 Y1.9686
G01 X4.9682 Y1.9685
G01 X4.9666 Y1.9685
G01 X4.9641 Y1.9685
G01 X4.9594 Y1.9688
G01 X4.9547 Y1.9695
G01 X4.9501 Y1.9705
G01 X4.9457 Y1.9718
G01 X4.9413 Y1.9734
G01 X4.9371 Y1.9754
G01 X4.9329 Y1.9777
G01 X4.9309 Y1.9790
G01 X4.9289 Y1.9803
G01 X4.9251 Y1.9832
G01 X4.9216 Y1.9864
G01 X4.9183 Y1.9899
G01 X4.9152 Y1.9936
G01 X4.9124 Y1.9976
G01 X4.9098 Y2.0019
G01 X4.9075 Y2.0065
G01 X4.9064 Y2.0089
G01 X4.9059 Y2.0101
G01 X4.9049 Y2.0127
G01 X4.9035 Y2.0168
G01 X4.9020 Y2.0227
G01 X4.9007 Y2.0292
G01 X4.8996 Y2.0362
G01 X4.8988 Y2.0438
G01 X4.8983 Y2.0519
G01 X4.8980 Y2.0606
G01 X4.8980 Y2.0651
G01 X4.8980 Y2.0699
G01 X4.8983 Y2.0790
G01 X4.8988 Y2.0876
G01 X4.8996 Y2.0957
G01 X4.9006 Y2.1033
G01 X4.9019 Y2.1104
G01 X4.9035 Y2.1171
G01 X4.9053 Y2.1232
G01 X4.9063 Y2.1261
G01 X4.9074 Y2.1289
G01 X4.9097 Y2.1343
G01 X4.9123 Y2.1393
G01 X4.9151 Y2.1439
G01 X4.9182 Y2.1483
G01 X4.9216 Y2.1522
G01 X4.9252 Y2.1559
G01 X4.9290 Y2.1592
G01 X4.9311 Y2.1607
G01 X4.9331 Y2.1621
G01 X4.9374 Y2.1647
G01 X4.9419 Y2.1670
G01 X4.9465 Y2.1688
G01 X4.9513 Y2.1703
G01 X4.9563 Y2.1714
G01 X4.9615 Y2.1722
G01 X4.9668 Y2.1725
G01 X4.9696 Y2.1725
G01 X4.9725 Y2.1725
G01 X4.9767 Y2.1723
G01 X4.9794 Y2.1720
G01 X4.9821 Y2.1715
G01 X4.9847 Y2.1710
G01 X4.9872 Y2.1704
G01 X4.9897 Y2.1697
G01 X4.9921 Y2.1689
G01 X4.9944 Y2.1680
G01 X4.9967 Y2.1670
G01 X4.9988 Y2.1658
G01 X5.0010 Y2.1646
G01 X5.0030 Y2.1633
G01 X5.0050 Y2.1619
G01 X5.0069 Y2.1603
G01 X5.0088 Y2.1587
G01 X5.0106 Y2.1570
G01 X5.0122 Y2.1552
G01 X5.0138 Y2.1533
G01 X5.0153 Y2.1514
G01 X5.0167 Y2.1493
G01 X5.0180 Y2.1472
G01 X5.0192 Y2.1450
G01 X5.0203 Y2.1427
G01 X5.0213 Y2.1403
G01 X5.0223 Y2.1379
G01 X5.0231 Y2.1353
G01 X5.0239 Y2.1327
G01 X5.0245 Y2.1300
G01 X5.0253 Y2.1258
G01 X5.0257 Y2.1229
OFF
G00 X4.9253 Y2.0347
G04 X4.9646 Y2.0043
G00 X4.9253 Y2.0347
ON
G01 X4.9253 Y2.0321
G01 X4.9257 Y2.0271
G01 X4.9264 Y2.0223
G01 X4.9274 Y2.0179
G01 X4.9288 Y2.0137
G01 X4.9301 Y2.0107
G01 X4.9311 Y2.0088
G01 X4.9321 Y2.0070
G01 X4.9333 Y2.0052
G01 X4.9345 Y2.0036
G01 X4.9358 Y2.0019
G01 X4.9379 Y1.9996
G01 X4.9408 Y1.9969
G01 X4.9439 Y1.9946
G01 X4.9472 Y1.9927
G01 X4.9505 Y1.9911
G01 X4.9541 Y1.9899
G01 X4.9577 Y1.9892
G01 X4.9616 Y1.9888
G01 X4.9635 Y1.9888
G01 X4.9656 Y1.9888
G01 X4.9686 Y1.9891
G01 X4.9705 Y1.9894
G01 X4.9724 Y1.9898
G01 X4.9743 Y1.9903
G01 X4.9762 Y1.9909
G01 X4.9780 Y1.9917
G01 X4.9797 Y1.9925
G01 X4.9815 Y1.9934
G01 X4.9840 Y1.9951
G01 X4.9873 Y1.9976
G01 X4.9905 Y2.0005
G01 X4.9920 Y2.0021
G01 X4.9942 Y2.0047
G01 X4.9955 Y2.0065
G01 X4.9967 Y2.0083
G01 X4.9979 Y2.0103
G01 X4.9989 Y2.0122
G01 X4.9998 Y2.0143
G01 X5.0007 Y2.0164
G01 X5.0014 Y2.0185
G01 X5.0021 Y2.0208
G01 X5.0029 Y2.0242
G01 X5.0037 Y2.0291
G01 X5.0040 Y2.0341
G01 X5.0040 Y2.0368
G01 X5.0040 Y2.0391
G01 X5.0037 Y2.0437
G01 X5.0030 Y2.0480
G01 X5.0019 Y2.0521
G01 X5.0005 Y2.0560
G01 X4.9987 Y2.0596
G01 X4.9965 Y2.0631
G01 X4.9940 Y2.0663
G01 X4.9926 Y2.0678
G01 X4.9912 Y2.0692
G01 X4.9881 Y2.0719
G01 X4.9849 Y2.0741
G01 X4.9816 Y2.0760
G01 X4.9780 Y2.0775
G01 X4.9743 Y2.0786
G01 X4.9704 Y2.0793
G01 X4.9663 Y2.0797
G01 X4.9642 Y2.0797
G01 X4.9621 Y2.0797
G01 X4.9580 Y2.0793
G01 X4.9542 Y2.0786
G01 X4.9505 Y2.0775
G01 X4.9470 Y2.0760
G01 X4.9437 Y2.0741
G01 X4.9406 Y2.0719
G01 X4.9376 Y2.0692
G01 X4.9362 Y2.0678
G01 X4.9343 Y2.0655
G01 X4.9331 Y2.0638
G01 X4.9320 Y2.0621
G01 X4.9309 Y2.0604
G01 X4.9300 Y2.0585
G01 X4.9288 Y2.0556
G01 X4.9274 Y2.0515
G01 X4.9264 Y2.0470
G01 X4.9257 Y2.0423
G01 X4.9253 Y2.0373
G01 X4.9253 Y2.0347
OFF
G00 X2.1365 Y2.0909
G04 X2.1443 Y2.0392
G00 X2.1365 Y2.0909
ON
G01 X2.1365 Y2.0672
G01 X2.0519 Y2.0672
G01 X2.0519 Y2.1414
G01 X2.0543 Y2.1433
G01 X2.0592 Y2.1469
G01 X2.0642 Y2.1503
G01 X2.0692 Y2.1535
G01 X2.0742 Y2.1564
G01 X2.0792 Y2.1591
G01 X2.0844 Y2.1615
G01 X2.0895 Y2.1637
G01 X2.0921 Y2.1647
G01 X2.0947 Y2.1657
G01 X2.0999 Y2.1674
G01 X2.1051 Y2.1689
G01 X2.1104 Y2.1701
G01 X2.1157 Y2.1711
G01 X2.1211 Y2.1718
G01 X2.1265 Y2.1723
G01 X2.1319 Y2.1725
G01 X2.1346 Y2.1725
G01 X2.1383 Y2.1725
G01 X2.1455 Y2.1721
G01 X2.1525 Y2.1713
G01 X2.1594 Y2.1702
G01 X2.1661 Y2.1686
G01 X2.1726 Y2.1666
G01 X2.1789 Y2.1642
G01 X2.1851 Y2.1615
G01 X2.1881 Y2.1600
G01 X2.1896 Y2.1592
G01 X2.1926 Y2.1575
G01 X2.1954 Y2.1557
G01 X2.1981 Y2.1539
G01 X2.2008 Y2.1520
G01 X2.2033 Y2.1499
G01 X2.2058 Y2.1478
G01 X2.2081 Y2.1456
G01 X2.2104 Y2.1434
G01 X2.2126 Y2.1410
G01 X2.2147 Y2.1385
G01 X2.2167 Y2.1360
G01 X2.2186 Y2.1334
G01 X2.2204 Y2.1306
G01 X2.2221 Y2.1278
G01 X2.2237 Y2.1249
G01 X2.2245 Y2.1235
G01 X2.2260 Y2.1204
G01 X2.2287 Y2.1143
G01 X2.2310 Y2.1080
G01 X2.2329 Y2.1015
G01 X2.2344 Y2.0948
G01 X2.2356 Y2.0880
G01 X2.2363 Y2.0810
G01 X2.2367 Y2.0738
G01 X2.2367 Y2.0701
G01 X2.2367 Y2.0665
G01 X2.2363 Y2.0593
G01 X2.2356 Y2.0522
G01 X2.2344 Y2.0453
G01 X2.2329 Y2.0385
G01 X2.2310 Y2.0318
G01 X2.2287 Y2.0252
G01 X2.2260 Y2.0188
G01 X2.2246 Y2.0156
G01 X2.2238 Y2.0140
G01 X2.2222 Y2.0110
G01 X2.2205 Y2.0080
G01 X2.2187 Y2.0051
G01 X2.2168 Y2.0024
G01 X2.2149 Y1.9997
G01 X2.2129 Y1.9972
G01 X2.2108 Y1.9947
G01 X2.2086 Y1.9924
G01 X2.2063 Y1.9901
G01 X2.2039 Y1.9880
G01 X2.2015 Y1.9859
G01 X2.1990 Y1.9840
G01 X2.1963 Y1.9822
G01 X2.1936 Y1.9804
G01 X2.1909 Y1.9788
G01 X2.1894 Y1.9780
G01 X2.1880 Y1.9772
G01 X2.1851 Y1.9758
G01 X2.1821 Y1.9745
G01 X2.1791 Y1.9732
G01 X2.1760 Y1.9721
G01 X2.1729 Y1.9710
G01 X2.1681 Y1.9696
G01 X2.1615 Y1.9681
G01 X2.1547 Y1.9669
G01 X2.1476 Y1.9661
G01 X2.1404 Y1.9658
G01 X2.1367 Y1.9658
G01 X2.1340 Y1.9658
G01 X2.1287 Y1.9660
G01 X2.1235 Y1.9664
G01 X2.1185 Y1.9671
G01 X2.1136 Y1.9679
G01 X2.1088 Y1.9690
G01 X2.1042 Y1.9704
G01 X2.0997 Y1.9719
G01 X2.0975 Y1.9728
G01 X2.0953 Y1.9737
G01 X2.0912 Y1.9756
G01 X2.0873 Y1.9777
G01 X2.0836 Y1.9800
G01 X2.0801 Y1.9824
G01 X2.0770 Y1.9851
G01 X2.0740 Y1.9878
G01 X2.0713 Y1.9908
G01 X2.0700 Y1.9924
G01 X2.0688 Y1.9940
G01 X2.0664 Y1.9974
G01 X2.0642 Y2.0010
G01 X2.0622 Y2.0048
G01 X2.0603 Y2.0089
G01 X2.0586 Y2.0133
G01 X2.0570 Y2.0179
G01 X2.0555 Y2.0227
G01 X2.0549 Y2.0252
G01 X2.0787 Y2.0317
G01 X2.0793 Y2.0298
G01 X2.0805 Y2.0262
G01 X2.0817 Y2.0228
G01 X2.0831 Y2.0196
G01 X2.0845 Y2.0166
G01 X2.0859 Y2.0138
G01 X2.0875 Y2.0112
G01 X2.0891 Y2.0088
G01 X2.0899 Y2.0077
G01 X2.0908 Y2.0066
G01 X2.0926 Y2.0045
G01 X2.0946 Y2.0026
G01 X2.0968 Y2.0007
G01 X2.0992 Y1.9990
G01 X2.1018 Y1.9973
G01 X2.1045 Y1.9958
G01 X2.1075 Y1.9944
G01 X2.1090 Y1.9937
G01 X2.1106 Y1.9931
G01 X2.1137 Y1.9919
G01 X2.1170 Y1.9909
G01 X2.1204 Y1.9901
G01 X2.1238 Y1.9894
G01 X2.1273 Y1.9889
G01 X2.1310 Y1.9886
G01 X2.1346 Y1.9884
G01 X2.1365 Y1.9884
G01 X2.1388 Y1.9884
G01 X2.1432 Y1.9886
G01 X2.1474 Y1.9890
G01 X2.1515 Y1.9895
G01 X2.1554 Y1.9902
G01 X2.1591 Y1.9910
G01 X2.1628 Y1.9921
G01 X2.1662 Y1.9933
G01 X2.1679 Y1.9940
G01 X2.1695 Y1.9947
G01 X2.1727 Y1.9961
G01 X2.1757 Y1.9977
G01 X2.1785 Y1.9994
G01 X2.1811 Y2.0013
G01 X2.1837 Y2.0032
G01 X2.1860 Y2.0052
G01 X2.1882 Y2.0074
G01 X2.1892 Y2.0085
G01 X2.1902 Y2.0096
G01 X2.1921 Y2.0119
G01 X2.1939 Y2.0143
G01 X2.1956 Y2.0167
G01 X2.1972 Y2.0192
G01 X2.1987 Y2.0217
G01 X2.2000 Y2.0243
G01 X2.2013 Y2.0269
G01 X2.2018 Y2.0282
G01 X2.2028 Y2.0306
G01 X2.2044 Y2.0353
G01 X2.2059 Y2.0401
G01 X2.2071 Y2.0451
G01 X2.2080 Y2.0501
G01 X2.2087 Y2.0552
G01 X2.2092 Y2.0604
G01 X2.2094 Y2.0658
G01 X2.2094 Y2.0685
G01 X2.2094 Y2.0718
G01 X2.2092 Y2.0782
G01 X2.2086 Y2.0843
G01 X2.2077 Y2.0902
G01 X2.2066 Y2.0958
G01 X2.2051 Y2.1011
G01 X2.2034 Y2.1061
G01 X2.2014 Y2.1109
G01 X2.2003 Y2.1132
G01 X2.1991 Y2.1154
G01 X2.1965 Y2.1196
G01 X2.1937 Y2.1235
G01 X2.1906 Y2.1272
G01 X2.1873 Y2.1305
G01 X2.1837 Y2.1336
G01 X2.1798 Y2.1363
G01 X2.1756 Y2.1388
G01 X2.1735 Y2.1399
G01 X2.1713 Y2.1410
G01 X2.1668 Y2.1429
G01 X2.1623 Y2.1445
G01 X2.1577 Y2.1459
G01 X2.1530 Y2.1470
G01 X2.1483 Y2.1478
G01 X2.1435 Y2.1483
G01 X2.1386 Y2.1486
G01 X2.1361 Y2.1486
G01 X2.1340 Y2.1486
G01 X2.1297 Y2.1484
G01 X2.1255 Y2.1480
G01 X2.1212 Y2.1474
G01 X2.1171 Y2.1466
G01 X2.1129 Y2.1455
G01 X2.1087 Y2.1443
G01 X2.1046 Y2.1428
G01 X2.1026 Y2.1420
G01 X2.1006 Y2.1412
G01 X2.0967 Y2.1395
G01 X2.0931 Y2.1378
G01 X2.0898 Y2.1361
G01 X2.0867 Y2.1344
G01 X2.0838 Y2.1326
G01 X2.0812 Y2.1308
G01 X2.0789 Y2.1289
G01 X2.0778 Y2.1280
G01 X2.0778 Y2.0909
G01 X2.1365 Y2.0909
OFF
G00 X2.0226 Y2.1162
G04 X1.9571 Y2.0406
G00 X2.0226 Y2.1162
ON
G01 X1.9980 Y2.1130
G01 X1.9975 Y2.1155
G01 X1.9962 Y2.1204
G01 X1.9948 Y2.1249
G01 X1.9932 Y2.1290
G01 X1.9914 Y2.1328
G01 X1.9894 Y2.1362
G01 X1.9873 Y2.1392
G01 X1.9849 Y2.1419
G01 X1.9837 Y2.1431
G01 X1.9824 Y2.1442
G01 X1.9797 Y2.1462
G01 X1.9769 Y2.1479
G01 X1.9740 Y2.1494
G01 X1.9709 Y2.1505
G01 X1.9676 Y2.1514
G01 X1.9642 Y2.1520
G01 X1.9607 Y2.1523
G01 X1.9589 Y2.1523
G01 X1.9567 Y2.1523
G01 X1.9526 Y2.1519
G01 X1.9486 Y2.1511
G01 X1.9447 Y2.1500
G01 X1.9411 Y2.1485
G01 X1.9376 Y2.1466
G01 X1.9343 Y2.1444
G01 X1.9311 Y2.1418
G01 X1.9296 Y2.1403
G01 X1.9282 Y2.1388
G01 X1.9256 Y2.1356
G01 X1.9233 Y2.1322
G01 X1.9215 Y2.1287
G01 X1.9200 Y2.1250
G01 X1.9189 Y2.1211
G01 X1.9181 Y2.1170
G01 X1.9178 Y2.1128
G01 X1.9178 Y2.1106
G01 X1.9178 Y2.1085
G01 X1.9181 Y2.1044
G01 X1.9188 Y2.1006
G01 X1.9198 Y2.0969
G01 X1.9212 Y2.0934
G01 X1.9229 Y2.0901
G01 X1.9250 Y2.0870
G01 X1.9274 Y2.0841
G01 X1.9288 Y2.0827
G01 X1.9302 Y2.0813
G01 X1.9331 Y2.0789
G01 X1.9362 Y2.0769
G01 X1.9396 Y2.0752
G01 X1.9431 Y2.0738
G01 X1.9468 Y2.0727
G01 X1.9507 Y2.0721
G01 X1.9547 Y2.0717
G01 X1.9569 Y2.0717
G01 X1.9586 Y2.0717
G01 X1.9625 Y2.0721
G01 X1.9669 Y2.0727
G01 X1.9716 Y2.0738
G01 X1.9742 Y2.0744
G01 X1.9714 Y2.0529
G01 X1.9692 Y2.0531
G01 X1.9675 Y2.0531
G01 X1.9655 Y2.0531
G01 X1.9617 Y2.0529
G01 X1.9580 Y2.0524
G01 X1.9544 Y2.0516
G01 X1.9508 Y2.0506
G01 X1.9474 Y2.0493
G01 X1.9441 Y2.0478
G01 X1.9408 Y2.0460
G01 X1.9393 Y2.0450
G01 X1.9370 Y2.0434
G01 X1.9356 Y2.0422
G01 X1.9344 Y2.0410
G01 X1.9332 Y2.0397
G01 X1.9321 Y2.0383
G01 X1.9311 Y2.0369
G01 X1.9302 Y2.0354
G01 X1.9295 Y2.0338
G01 X1.9288 Y2.0322
G01 X1.9282 Y2.0305
G01 X1.9277 Y2.0287
G01 X1.9271 Y2.0259
G01 X1.9267 Y2.0219
G01 X1.9267 Y2.0198
G01 X1.9267 Y2.0181
G01 X1.9270 Y2.0149
G01 X1.9276 Y2.0118
G01 X1.9284 Y2.0089
G01 X1.9296 Y2.0061
G01 X1.9310 Y2.0034
G01 X1.9327 Y2.0009
G01 X1.9347 Y1.9986
G01 X1.9358 Y1.9974
G01 X1.9370 Y1.9964
G01 X1.9395 Y1.9944
G01 X1.9421 Y1.9928
G01 X1.9449 Y1.9914
G01 X1.9478 Y1.9903
G01 X1.9509 Y1.9894
G01 X1.9542 Y1.9889
G01 X1.9577 Y1.9886
G01 X1.9594 Y1.9886
G01 X1.9612 Y1.9886
G01 X1.9647 Y1.9889
G01 X1.9679 Y1.9895
G01 X1.9711 Y1.9903
G01 X1.9741 Y1.9914
G01 X1.9769 Y1.9929
G01 X1.9796 Y1.9945
G01 X1.9821 Y1.9965
G01 X1.9833 Y1.9976
G01 X1.9845 Y1.9988
G01 X1.9867 Y2.0013
G01 X1.9886 Y2.0041
G01 X1.9904 Y2.0072
G01 X1.9919 Y2.0106
G01 X1.9932 Y2.0143
G01 X1.9943 Y2.0183
G01 X1.9952 Y2.0225
G01 X1.9956 Y2.0247
G01 X2.0201 Y2.0203
G01 X2.0195 Y2.0172
G01 X2.0185 Y2.0128
G01 X2.0176 Y2.0100
G01 X2.0167 Y2.0073
G01 X2.0157 Y2.0046
G01 X2.0146 Y2.0021
G01 X2.0134 Y1.9996
G01 X2.0121 Y1.9972
G01 X2.0108 Y1.9949
G01 X2.0093 Y1.9927
G01 X2.0077 Y1.9905
G01 X2.0061 Y1.9885
G01 X2.0044 Y1.9865
G01 X2.0026 Y1.9847
G01 X2.0007 Y1.9829
G01 X1.9987 Y1.9812
G01 X1.9966 Y1.9796
G01 X1.9945 Y1.9781
G01 X1.9923 Y1.9767
G01 X1.9901 Y1.9755
G01 X1.9878 Y1.9743
G01 X1.9854 Y1.9732
G01 X1.9830 Y1.9723
G01 X1.9805 Y1.9714
G01 X1.9780 Y1.9707
G01 X1.9754 Y1.9701
G01 X1.9727 Y1.9695
G01 X1.9700 Y1.9691
G01 X1.9672 Y1.9688
G01 X1.9643 Y1.9686
G01 X1.9614 Y1.9685
G01 X1.9600 Y1.9685
G01 X1.9579 Y1.9685
G01 X1.9539 Y1.9687
G01 X1.9500 Y1.9691
G01 X1.9461 Y1.9698
G01 X1.9423 Y1.9707
G01 X1.9387 Y1.9718
G01 X1.9350 Y1.9731
G01 X1.9315 Y1.9746
G01 X1.9298 Y1.9755
G01 X1.9281 Y1.9764
G01 X1.9248 Y1.9783
G01 X1.9218 Y1.9804
G01 X1.9190 Y1.9826
G01 X1.9163 Y1.9850
G01 X1.9139 Y1.9875
G01 X1.9117 Y1.9902
G01 X1.9096 Y1.9931
G01 X1.9087 Y1.9946
G01 X1.9078 Y1.9961
G01 X1.9062 Y1.9992
G01 X1.9048 Y2.0023
G01 X1.9037 Y2.0055
G01 X1.9028 Y2.0087
G01 X1.9021 Y2.0120
G01 X1.9017 Y2.0153
G01 X1.9014 Y2.0187
G01 X1.9014 Y2.0204
G01 X1.9014 Y2.0220
G01 X1.9016 Y2.0251
G01 X1.9021 Y2.0282
G01 X1.9027 Y2.0312
G01 X1.9036 Y2.0342
G01 X1.9047 Y2.0370
G01 X1.9060 Y2.0398
G01 X1.9075 Y2.0426
G01 X1.9084 Y2.0439
G01 X1.9092 Y2.0452
G01 X1.9112 Y2.0477
G01 X1.9134 Y2.0501
G01 X1.9157 Y2.0524
G01 X1.9183 Y2.0545
G01 X1.9211 Y2.0565
G01 X1.9241 Y2.0583
G01 X1.9273 Y2.0600
G01 X1.9290 Y2.0608
G01 X1.9268 Y2.0613
G01 X1.9226 Y2.0626
G01 X1.9186 Y2.0642
G01 X1.9150 Y2.0661
G01 X1.9115 Y2.0682
G01 X1.9083 Y2.0706
G01 X1.9054 Y2.0733
G01 X1.9027 Y2.0762
G01 X1.9014 Y2.0778
G01 X1.9002 Y2.0794
G01 X1.8981 Y2.0828
G01 X1.8963 Y2.0865
G01 X1.8947 Y2.0903
G01 X1.8935 Y2.0943
G01 X1.8926 Y2.0985
G01 X1.8920 Y2.1030
G01 X1.8917 Y2.1076
G01 X1.8917 Y2.1100
G01 X1.8917 Y2.1116
G01 X1.8918 Y2.1148
G01 X1.8921 Y2.1180
G01 X1.8926 Y2.1211
G01 X1.8931 Y2.1241
G01 X1.8939 Y2.1271
G01 X1.8948 Y2.1300
G01 X1.8958 Y2.1328
G01 X1.8970 Y2.1356
G01 X1.8984 Y2.1383
G01 X1.8999 Y2.1409
G01 X1.9015 Y2.1435
G01 X1.9033 Y2.1460
G01 X1.9052 Y2.1485
G01 X1.9073 Y2.1509
G01 X1.9096 Y2.1532
G01 X1.9107 Y2.1544
G01 X1.9119 Y2.1555
G01 X1.9144 Y2.1576
G01 X1.9169 Y2.1596
G01 X1.9196 Y2.1615
G01 X1.9223 Y2.1632
G01 X1.9251 Y2.1647
G01 X1.9279 Y2.1662
G01 X1.9309 Y2.1674
G01 X1.9339 Y2.1686
G01 X1.9370 Y2.1696
G01 X1.9401 Y2.1704
G01 X1.9434 Y2.1711
G01 X1.9467 Y2.1717
G01 X1.9501 Y2.1721
G01 X1.9536 Y2.1724
G01 X1.9572 Y2.1726
G01 X1.9590 Y2.1726
G01 X1.9607 Y2.1726
G01 X1.9639 Y2.1724
G01 X1.9670 Y2.1722
G01 X1.9701 Y2.1718
G01 X1.9731 Y2.1713
G01 X1.9761 Y2.1707
G01 X1.9789 Y2.1700
G01 X1.9817 Y2.1691
G01 X1.9845 Y2.1681
G01 X1.9871 Y2.1670
G01 X1.9897 Y2.1658
G01 X1.9922 Y2.1645
G01 X1.9947 Y2.1630
G01 X1.9971 Y2.1614
G01 X1.9994 Y2.1597
G01 X2.0016 Y2.1578
G01 X2.0027 Y2.1569
G01 X2.0038 Y2.1559
G01 X2.0059 Y2.1538
G01 X2.0078 Y2.1517
G01 X2.0096 Y2.1496
G01 X2.0113 Y2.1473
G01 X2.0129 Y2.1450
G01 X2.0144 Y2.1426
G01 X2.0158 Y2.1401
G01 X2.0170 Y2.1376
G01 X2.0181 Y2.1349
G01 X2.0191 Y2.1323
G01 X2.0200 Y2.1295
G01 X2.0208 Y2.1267
G01 X2.0215 Y2.1238
G01 X2.0220 Y2.1208
G01 X2.0224 Y2.1177
G01 X2.0226 Y2.1162
OFF
G00 X1.8424 Y2.1115
G04 X1.8018 Y2.0819
G00 X1.8424 Y2.1115
ON
G01 X1.8424 Y2.1128
G01 X1.8422 Y2.1154
G01 X1.8419 Y2.1180
G01 X1.8415 Y2.1206
G01 X1.8408 Y2.1231
G01 X1.8401 Y2.1256
G01 X1.8392 Y2.1281
G01 X1.8381 Y2.1306
G01 X1.8375 Y2.1318
G01 X1.8368 Y2.1331
G01 X1.8355 Y2.1354
G01 X1.8339 Y2.1375
G01 X1.8322 Y2.1396
G01 X1.8304 Y2.1415
G01 X1.8284 Y2.1433
G01 X1.8263 Y2.1449
G01 X1.8240 Y2.1464
G01 X1.8227 Y2.1471
G01 X1.8215 Y2.1477
G01 X1.8190 Y2.1489
G01 X1.8165 Y2.1499
G01 X1.8139 Y2.1507
G01 X1.8112 Y2.1514
G01 X1.8086 Y2.1519
G01 X1.8058 Y2.1523
G01 X1.8031 Y2.1524
G01 X1.8016 Y2.1524
G01 X1.7995 Y2.1524
G01 X1.7953 Y2.1521
G01 X1.7913 Y2.1513
G01 X1.7874 Y2.1503
G01 X1.7838 Y2.1489
G01 X1.7804 Y2.1471
G01 X1.7772 Y2.1450
G01 X1.7741 Y2.1425
G01 X1.7727 Y2.1411
G01 X1.7713 Y2.1397
G01 X1.7688 Y2.1367
G01 X1.7667 Y2.1334
G01 X1.7649 Y2.1300
G01 X1.7635 Y2.1264
G01 X1.7624 Y2.1226
G01 X1.7617 Y2.1187
G01 X1.7613 Y2.1145
G01 X1.7613 Y2.1123
G01 X1.7613 Y2.1101
G01 X1.7617 Y2.1059
G01 X1.7624 Y2.1018
G01 X1.7635 Y2.0980
G01 X1.7650 Y2.0943
G01 X1.7668 Y2.0908
G01 X1.7690 Y2.0875
G01 X1.7716 Y2.0844
G01 X1.7730 Y2.0830
G01 X1.7745 Y2.0816
G01 X1.7776 Y2.0790
G01 X1.7809 Y2.0768
G01 X1.7844 Y2.0750
G01 X1.7881 Y2.0736
G01 X1.7920 Y2.0725
G01 X1.7960 Y2.0718
G01 X1.8003 Y2.0714
G01 X1.8025 Y2.0714
G01 X1.8046 Y2.0714
G01 X1.8088 Y2.0718
G01 X1.8127 Y2.0725
G01 X1.8165 Y2.0736
G01 X1.8201 Y2.0750
G01 X1.8234 Y2.0768
G01 X1.8266 Y2.0789
G01 X1.8297 Y2.0814
G01 X1.8311 Y2.0828
G01 X1.8325 Y2.0843
G01 X1.8349 Y2.0873
G01 X1.8371 Y2.0906
G01 X1.8388 Y2.0940
G01 X1.8402 Y2.0975
G01 X1.8413 Y2.1013
G01 X1.8420 Y2.1052
G01 X1.8424 Y2.1094
G01 X1.8424 Y2.1115
OFF
G00 X1.8294 Y2.0607
G04 X1.8018 Y2.0406
G00 X1.8294 Y2.0607
ON
G01 X1.8313 Y2.0600
G01 X1.8349 Y2.0584
G01 X1.8383 Y2.0567
G01 X1.8414 Y2.0549
G01 X1.8442 Y2.0529
G01 X1.8468 Y2.0507
G01 X1.8492 Y2.0485
G01 X1.8513 Y2.0460
G01 X1.8522 Y2.0447
G01 X1.8531 Y2.0434
G01 X1.8547 Y2.0407
G01 X1.8561 Y2.0379
G01 X1.8573 Y2.0349
G01 X1.8582 Y2.0318
G01 X1.8589 Y2.0286
G01 X1.8594 Y2.0252
G01 X1.8596 Y2.0217
G01 X1.8596 Y2.0199
G01 X1.8596 Y2.0186
G01 X1.8595 Y2.0159
G01 X1.8592 Y2.0133
G01 X1.8589 Y2.0107
G01 X1.8584 Y2.0082
G01 X1.8578 Y2.0058
G01 X1.8570 Y2.0034
G01 X1.8562 Y2.0010
G01 X1.8552 Y1.9988
G01 X1.8541 Y1.9965
G01 X1.8529 Y1.9943
G01 X1.8515 Y1.9922
G01 X1.8501 Y1.9901
G01 X1.8485 Y1.9881
G01 X1.8468 Y1.9862
G01 X1.8449 Y1.9842
G01 X1.8430 Y1.9824
G01 X1.8409 Y1.9807
G01 X1.8388 Y1.9790
G01 X1.8366 Y1.9775
G01 X1.8343 Y1.9761
G01 X1.8320 Y1.9749
G01 X1.8295 Y1.9737
G01 X1.8270 Y1.9727
G01 X1.8244 Y1.9717
G01 X1.8217 Y1.9709
G01 X1.8189 Y1.9702
G01 X1.8161 Y1.9696
G01 X1.8132 Y1.9692
G01 X1.8101 Y1.9688
G01 X1.8071 Y1.9686
G01 X1.8039 Y1.9685
G01 X1.8023 Y1.9685
G01 X1.8006 Y1.9685
G01 X1.7975 Y1.9686
G01 X1.7943 Y1.9688
G01 X1.7913 Y1.9692
G01 X1.7884 Y1.9697
G01 X1.7855 Y1.9703
G01 X1.7827 Y1.9710
G01 X1.7800 Y1.9718
G01 X1.7774 Y1.9727
G01 X1.7748 Y1.9738
G01 X1.7723 Y1.9750
G01 X1.7699 Y1.9763
G01 X1.7676 Y1.9777
G01 X1.7654 Y1.9793
G01 X1.7632 Y1.9809
G01 X1.7612 Y1.9827
G01 X1.7602 Y1.9836
G01 X1.7573 Y1.9866
G01 X1.7556 Y1.9886
G01 X1.7540 Y1.9906
G01 X1.7525 Y1.9927
G01 X1.7511 Y1.9949
G01 X1.7499 Y1.9971
G01 X1.7487 Y1.9993
G01 X1.7477 Y2.0016
G01 X1.7469 Y2.0040
G01 X1.7461 Y2.0064
G01 X1.7455 Y2.0089
G01 X1.7450 Y2.0114
G01 X1.7446 Y2.0140
G01 X1.7444 Y2.0166
G01 X1.7442 Y2.0193
G01 X1.7442 Y2.0206
G01 X1.7442 Y2.0224
G01 X1.7445 Y2.0257
G01 X1.7449 Y2.0290
G01 X1.7456 Y2.0321
G01 X1.7465 Y2.0351
G01 X1.7477 Y2.0380
G01 X1.7491 Y2.0408
G01 X1.7507 Y2.0435
G01 X1.7515 Y2.0448
G01 X1.7525 Y2.0461
G01 X1.7545 Y2.0485
G01 X1.7568 Y2.0508
G01 X1.7594 Y2.0529
G01 X1.7622 Y2.0549
G01 X1.7652 Y2.0567
G01 X1.7684 Y2.0584
G01 X1.7719 Y2.0600
G01 X1.7737 Y2.0607
G01 X1.7715 Y2.0615
G01 X1.7671 Y2.0632
G01 X1.7631 Y2.0652
G01 X1.7593 Y2.0673
G01 X1.7558 Y2.0698
G01 X1.7525 Y2.0724
G01 X1.7496 Y2.0753
G01 X1.7469 Y2.0784
G01 X1.7456 Y2.0801
G01 X1.7445 Y2.0817
G01 X1.7424 Y2.0853
G01 X1.7406 Y2.0889
G01 X1.7390 Y2.0927
G01 X1.7378 Y2.0967
G01 X1.7369 Y2.1009
G01 X1.7363 Y2.1052
G01 X1.7360 Y2.1097
G01 X1.7360 Y2.1120
G01 X1.7360 Y2.1136
G01 X1.7362 Y2.1167
G01 X1.7364 Y2.1198
G01 X1.7369 Y2.1228
G01 X1.7374 Y2.1258
G01 X1.7381 Y2.1287
G01 X1.7390 Y2.1315
G01 X1.7400 Y2.1342
G01 X1.7411 Y2.1369
G01 X1.7424 Y2.1396
G01 X1.7438 Y2.1421
G01 X1.7454 Y2.1446
G01 X1.7471 Y2.1471
G01 X1.7489 Y2.1494
G01 X1.7509 Y2.1518
G01 X1.7530 Y2.1540
G01 X1.7541 Y2.1551
G01 X1.7553 Y2.1562
G01 X1.7576 Y2.1582
G01 X1.7601 Y2.1601
G01 X1.7626 Y2.1619
G01 X1.7652 Y2.1636
G01 X1.7680 Y2.1651
G01 X1.7708 Y2.1664
G01 X1.7736 Y2.1676
G01 X1.7766 Y2.1687
G01 X1.7797 Y2.1697
G01 X1.7829 Y2.1705
G01 X1.7861 Y2.1712
G01 X1.7895 Y2.1717
G01 X1.7929 Y2.1721
G01 X1.7964 Y2.1724
G01 X1.8000 Y2.1726
G01 X1.8019 Y2.1726
G01 X1.8037 Y2.1726
G01 X1.8073 Y2.1724
G01 X1.8108 Y2.1721
G01 X1.8142 Y2.1717
G01 X1.8176 Y2.1712
G01 X1.8208 Y2.1705
G01 X1.8240 Y2.1697
G01 X1.8271 Y2.1687
G01 X1.8301 Y2.1676
G01 X1.8329 Y2.1664
G01 X1.8358 Y2.1650
G01 X1.8385 Y2.1635
G01 X1.8411 Y2.1619
G01 X1.8436 Y2.1601
G01 X1.8461 Y2.1582
G01 X1.8484 Y2.1561
G01 X1.8496 Y2.1550
G01 X1.8507 Y2.1539
G01 X1.8528 Y2.1517
G01 X1.8548 Y2.1493
G01 X1.8566 Y2.1470
G01 X1.8583 Y2.1445
G01 X1.8599 Y2.1420
G01 X1.8613 Y2.1394
G01 X1.8626 Y2.1367
G01 X1.8637 Y2.1340
G01 X1.8647 Y2.1312
G01 X1.8656 Y2.1283
G01 X1.8663 Y2.1254
G01 X1.8668 Y2.1224
G01 X1.8673 Y2.1193
G01 X1.8675 Y2.1161
G01 X1.8677 Y2.1129
G01 X1.8677 Y2.1113
G01 X1.8677 Y2.1089
G01 X1.8674 Y2.1042
G01 X1.8667 Y2.0997
G01 X1.8658 Y2.0954
G01 X1.8646 Y2.0914
G01 X1.8630 Y2.0875
G01 X1.8611 Y2.0838
G01 X1.8590 Y2.0803
G01 X1.8578 Y2.0786
G01 X1.8565 Y2.0770
G01 X1.8537 Y2.0740
G01 X1.8507 Y2.0712
G01 X1.8474 Y2.0687
G01 X1.8439 Y2.0665
G01 X1.8401 Y2.0645
G01 X1.8360 Y2.0628
G01 X1.8317 Y2.0613
G01 X1.8294 Y2.0607
OFF
G00 X1.8343 Y2.0191
G04 X1.8019 Y1.9899
G00 X1.8343 Y2.0191
ON
G01 X1.8343 Y2.0208
G01 X1.8340 Y2.0242
G01 X1.8334 Y2.0274
G01 X1.8326 Y2.0305
G01 X1.8315 Y2.0334
G01 X1.8300 Y2.0361
G01 X1.8284 Y2.0387
G01 X1.8264 Y2.0411
G01 X1.8253 Y2.0422
G01 X1.8241 Y2.0433
G01 X1.8217 Y2.0453
G01 X1.8191 Y2.0470
G01 X1.8163 Y2.0484
G01 X1.8134 Y2.0495
G01 X1.8102 Y2.0504
G01 X1.8069 Y2.0509
G01 X1.8035 Y2.0512
G01 X1.8017 Y2.0512
G01 X1.7999 Y2.0512
G01 X1.7965 Y2.0509
G01 X1.7933 Y2.0504
G01 X1.7903 Y2.0495
G01 X1.7874 Y2.0484
G01 X1.7846 Y2.0470
G01 X1.7821 Y2.0453
G01 X1.7797 Y2.0434
G01 X1.7785 Y2.0423
G01 X1.7774 Y2.0412
G01 X1.7755 Y2.0388
G01 X1.7738 Y2.0363
G01 X1.7724 Y2.0337
G01 X1.7713 Y2.0310
G01 X1.7704 Y2.0281
G01 X1.7699 Y2.0252
G01 X1.7696 Y2.0221
G01 X1.7696 Y2.0205
G01 X1.7696 Y2.0188
G01 X1.7699 Y2.0155
G01 X1.7704 Y2.0124
G01 X1.7713 Y2.0095
G01 X1.7725 Y2.0066
G01 X1.7739 Y2.0039
G01 X1.7756 Y2.0014
G01 X1.7777 Y1.9989
G01 X1.7788 Y1.9978
G01 X1.7800 Y1.9967
G01 X1.7824 Y1.9947
G01 X1.7850 Y1.9929
G01 X1.7878 Y1.9915
G01 X1.7907 Y1.9903
G01 X1.7937 Y1.9895
G01 X1.7969 Y1.9889
G01 X1.8002 Y1.9886
G01 X1.8019 Y1.9886
G01 X1.8037 Y1.9886
G01 X1.8070 Y1.9889
G01 X1.8102 Y1.9895
G01 X1.8133 Y1.9903
G01 X1.8162 Y1.9914
G01 X1.8189 Y1.9928
G01 X1.8215 Y1.9945
G01 X1.8240 Y1.9965
G01 X1.8251 Y1.9976
G01 X1.8263 Y1.9987
G01 X1.8283 Y2.0011
G01 X1.8300 Y2.0035
G01 X1.8314 Y2.0061
G01 X1.8326 Y2.0088
G01 X1.8334 Y2.0116
G01 X1.8340 Y2.0145
G01 X1.8343 Y2.0175
G01 X1.8343 Y2.0191
OFF
G00 X-0.3675 Y2.0913
G04 X-0.3597 Y2.0396
G00 X-0.3675 Y2.0913
ON
G01 X-0.3675 Y2.0677
G01 X-0.4521 Y2.0677
G01 X-0.4521 Y2.1418
G01 X-0.4497 Y2.1437
G01 X-0.4448 Y2.1474
G01 X-0.4398 Y2.1508
G01 X-0.4348 Y2.1539
G01 X-0.4298 Y2.1569
G01 X-0.4248 Y2.1596
G01 X-0.4196 Y2.1620
G01 X-0.4145 Y2.1642
G01 X-0.4119 Y2.1652
G01 X-0.4093 Y2.1661
G01 X-0.4041 Y2.1679
G01 X-0.3989 Y2.1693
G01 X-0.3936 Y2.1706
G01 X-0.3883 Y2.1715
G01 X-0.3829 Y2.1723
G01 X-0.3775 Y2.1728
G01 X-0.3721 Y2.1730
G01 X-0.3694 Y2.1730
G01 X-0.3657 Y2.1730
G01 X-0.3585 Y2.1726
G01 X-0.3515 Y2.1718
G01 X-0.3446 Y2.1706
G01 X-0.3379 Y2.1690
G01 X-0.3314 Y2.1671
G01 X-0.3251 Y2.1647
G01 X-0.3189 Y2.1619
G01 X-0.3159 Y2.1604
G01 X-0.3144 Y2.1596
G01 X-0.3114 Y2.1579
G01 X-0.3086 Y2.1562
G01 X-0.3059 Y2.1544
G01 X-0.3032 Y2.1524
G01 X-0.3007 Y2.1504
G01 X-0.2982 Y2.1483
G01 X-0.2959 Y2.1461
G01 X-0.2936 Y2.1438
G01 X-0.2914 Y2.1415
G01 X-0.2893 Y2.1390
G01 X-0.2873 Y2.1365
G01 X-0.2854 Y2.1338
G01 X-0.2836 Y2.1311
G01 X-0.2819 Y2.1283
G01 X-0.2803 Y2.1254
G01 X-0.2795 Y2.1239
G01 X-0.2780 Y2.1209
G01 X-0.2753 Y2.1148
G01 X-0.2730 Y2.1084
G01 X-0.2711 Y2.1019
G01 X-0.2696 Y2.0953
G01 X-0.2684 Y2.0884
G01 X-0.2677 Y2.0814
G01 X-0.2673 Y2.0742
G01 X-0.2673 Y2.0706
G01 X-0.2673 Y2.0669
G01 X-0.2677 Y2.0597
G01 X-0.2684 Y2.0527
G01 X-0.2696 Y2.0458
G01 X-0.2711 Y2.0389
G01 X-0.2730 Y2.0322
G01 X-0.2753 Y2.0257
G01 X-0.2780 Y2.0192
G01 X-0.2794 Y2.0160
G01 X-0.2802 Y2.0145
G01 X-0.2818 Y2.0114
G01 X-0.2835 Y2.0085
G01 X-0.2853 Y2.0056
G01 X-0.2872 Y2.0028
G01 X-0.2891 Y2.0002
G01 X-0.2911 Y1.9976
G01 X-0.2932 Y1.9952
G01 X-0.2954 Y1.9928
G01 X-0.2977 Y1.9906
G01 X-0.3001 Y1.9884
G01 X-0.3025 Y1.9864
G01 X-0.3050 Y1.9845
G01 X-0.3077 Y1.9826
G01 X-0.3104 Y1.9809
G01 X-0.3131 Y1.9792
G01 X-0.3146 Y1.9785
G01 X-0.3160 Y1.9777
G01 X-0.3189 Y1.9763
G01 X-0.3219 Y1.9749
G01 X-0.3249 Y1.9737
G01 X-0.3280 Y1.9725
G01 X-0.3311 Y1.9715
G01 X-0.3359 Y1.9701
G01 X-0.3425 Y1.9685
G01 X-0.3493 Y1.9674
G01 X-0.3564 Y1.9666
G01 X-0.3636 Y1.9662
G01 X-0.3673 Y1.9662
G01 X-0.3700 Y1.9662
G01 X-0.3753 Y1.9664
G01 X-0.3805 Y1.9669
G01 X-0.3855 Y1.9675
G01 X-0.3904 Y1.9684
G01 X-0.3952 Y1.9695
G01 X-0.3998 Y1.9708
G01 X-0.4043 Y1.9724
G01 X-0.4065 Y1.9732
G01 X-0.4087 Y1.9741
G01 X-0.4128 Y1.9760
G01 X-0.4167 Y1.9782
G01 X-0.4204 Y1.9804
G01 X-0.4239 Y1.9829
G01 X-0.4270 Y1.9855
G01 X-0.4300 Y1.9883
G01 X-0.4327 Y1.9913
G01 X-0.4340 Y1.9928
G01 X-0.4352 Y1.9944
G01 X-0.4376 Y1.9978
G01 X-0.4398 Y2.0014
G01 X-0.4418 Y2.0053
G01 X-0.4437 Y2.0094
G01 X-0.4454 Y2.0137
G01 X-0.4470 Y2.0183
G01 X-0.4485 Y2.0231
G01 X-0.4491 Y2.0256
G01 X-0.4253 Y2.0322
G01 X-0.4247 Y2.0303
G01 X-0.4235 Y2.0267
G01 X-0.4223 Y2.0233
G01 X-0.4209 Y2.0201
G01 X-0.4195 Y2.0170
G01 X-0.4181 Y2.0143
G01 X-0.4165 Y2.0117
G01 X-0.4149 Y2.0093
G01 X-0.4141 Y2.0081
G01 X-0.4132 Y2.0071
G01 X-0.4114 Y2.0050
G01 X-0.4094 Y2.0030
G01 X-0.4072 Y2.0012
G01 X-0.4048 Y1.9994
G01 X-0.4022 Y1.9978
G01 X-0.3995 Y1.9962
G01 X-0.3965 Y1.9948
G01 X-0.3950 Y1.9941
G01 X-0.3934 Y1.9935
G01 X-0.3903 Y1.9924
G01 X-0.3870 Y1.9914
G01 X-0.3836 Y1.9906
G01 X-0.3802 Y1.9899
G01 X-0.3767 Y1.9894
G01 X-0.3730 Y1.9891
G01 X-0.3694 Y1.9889
G01 X-0.3675 Y1.9889
G01 X-0.3652 Y1.9889
G01 X-0.3608 Y1.9891
G01 X-0.3566 Y1.9894
G01 X-0.3525 Y1.9899
G01 X-0.3486 Y1.9906
G01 X-0.3449 Y1.9915
G01 X-0.3412 Y1.9925
G01 X-0.3378 Y1.9937
G01 X-0.3361 Y1.9944
G01 X-0.3345 Y1.9951
G01 X-0.3313 Y1.9966
G01 X-0.3283 Y1.9982
G01 X-0.3255 Y1.9999
G01 X-0.3229 Y2.0017
G01 X-0.3203 Y2.0036
G01 X-0.3180 Y2.0057
G01 X-0.3158 Y2.0078
G01 X-0.3148 Y2.0089
G01 X-0.3138 Y2.0101
G01 X-0.3119 Y2.0124
G01 X-0.3101 Y2.0147
G01 X-0.3084 Y2.0171
G01 X-0.3068 Y2.0196
G01 X-0.3053 Y2.0221
G01 X-0.3040 Y2.0247
G01 X-0.3027 Y2.0274
G01 X-0.3022 Y2.0287
G01 X-0.3012 Y2.0310
G01 X-0.2996 Y2.0358
G01 X-0.2981 Y2.0406
G01 X-0.2969 Y2.0455
G01 X-0.2960 Y2.0506
G01 X-0.2953 Y2.0557
G01 X-0.2948 Y2.0609
G01 X-0.2946 Y2.0662
G01 X-0.2946 Y2.0689
G01 X-0.2946 Y2.0722
G01 X-0.2948 Y2.0786
G01 X-0.2954 Y2.0848
G01 X-0.2963 Y2.0906
G01 X-0.2974 Y2.0962
G01 X-0.2989 Y2.1015
G01 X-0.3006 Y2.1066
G01 X-0.3026 Y2.1114
G01 X-0.3037 Y2.1137
G01 X-0.3049 Y2.1159
G01 X-0.3075 Y2.1201
G01 X-0.3103 Y2.1240
G01 X-0.3134 Y2.1276
G01 X-0.3167 Y2.1310
G01 X-0.3203 Y2.1340
G01 X-0.3242 Y2.1368
G01 X-0.3284 Y2.1392
G01 X-0.3305 Y2.1404
G01 X-0.3327 Y2.1414
G01 X-0.3372 Y2.1433
G01 X-0.3417 Y2.1450
G01 X-0.3463 Y2.1463
G01 X-0.3510 Y2.1474
G01 X-0.3557 Y2.1482
G01 X-0.3605 Y2.1488
G01 X-0.3654 Y2.1491
G01 X-0.3679 Y2.1491
G01 X-0.3700 Y2.1491
G01 X-0.3743 Y2.1489
G01 X-0.3785 Y2.1485
G01 X-0.3828 Y2.1478
G01 X-0.3869 Y2.1470
G01 X-0.3911 Y2.1460
G01 X-0.3953 Y2.1447
G01 X-0.3994 Y2.1433
G01 X-0.4014 Y2.1425
G01 X-0.4034 Y2.1417
G01 X-0.4073 Y2.1400
G01 X-0.4109 Y2.1383
G01 X-0.4142 Y2.1366
G01 X-0.4173 Y2.1348
G01 X-0.4202 Y2.1330
G01 X-0.4228 Y2.1312
G01 X-0.4251 Y2.1294
G01 X-0.4262 Y2.1284
G01 X-0.4262 Y2.0913
G01 X-0.3675 Y2.0913
OFF
G00 X-0.4814 Y2.1166
G04 X-0.5469 Y2.0410
G00 X-0.4814 Y2.1166
ON
G01 X-0.5060 Y2.1134
G01 X-0.5065 Y2.1160
G01 X-0.5078 Y2.1209
G01 X-0.5092 Y2.1253
G01 X-0.5108 Y2.1295
G01 X-0.5126 Y2.1332
G01 X-0.5146 Y2.1366
G01 X-0.5167 Y2.1397
G01 X-0.5191 Y2.1423
G01 X-0.5203 Y2.1435
G01 X-0.5216 Y2.1447
G01 X-0.5243 Y2.1467
G01 X-0.5271 Y2.1484
G01 X-0.5300 Y2.1498
G01 X-0.5331 Y2.1510
G01 X-0.5364 Y2.1519
G01 X-0.5398 Y2.1524
G01 X-0.5433 Y2.1527
G01 X-0.5451 Y2.1527
G01 X-0.5473 Y2.1527
G01 X-0.5514 Y2.1523
G01 X-0.5554 Y2.1516
G01 X-0.5593 Y2.1505
G01 X-0.5629 Y2.1490
G01 X-0.5664 Y2.1471
G01 X-0.5697 Y2.1448
G01 X-0.5729 Y2.1422
G01 X-0.5744 Y2.1408
G01 X-0.5758 Y2.1392
G01 X-0.5784 Y2.1361
G01 X-0.5807 Y2.1327
G01 X-0.5825 Y2.1292
G01 X-0.5840 Y2.1254
G01 X-0.5851 Y2.1215
G01 X-0.5859 Y2.1175
G01 X-0.5862 Y2.1132
G01 X-0.5862 Y2.1110
G01 X-0.5862 Y2.1089
G01 X-0.5859 Y2.1049
G01 X-0.5852 Y2.1010
G01 X-0.5842 Y2.0973
G01 X-0.5828 Y2.0939
G01 X-0.5811 Y2.0906
G01 X-0.5790 Y2.0874
G01 X-0.5766 Y2.0845
G01 X-0.5752 Y2.0831
G01 X-0.5738 Y2.0818
G01 X-0.5709 Y2.0794
G01 X-0.5678 Y2.0773
G01 X-0.5644 Y2.0756
G01 X-0.5609 Y2.0742
G01 X-0.5572 Y2.0732
G01 X-0.5533 Y2.0725
G01 X-0.5493 Y2.0722
G01 X-0.5471 Y2.0722
G01 X-0.5454 Y2.0722
G01 X-0.5415 Y2.0725
G01 X-0.5371 Y2.0732
G01 X-0.5324 Y2.0742
G01 X-0.5298 Y2.0749
G01 X-0.5326 Y2.0534
G01 X-0.5348 Y2.0536
G01 X-0.5365 Y2.0536
G01 X-0.5385 Y2.0536
G01 X-0.5423 Y2.0534
G01 X-0.5460 Y2.0528
G01 X-0.5496 Y2.0521
G01 X-0.5532 Y2.0511
G01 X-0.5566 Y2.0498
G01 X-0.5599 Y2.0482
G01 X-0.5632 Y2.0465
G01 X-0.5647 Y2.0455
G01 X-0.5670 Y2.0439
G01 X-0.5684 Y2.0427
G01 X-0.5696 Y2.0415
G01 X-0.5708 Y2.0402
G01 X-0.5719 Y2.0388
G01 X-0.5729 Y2.0374
G01 X-0.5738 Y2.0359
G01 X-0.5745 Y2.0343
G01 X-0.5752 Y2.0326
G01 X-0.5758 Y2.0309
G01 X-0.5763 Y2.0291
G01 X-0.5769 Y2.0263
G01 X-0.5773 Y2.0223
G01 X-0.5773 Y2.0202
G01 X-0.5773 Y2.0186
G01 X-0.5770 Y2.0154
G01 X-0.5764 Y2.0123
G01 X-0.5756 Y2.0093
G01 X-0.5744 Y2.0065
G01 X-0.5730 Y2.0039
G01 X-0.5713 Y2.0014
G01 X-0.5693 Y1.9990
G01 X-0.5682 Y1.9979
G01 X-0.5670 Y1.9968
G01 X-0.5645 Y1.9949
G01 X-0.5619 Y1.9932
G01 X-0.5591 Y1.9918
G01 X-0.5562 Y1.9907
G01 X-0.5531 Y1.9899
G01 X-0.5498 Y1.9894
G01 X-0.5463 Y1.9891
G01 X-0.5446 Y1.9891
G01 X-0.5428 Y1.9891
G01 X-0.5393 Y1.9894
G01 X-0.5361 Y1.9899
G01 X-0.5329 Y1.9908
G01 X-0.5299 Y1.9919
G01 X-0.5271 Y1.9933
G01 X-0.5244 Y1.9950
G01 X-0.5219 Y1.9970
G01 X-0.5207 Y1.9981
G01 X-0.5195 Y1.9992
G01 X-0.5173 Y2.0018
G01 X-0.5154 Y2.0046
G01 X-0.5136 Y2.0077
G01 X-0.5121 Y2.0111
G01 X-0.5108 Y2.0148
G01 X-0.5097 Y2.0187
G01 X-0.5088 Y2.0229
G01 X-0.5084 Y2.0252
G01 X-0.4839 Y2.0207
G01 X-0.4845 Y2.0177
G01 X-0.4855 Y2.0133
G01 X-0.4864 Y2.0105
G01 X-0.4873 Y2.0077
G01 X-0.4883 Y2.0051
G01 X-0.4894 Y2.0025
G01 X-0.4906 Y2.0000
G01 X-0.4919 Y1.9977
G01 X-0.4932 Y1.9953
G01 X-0.4947 Y1.9931
G01 X-0.4963 Y1.9910
G01 X-0.4979 Y1.9890
G01 X-0.4996 Y1.9870
G01 X-0.5014 Y1.9851
G01 X-0.5033 Y1.9833
G01 X-0.5053 Y1.9817
G01 X-0.5074 Y1.9801
G01 X-0.5095 Y1.9786
G01 X-0.5117 Y1.9772
G01 X-0.5139 Y1.9759
G01 X-0.5162 Y1.9748
G01 X-0.5186 Y1.9737
G01 X-0.5210 Y1.9727
G01 X-0.5235 Y1.9719
G01 X-0.5260 Y1.9712
G01 X-0.5286 Y1.9705
G01 X-0.5313 Y1.9700
G01 X-0.5340 Y1.9696
G01 X-0.5368 Y1.9692
G01 X-0.5397 Y1.9690
G01 X-0.5426 Y1.9689
G01 X-0.5440 Y1.9689
G01 X-0.5461 Y1.9689
G01 X-0.5501 Y1.9692
G01 X-0.5540 Y1.9696
G01 X-0.5579 Y1.9703
G01 X-0.5617 Y1.9711
G01 X-0.5653 Y1.9722
G01 X-0.5690 Y1.9735
G01 X-0.5725 Y1.9751
G01 X-0.5742 Y1.9759
G01 X-0.5759 Y1.9768
G01 X-0.5792 Y1.9787
G01 X-0.5822 Y1.9808
G01 X-0.5850 Y1.9830
G01 X-0.5877 Y1.9854
G01 X-0.5901 Y1.9880
G01 X-0.5923 Y1.9907
G01 X-0.5944 Y1.9936
G01 X-0.5953 Y1.9951
G01 X-0.5962 Y1.9966
G01 X-0.5978 Y1.9997
G01 X-0.5992 Y2.0028
G01 X-0.6003 Y2.0060
G01 X-0.6012 Y2.0092
G01 X-0.6019 Y2.0124
G01 X-0.6023 Y2.0158
G01 X-0.6026 Y2.0191
G01 X-0.6026 Y2.0208
G01 X-0.6026 Y2.0224
G01 X-0.6024 Y2.0256
G01 X-0.6019 Y2.0287
G01 X-0.6013 Y2.0317
G01 X-0.6004 Y2.0346
G01 X-0.5993 Y2.0375
G01 X-0.5980 Y2.0403
G01 X-0.5965 Y2.0430
G01 X-0.5956 Y2.0444
G01 X-0.5948 Y2.0457
G01 X-0.5928 Y2.0482
G01 X-0.5906 Y2.0506
G01 X-0.5883 Y2.0528
G01 X-0.5857 Y2.0549
G01 X-0.5829 Y2.0569
G01 X-0.5799 Y2.0588
G01 X-0.5767 Y2.0605
G01 X-0.5750 Y2.0613
G01 X-0.5772 Y2.0618
G01 X-0.5814 Y2.0631
G01 X-0.5854 Y2.0647
G01 X-0.5890 Y2.0665
G01 X-0.5925 Y2.0686
G01 X-0.5957 Y2.0710
G01 X-0.5986 Y2.0737
G01 X-0.6013 Y2.0767
G01 X-0.6026 Y2.0782
G01 X-0.6038 Y2.0799
G01 X-0.6059 Y2.0833
G01 X-0.6077 Y2.0869
G01 X-0.6093 Y2.0907
G01 X-0.6105 Y2.0948
G01 X-0.6114 Y2.0990
G01 X-0.6120 Y2.1034
G01 X-0.6123 Y2.1081
G01 X-0.6123 Y2.1105
G01 X-0.6123 Y2.1121
G01 X-0.6122 Y2.1153
G01 X-0.6119 Y2.1185
G01 X-0.6114 Y2.1215
G01 X-0.6109 Y2.1246
G01 X-0.6101 Y2.1275
G01 X-0.6092 Y2.1304
G01 X-0.6082 Y2.1333
G01 X-0.6070 Y2.1360
G01 X-0.6056 Y2.1387
G01 X-0.6041 Y2.1414
G01 X-0.6025 Y2.1440
G01 X-0.6007 Y2.1465
G01 X-0.5988 Y2.1490
G01 X-0.5967 Y2.1514
G01 X-0.5944 Y2.1537
G01 X-0.5933 Y2.1548
G01 X-0.5921 Y2.1560
G01 X-0.5896 Y2.1581
G01 X-0.5871 Y2.1601
G01 X-0.5844 Y2.1619
G01 X-0.5817 Y2.1636
G01 X-0.5789 Y2.1652
G01 X-0.5761 Y2.1666
G01 X-0.5731 Y2.1679
G01 X-0.5701 Y2.1690
G01 X-0.5670 Y2.1700
G01 X-0.5639 Y2.1709
G01 X-0.5606 Y2.1716
G01 X-0.5573 Y2.1722
G01 X-0.5539 Y2.1726
G01 X-0.5504 Y2.1729
G01 X-0.5468 Y2.1730
G01 X-0.5450 Y2.1730
G01 X-0.5433 Y2.1730
G01 X-0.5401 Y2.1729
G01 X-0.5370 Y2.1727
G01 X-0.5339 Y2.1723
G01 X-0.5309 Y2.1718
G01 X-0.5279 Y2.1712
G01 X-0.5251 Y2.1704
G01 X-0.5223 Y2.1696
G01 X-0.5195 Y2.1686
G01 X-0.5169 Y2.1675
G01 X-0.5143 Y2.1663
G01 X-0.5118 Y2.1649
G01 X-0.5093 Y2.1634
G01 X-0.5069 Y2.1619
G01 X-0.5046 Y2.1601
G01 X-0.5024 Y2.1583
G01 X-0.5013 Y2.1573
G01 X-0.5002 Y2.1563
G01 X-0.4981 Y2.1543
G01 X-0.4962 Y2.1522
G01 X-0.4944 Y2.1500
G01 X-0.4927 Y2.1478
G01 X-0.4911 Y2.1454
G01 X-0.4896 Y2.1430
G01 X-0.4882 Y2.1406
G01 X-0.4870 Y2.1380
G01 X-0.4859 Y2.1354
G01 X-0.4849 Y2.1327
G01 X-0.4840 Y2.1300
G01 X-0.4832 Y2.1271
G01 X-0.4825 Y2.1242
G01 X-0.4820 Y2.1212
G01 X-0.4816 Y2.1182
G01 X-0.4814 Y2.1166
OFF
G00 X-0.6383 Y1.9959
G04 X-0.7030 Y2.0410
G00 X-0.6383 Y1.9959
ON
G01 X-0.6383 Y1.9723
G01 X-0.7677 Y1.9723
G01 X-0.7677 Y1.9914
G01 X-0.7653 Y1.9940
G01 X-0.7606 Y1.9995
G01 X-0.7558 Y2.0054
G01 X-0.7511 Y2.0117
G01 X-0.7463 Y2.0185
G01 X-0.7416 Y2.0257
G01 X-0.7369 Y2.0333
G01 X-0.7322 Y2.0413
G01 X-0.7299 Y2.0454
G01 X-0.7275 Y2.0496
G01 X-0.7231 Y2.0581
G01 X-0.7190 Y2.0667
G01 X-0.7151 Y2.0753
G01 X-0.7115 Y2.0839
G01 X-0.7081 Y2.0926
G01 X-0.7050 Y2.1014
G01 X-0.7022 Y2.1103
G01 X-0.7009 Y2.1147
G01 X-0.7000 Y2.1179
G01 X-0.6983 Y2.1243
G01 X-0.6968 Y2.1309
G01 X-0.6955 Y2.1376
G01 X-0.6943 Y2.1445
G01 X-0.6933 Y2.1515
G01 X-0.6924 Y2.1586
G01 X-0.6918 Y2.1660
G01 X-0.6915 Y2.1697
G01 X-0.6662 Y2.1697
G01 X-0.6662 Y2.1667
G01 X-0.6666 Y2.1605
G01 X-0.6673 Y2.1540
G01 X-0.6681 Y2.1472
G01 X-0.6693 Y2.1400
G01 X-0.6707 Y2.1326
G01 X-0.6724 Y2.1249
G01 X-0.6744 Y2.1168
G01 X-0.6754 Y2.1127
G01 X-0.6766 Y2.1085
G01 X-0.6790 Y2.1002
G01 X-0.6817 Y2.0920
G01 X-0.6847 Y2.0839
G01 X-0.6879 Y2.0758
G01 X-0.6913 Y2.0678
G01 X-0.6949 Y2.0599
G01 X-0.6988 Y2.0521
G01 X-0.7009 Y2.0482
G01 X-0.7030 Y2.0444
G01 X-0.7072 Y2.0369
G01 X-0.7114 Y2.0298
G01 X-0.7158 Y2.0229
G01 X-0.7202 Y2.0164
G01 X-0.7247 Y2.0102
G01 X-0.7292 Y2.0042
G01 X-0.7338 Y1.9986
G01 X-0.7361 Y1.9959
G01 X-0.6383 Y1.9959
OFF
G00 X-1.0979 Y7.2796

%