; -- Obstacle-avoidance G-code --
; Generated by Obstacle Avoidance Tool
; Transform: rotation=0.00 deg  offset=(0.00, 0.00) m
%
G00 G90 G17 G21

G00 X0.0000 Y0.0000
G00 X1.15  Y2.0069
G00 X1.0651 Y1.8806
ON
G00 X1.0651 Y1.9054
G01 X1.1497 Y1.9054
G01 X1.1497 Y1.8313
G01 X1.1473 Y1.8294
G01 X1.1423 Y1.8258
G01 X1.1374 Y1.8224
G01 X1.1324 Y1.8192
G01 X1.1274 Y1.8163
G01 X1.1223 Y1.8136
G01 X1.1172 Y1.8112
G01 X1.1121 Y1.8090
G01 X1.1095 Y1.8079
G01 X1.1069 Y1.8070
G01 X1.1017 Y1.8053
G01 X1.0964 Y1.8038
G01 X1.0911 Y1.8026
G01 X1.0858 Y1.8016
G01 X1.0805 Y1.8009
G01 X1.0751 Y1.8004
G01 X1.0696 Y1.8001
G01 X1.0669 Y1.8001
G01 X1.0633 Y1.8001
G01 X1.0561 Y1.8006
G01 X1.0490 Y1.8013
G01 X1.0422 Y1.8025
G01 X1.0355 Y1.8041
G01 X1.0290 Y1.8061
G01 X1.0226 Y1.8084
G01 X1.0164 Y1.8112
G01 X1.0134 Y1.8127
G01 X1.0119 Y1.8135
G01 X1.0090 Y1.8152
G01 X1.0062 Y1.8170
G01 X1.0034 Y1.8188
G01 X1.0008 Y1.8207
G01 X0.9982 Y1.8227
G01 X0.9958 Y1.8248
G01 X0.9934 Y1.8270
G01 X0.9912 Y1.8293
G01 X0.9890 Y1.8317
G01 X0.9869 Y1.8341
G01 X0.9849 Y1.8367
G01 X0.9830 Y1.8393
G01 X0.9812 Y1.8420
G01 X0.9795 Y1.8449
G01 X0.9778 Y1.8478
G01 X0.9771 Y1.8492
G01 X0.9756 Y1.8522
G01 X0.9729 Y1.8584
G01 X0.9706 Y1.8647
G01 X0.9687 Y1.8712
G01 X0.9671 Y1.8779
G01 X0.9660 Y1.8847
G01 X0.9652 Y1.8917
G01 X0.9648 Y1.8989
G01 X0.9648 Y1.9026
G01 X0.9648 Y1.9062
G01 X0.9652 Y1.9134
G01 X0.9660 Y1.9205
G01 X0.9671 Y1.9274
G01 X0.9687 Y1.9342
G01 X0.9706 Y1.9409
G01 X0.9728 Y1.9475
G01 X0.9755 Y1.9539
G01 X0.9770 Y1.9571
G01 X0.9778 Y1.9587
G01 X0.9794 Y1.9617
G01 X0.9811 Y1.9647
G01 X0.9828 Y1.9676
G01 X0.9847 Y1.9703
G01 X0.9866 Y1.9730
G01 X0.9887 Y1.9755
G01 X0.9908 Y1.9780
G01 X0.9930 Y1.9803
G01 X0.9953 Y1.9826
G01 X0.9976 Y1.9847
G01 X1.0001 Y1.9868
G01 X1.0026 Y1.9887
G01 X1.0052 Y1.9905
G01 X1.0079 Y1.9923
G01 X1.0107 Y1.9939
G01 X1.0121 Y1.9947
G01 X1.0135 Y1.9954
G01 X1.0165 Y1.9969
G01 X1.0194 Y1.9982
G01 X1.0225 Y1.9995
G01 X1.0255 Y2.0006
G01 X1.0287 Y2.0017
G01 X1.0335 Y2.0031
G01 X1.0401 Y2.0046
G01 X1.0469 Y2.0058
G01 X1.0539 Y2.0065
G01 X1.0612 Y2.0069
G01 X1.0649 Y2.0069
G01 X1.0676 Y2.0069
G01 X1.0729 Y2.0067
G01 X1.0780 Y2.0063
G01 X1.0831 Y2.0056
G01 X1.0880 Y2.0047
G01 X1.0927 Y2.0036
G01 X1.0974 Y2.0023
G01 X1.1019 Y2.0008
G01 X1.1041 Y1.9999
G01 X1.1062 Y1.9990
G01 X1.1104 Y1.9971
G01 X1.1143 Y1.9950
G01 X1.1180 Y1.9927
G01 X1.1214 Y1.9903
G01 X1.1246 Y1.9876
G01 X1.1276 Y1.9848
G01 X1.1303 Y1.9819
G01 X1.1316 Y1.9803
G01 X1.1328 Y1.9787
G01 X1.1351 Y1.9753
G01 X1.1373 Y1.9717
G01 X1.1394 Y1.9679
G01 X1.1412 Y1.9638
G01 X1.1430 Y1.9594
G01 X1.1446 Y1.9548
G01 X1.1460 Y1.9500
G01 X1.1467 Y1.9475
G01 X1.1228 Y1.9410
G01 X1.1223 Y1.9429
G01 X1.1211 Y1.9465
G01 X1.1198 Y1.9499
G01 X1.1185 Y1.9531
G01 X1.1171 Y1.9561
G01 X1.1156 Y1.9589
G01 X1.1141 Y1.9615
G01 X1.1125 Y1.9639
G01 X1.1116 Y1.9650
G01 X1.1108 Y1.9661
G01 X1.1089 Y1.9682
G01 X1.1069 Y1.9701
G01 X1.1047 Y1.9720
G01 X1.1023 Y1.9737
G01 X1.0998 Y1.9754
G01 X1.0970 Y1.9769
G01 X1.0941 Y1.9783
G01 X1.0926 Y1.9790
G01 X1.0910 Y1.9796
G01 X1.0878 Y1.9808
G01 X1.0845 Y1.9818
G01 X1.0812 Y1.9826
G01 X1.0777 Y1.9833
G01 X1.0742 Y1.9837
G01 X1.0706 Y1.9841
G01 X1.0669 Y1.9842
G01 X1.0650 Y1.9842
G01 X1.0628 Y1.9842
G01 X1.0584 Y1.9841
G01 X1.0542 Y1.9837
G01 X1.0501 Y1.9832
G01 X1.0462 Y1.9825
G01 X1.0424 Y1.9816
G01 X1.0388 Y1.9806
G01 X1.0353 Y1.9794
G01 X1.0337 Y1.9787
G01 X1.0320 Y1.9780
G01 X1.0289 Y1.9765
G01 X1.0259 Y1.9749
G01 X1.0231 Y1.9732
G01 X1.0204 Y1.9714
G01 X1.0179 Y1.9695
G01 X1.0155 Y1.9675
G01 X1.0134 Y1.9653
G01 X1.0123 Y1.9642
G01 X1.0113 Y1.9631
G01 X1.0094 Y1.9608
G01 X1.0076 Y1.9584
G01 X1.0059 Y1.9560
G01 X1.0043 Y1.9535
G01 X1.0029 Y1.9510
G01 X1.0015 Y1.9484
G01 X1.0003 Y1.9458
G01 X0.9997 Y1.9444
G01 X0.9988 Y1.9421
G01 X0.9971 Y1.9374
G01 X0.9957 Y1.9325
G01 X0.9945 Y1.9276
G01 X0.9935 Y1.9226
G01 X0.9928 Y1.9175
G01 X0.9923 Y1.9122
G01 X0.9921 Y1.9069
G01 X0.9921 Y1.9042
G01 X0.9921 Y1.9009
G01 X0.9924 Y1.8945
G01 X0.9930 Y1.8884
G01 X0.9938 Y1.8825
G01 X0.9950 Y1.8769
G01 X0.9964 Y1.8716
G01 X0.9982 Y1.8666
G01 X1.0002 Y1.8618
G01 X1.0013 Y1.8595
G01 X1.0025 Y1.8573
G01 X1.0050 Y1.8531
G01 X1.0079 Y1.8492
G01 X1.0109 Y1.8455
G01 X1.0143 Y1.8422
G01 X1.0179 Y1.8391
G01 X1.0218 Y1.8364
G01 X1.0259 Y1.8339
G01 X1.0281 Y1.8328
G01 X1.0303 Y1.8317
G01 X1.0347 Y1.8298
G01 X1.0393 Y1.8282
G01 X1.0439 Y1.8268
G01 X1.0485 Y1.8257
G01 X1.0533 Y1.8249
G01 X1.0581 Y1.8244
G01 X1.0630 Y1.8241
G01 X1.0654 Y1.8241
G01 X1.0676 Y1.8241
G01 X1.0718 Y1.8243
G01 X1.0761 Y1.8247
G01 X1.0803 Y1.8253
G01 X1.0845 Y1.8261
G01 X1.0887 Y1.8272
G01 X1.0928 Y1.8284
G01 X1.0969 Y1.8298
G01 X1.0990 Y1.8306
G01 X1.1010 Y1.8315
G01 X1.1048 Y1.8331
G01 X1.1084 Y1.8348
G01 X1.1118 Y1.8366
G01 X1.1149 Y1.8383
G01 X1.1177 Y1.8401
G01 X1.1203 Y1.8419
G01 X1.1227 Y1.8438
G01 X1.1238 Y1.8447
G01 X1.1238 Y1.8818
G01 X1.0651 Y1.8818
OFF
G00 X1.2414 Y1.8952
G00 X1.3078 Y1.8271
ON
G01 X1.3078 Y1.8035
G01 X1.1756 Y1.8035
G01 X1.1756 Y1.8057
G01 X1.1758 Y1.8089
G01 X1.1760 Y1.8111
G01 X1.1764 Y1.8132
G01 X1.1769 Y1.8153
G01 X1.1774 Y1.8174
G01 X1.1781 Y1.8195
G01 X1.1785 Y1.8205
G01 X1.1791 Y1.8222
G01 X1.1806 Y1.8256
G01 X1.1822 Y1.8289
G01 X1.1841 Y1.8323
G01 X1.1861 Y1.8356
G01 X1.1883 Y1.8389
G01 X1.1907 Y1.8422
G01 X1.1933 Y1.8455
G01 X1.1947 Y1.8472
G01 X1.1961 Y1.8488
G01 X1.1992 Y1.8522
G01 X1.2026 Y1.8557
G01 X1.2063 Y1.8594
G01 X1.2103 Y1.8632
G01 X1.2146 Y1.8671
G01 X1.2217 Y1.8732
G01 X1.2268 Y1.8774
G01 X1.2308 Y1.8807
G01 X1.2382 Y1.8870
G01 X1.2451 Y1.8930
G01 X1.2512 Y1.8987
G01 X1.2567 Y1.9040
G01 X1.2615 Y1.9089
G01 X1.2657 Y1.9135
G01 X1.2692 Y1.9178
G01 X1.2707 Y1.9198
G01 X1.2721 Y1.9217
G01 X1.2746 Y1.9256
G01 X1.2768 Y1.9294
G01 X1.2786 Y1.9331
G01 X1.2800 Y1.9368
G01 X1.2811 Y1.9404
G01 X1.2818 Y1.9440
G01 X1.2821 Y1.9476
G01 X1.2821 Y1.9493
G01 X1.2821 Y1.9511
G01 X1.2818 Y1.9546
G01 X1.2811 Y1.9580
G01 X1.2802 Y1.9612
G01 X1.2789 Y1.9643
G01 X1.2772 Y1.9672
G01 X1.2753 Y1.9700
G01 X1.2730 Y1.9727
G01 X1.2717 Y1.9739
G01 X1.2704 Y1.9751
G01 X1.2676 Y1.9773
G01 X1.2646 Y1.9792
G01 X1.2614 Y1.9808
G01 X1.2580 Y1.9820
G01 X1.2544 Y1.9830
G01 X1.2506 Y1.9836
G01 X1.2466 Y1.9839
G01 X1.2446 Y1.9839
G01 X1.2424 Y1.9839
G01 X1.2382 Y1.9836
G01 X1.2342 Y1.9829
G01 X1.2304 Y1.9819
G01 X1.2269 Y1.9806
G01 X1.2236 Y1.9789
G01 X1.2205 Y1.9769
G01 X1.2176 Y1.9746
G01 X1.2162 Y1.9733
G01 X1.2150 Y1.9720
G01 X1.2126 Y1.9690
G01 X1.2106 Y1.9659
G01 X1.2090 Y1.9624
G01 X1.2076 Y1.9588
G01 X1.2066 Y1.9548
G01 X1.2059 Y1.9506
G01 X1.2055 Y1.9462
G01 X1.2055 Y1.9439
G01 X1.1802 Y1.9465
G01 X1.1804 Y1.9482
G01 X1.1808 Y1.9516
G01 X1.1813 Y1.9549
G01 X1.1820 Y1.9582
G01 X1.1828 Y1.9613
G01 X1.1837 Y1.9643
G01 X1.1847 Y1.9672
G01 X1.1858 Y1.9699
G01 X1.1870 Y1.9726
G01 X1.1883 Y1.9752
G01 X1.1898 Y1.9777
G01 X1.1913 Y1.9801
G01 X1.1930 Y1.9823
G01 X1.1948 Y1.9845
G01 X1.1966 Y1.9866
G01 X1.1987 Y1.9885
G01 X1.1997 Y1.9894
G01 X1.2008 Y1.9904
G01 X1.2030 Y1.9921
G01 X1.2053 Y1.9937
G01 X1.2077 Y1.9952
G01 X1.2101 Y1.9966
G01 X1.2127 Y1.9979
G01 X1.2154 Y1.9990
G01 X1.2181 Y2.0001
G01 X1.2209 Y2.0010
G01 X1.2239 Y2.0018
G01 X1.2269 Y2.0025
G01 X1.2300 Y2.0031
G01 X1.2332 Y2.0035
G01 X1.2365 Y2.0039
G01 X1.2399 Y2.0041
G01 X1.2434 Y2.0042
G01 X1.2451 Y2.0042
G01 X1.2469 Y2.0042
G01 X1.2504 Y2.0041
G01 X1.2538 Y2.0038
G01 X1.2571 Y2.0035
G01 X1.2604 Y2.0030
G01 X1.2635 Y2.0023
G01 X1.2665 Y2.0016
G01 X1.2695 Y2.0007
G01 X1.2723 Y1.9997
G01 X1.2751 Y1.9986
G01 X1.2777 Y1.9974
G01 X1.2803 Y1.9960
G01 X1.2828 Y1.9945
G01 X1.2852 Y1.9929
G01 X1.2874 Y1.9911
G01 X1.2896 Y1.9893
G01 X1.2907 Y1.9883
G01 X1.2917 Y1.9873
G01 X1.2937 Y1.9852
G01 X1.2955 Y1.9831
G01 X1.2972 Y1.9809
G01 X1.2988 Y1.9787
G01 X1.3002 Y1.9764
G01 X1.3016 Y1.9741
G01 X1.3027 Y1.9716
G01 X1.3038 Y1.9692
G01 X1.3047 Y1.9666
G01 X1.3055 Y1.9641
G01 X1.3061 Y1.9614
G01 X1.3067 Y1.9587
G01 X1.3071 Y1.9559
G01 X1.3073 Y1.9531
G01 X1.3075 Y1.9502
G01 X1.3075 Y1.9487
G01 X1.3075 Y1.9472
G01 X1.3073 Y1.9443
G01 X1.3070 Y1.9413
G01 X1.3065 Y1.9383
G01 X1.3059 Y1.9354
G01 X1.3052 Y1.9324
G01 X1.3042 Y1.9295
G01 X1.3032 Y1.9266
G01 X1.3026 Y1.9251
G01 X1.3019 Y1.9237
G01 X1.3005 Y1.9208
G01 X1.2989 Y1.9178
G01 X1.2970 Y1.9148
G01 X1.2950 Y1.9117
G01 X1.2928 Y1.9086
G01 X1.2903 Y1.9055
G01 X1.2877 Y1.9023
G01 X1.2863 Y1.9007
G01 X1.2848 Y1.8991
G01 X1.2815 Y1.8956
G01 X1.2777 Y1.8918
G01 X1.2734 Y1.8877
G01 X1.2662 Y1.8810
G01 X1.2549 Y1.8710
G01 X1.2485 Y1.8656
G01 X1.2432 Y1.8611
G01 X1.2341 Y1.8533
G01 X1.2270 Y1.8470
G01 X1.2219 Y1.8422
G01 X1.2201 Y1.8404
G01 X1.2186 Y1.8387
G01 X1.2157 Y1.8354
G01 X1.2131 Y1.8321
G01 X1.2108 Y1.8288
G01 X1.2098 Y1.8271
G01 X1.3078 Y1.8271
OFF
G00 X1.3985 Y1.8995
G00 X1.3358 Y1.9772
ON
G01 X1.3358 Y2.0009
G01 X1.4652 Y2.0009
G01 X1.4652 Y1.9818
G01 X1.4629 Y1.9792
G01 X1.4581 Y1.9737
G01 X1.4533 Y1.9677
G01 X1.4486 Y1.9614
G01 X1.4439 Y1.9547
G01 X1.4392 Y1.9475
G01 X1.4345 Y1.9399
G01 X1.4298 Y1.9319
G01 X1.4274 Y1.9277
G01 X1.4251 Y1.9235
G01 X1.4207 Y1.9150
G01 X1.4165 Y1.9065
G01 X1.4126 Y1.8979
G01 X1.4090 Y1.8892
G01 X1.4057 Y1.8805
G01 X1.4026 Y1.8717
G01 X1.3997 Y1.8629
G01 X1.3984 Y1.8584
G01 X1.3975 Y1.8553
G01 X1.3959 Y1.8489
G01 X1.3944 Y1.8423
G01 X1.3930 Y1.8356
G01 X1.3918 Y1.8287
G01 X1.3908 Y1.8217
G01 X1.3900 Y1.8145
G01 X1.3893 Y1.8072
G01 X1.3890 Y1.8035
G01 X1.3637 Y1.8035
G01 X1.3637 Y1.8065
G01 X1.3642 Y1.8127
G01 X1.3648 Y1.8192
G01 X1.3657 Y1.8260
G01 X1.3669 Y1.8331
G01 X1.3683 Y1.8406
G01 X1.3700 Y1.8483
G01 X1.3719 Y1.8563
G01 X1.3730 Y1.8605
G01 X1.3741 Y1.8647
G01 X1.3766 Y1.8729
G01 X1.3793 Y1.8811
G01 X1.3822 Y1.8893
G01 X1.3854 Y1.8973
G01 X1.3888 Y1.9053
G01 X1.3925 Y1.9132
G01 X1.3964 Y1.9210
G01 X1.3984 Y1.9249
G01 X1.4005 Y1.9288
G01 X1.4047 Y1.9362
G01 X1.4090 Y1.9434
G01 X1.4133 Y1.9502
G01 X1.4177 Y1.9568
G01 X1.4222 Y1.9630
G01 X1.4268 Y1.9689
G01 X1.4314 Y1.9745
G01 X1.4337 Y1.9772
G01 X1.3358 Y1.9772
OFF
G00 X0.0000 Y0.0000

%