; -- Obstacle-avoidance G-code --
; Generated by Obstacle Avoidance Tool
; Transform: rotation=0.00 deg  offset=(0.00, 0.00) m
%
G00 G90 G17 G21

G00 X0.0000 Y0.0000
G00 X1.6728 Y5.2253
ON
G01 X1.6728 Y0.8606
G01 X1.7728 Y0.8606
G01 X1.7728 Y5.2253
G01 X1.6728 Y5.2253
OFF
G00 X2.1328 Y5.1737
G00 X2.1324 Y5.2005
G00 X2.1917 Y5.3856
G00 X1.9717 Y5.1656
G00 X2.1324 Y5.2005
ON
G01 X2.1324 Y5.1769
G01 X2.0030 Y5.1769
G01 X2.0030 Y5.1960
G01 X2.0053 Y5.1986
G01 X2.0101 Y5.2041
G01 X2.0149 Y5.2100
G01 X2.0196 Y5.2163
G01 X2.0243 Y5.2231
G01 X2.0290 Y5.2302
G01 X2.0338 Y5.2378
G01 X2.0384 Y5.2458
G01 X2.0408 Y5.2500
G01 X2.0431 Y5.2542
G01 X2.0475 Y5.2627
G01 X2.0517 Y5.2712
G01 X2.0556 Y5.2798
G01 X2.0592 Y5.2885
G01 X2.0625 Y5.2972
G01 X2.0656 Y5.3060
G01 X2.0685 Y5.3149
G01 X2.0698 Y5.3193
G01 X2.0707 Y5.3224
G01 X2.0723 Y5.3289
G01 X2.0738 Y5.3354
G01 X2.0752 Y5.3422
G01 X2.0764 Y5.3490
G01 X2.0774 Y5.3561
G01 X2.0782 Y5.3632
G01 X2.0789 Y5.3705
G01 X2.0792 Y5.3743
G01 X2.1045 Y5.3743
G01 X2.1045 Y5.3713
G01 X2.1040 Y5.3651
G01 X2.1034 Y5.3586
G01 X2.1025 Y5.3517
G01 X2.1013 Y5.3446
G01 X2.0999 Y5.3372
G01 X2.0982 Y5.3294
G01 X2.0963 Y5.3214
G01 X2.0952 Y5.3172
G01 X2.0941 Y5.3131
G01 X2.0916 Y5.3048
G01 X2.0889 Y5.2966
G01 X2.0860 Y5.2885
G01 X2.0828 Y5.2804
G01 X2.0794 Y5.2724
G01 X2.0757 Y5.2645
G01 X2.0718 Y5.2567
G01 X2.0698 Y5.2528
G01 X2.0677 Y5.2490
G01 X2.0635 Y5.2415
G01 X2.0592 Y5.2344
G01 X2.0549 Y5.2275
G01 X2.0505 Y5.2210
G01 X2.0460 Y5.2147
G01 X2.0414 Y5.2088
G01 X2.0368 Y5.2032
G01 X2.0345 Y5.2005
G01 X2.1324 Y5.2005
G01 X2.1604 Y5.3743
OFF
G00 X2.3365 Y5.1639
G00 X2.1165 Y5.3839
G00 X2.1604 Y5.3743
ON
G01 X2.2926 Y5.3743
G01 X2.2926 Y5.3721
G01 X2.2924 Y5.3688
G01 X2.2922 Y5.3666
G01 X2.2918 Y5.3645
G01 X2.2914 Y5.3624
G01 X2.2908 Y5.3603
G01 X2.2901 Y5.3582
G01 X2.2897 Y5.3572
G01 X2.2891 Y5.3555
G01 X2.2876 Y5.3521
G01 X2.2860 Y5.3488
G01 X2.2841 Y5.3454
G01 X2.2821 Y5.3421
G01 X2.2799 Y5.3388
G01 X2.2775 Y5.3355
G01 X2.2749 Y5.3322
G01 X2.2735 Y5.3306
G01 X2.2721 Y5.3289
G01 X2.2690 Y5.3255
G01 X2.2656 Y5.3220
G01 X2.2619 Y5.3183
G01 X2.2579 Y5.3146
G01 X2.2536 Y5.3107
G01 X2.2465 Y5.3046
G01 X2.2414 Y5.3003
G01 X2.2374 Y5.2970
G01 X2.2300 Y5.2907
G01 X2.2231 Y5.2847
G01 X2.2170 Y5.2791
G01 X2.2115 Y5.2738
G01 X2.2067 Y5.2688
G01 X2.2025 Y5.2642
G01 X2.1990 Y5.2600
G01 X2.1975 Y5.2580
G01 X2.1961 Y5.2560
G01 X2.1936 Y5.2522
G01 X2.1914 Y5.2484
G01 X2.1896 Y5.2446
G01 X2.1882 Y5.2409
G01 X2.1872 Y5.2373
G01 X2.1864 Y5.2337
G01 X2.1861 Y5.2302
G01 X2.1861 Y5.2284
G01 X2.1861 Y5.2266
G01 X2.1864 Y5.2231
G01 X2.1871 Y5.2197
G01 X2.1880 Y5.2165
G01 X2.1893 Y5.2134
G01 X2.1910 Y5.2105
G01 X2.1929 Y5.2077
G01 X2.1952 Y5.2051
G01 X2.1965 Y5.2038
G01 X2.1978 Y5.2026
G01 X2.2006 Y5.2004
G01 X2.2036 Y5.1985
G01 X2.2068 Y5.1969
G01 X2.2102 Y5.1957
G01 X2.2138 Y5.1948
G01 X2.2176 Y5.1941
G01 X2.2216 Y5.1938
G01 X2.2236 Y5.1938
G01 X2.2258 Y5.1938
G01 X2.2300 Y5.1941
G01 X2.2340 Y5.1948
G01 X2.2378 Y5.1958
G01 X2.2413 Y5.1971
G01 X2.2446 Y5.1988
G01 X2.2477 Y5.2008
G01 X2.2506 Y5.2031
G01 X2.2520 Y5.2044
G01 X2.2532 Y5.2058
G01 X2.2556 Y5.2087
G01 X2.2576 Y5.2119
G01 X2.2592 Y5.2153
G01 X2.2606 Y5.2190
G01 X2.2616 Y5.2229
G01 X2.2623 Y5.2271
G01 X2.2627 Y5.2315
G01 X2.2627 Y5.2339
G01 X2.2880 Y5.2313
G01 X2.2878 Y5.2295
G01 X2.2874 Y5.2261
G01 X2.2869 Y5.2228
G01 X2.2862 Y5.2196
G01 X2.2854 Y5.2165
G01 X2.2845 Y5.2135
G01 X2.2835 Y5.2106
G01 X2.2824 Y5.2078
G01 X2.2812 Y5.2051
G01 X2.2799 Y5.2025
G01 X2.2784 Y5.2000
G01 X2.2769 Y5.1977
G01 X2.2752 Y5.1954
G01 X2.2734 Y5.1932
G01 X2.2716 Y5.1912
G01 X2.2696 Y5.1892
G01 X2.2685 Y5.1883
G01 X2.2674 Y5.1874
G01 X2.2652 Y5.1856
G01 X2.2629 Y5.1840
G01 X2.2606 Y5.1825
G01 X2.2581 Y5.1811
G01 X2.2555 Y5.1799
G01 X2.2528 Y5.1787
G01 X2.2501 Y5.1777
G01 X2.2473 Y5.1768
G01 X2.2443 Y5.1759
G01 X2.2413 Y5.1752
G01 X2.2382 Y5.1747
G01 X2.2350 Y5.1742
G01 X2.2317 Y5.1739
G01 X2.2283 Y5.1736
G01 X2.2248 Y5.1735
G01 X2.2231 Y5.1735
G01 X2.2213 Y5.1735
G01 X2.2178 Y5.1736
G01 X2.2144 Y5.1739
G01 X2.2111 Y5.1743
G01 X2.2078 Y5.1748
G01 X2.2047 Y5.1754
G01 X2.2017 Y5.1761
G01 X2.1987 Y5.1770
G01 X2.1959 Y5.1780
G01 X2.1931 Y5.1791
G01 X2.1905 Y5.1804
G01 X2.1879 Y5.1817
G01 X2.1854 Y5.1832
G01 X2.1830 Y5.1849
G01 X2.1808 Y5.1866
G01 X2.1786 Y5.1885
G01 X2.1775 Y5.1895
G01 X2.1765 Y5.1905
G01 X2.1745 Y5.1925
G01 X2.1727 Y5.1946
G01 X2.1710 Y5.1968
G01 X2.1694 Y5.1990
G01 X2.1680 Y5.2013
G01 X2.1666 Y5.2037
G01 X2.1655 Y5.2061
G01 X2.1644 Y5.2086
G01 X2.1635 Y5.2111
G01 X2.1627 Y5.2137
G01 X2.1621 Y5.2163
G01 X2.1615 Y5.2190
G01 X2.1611 Y5.2218
G01 X2.1609 Y5.2246
G01 X2.1607 Y5.2275
G01 X2.1607 Y5.2290
G01 X2.1607 Y5.2305
G01 X2.1609 Y5.2335
G01 X2.1612 Y5.2365
G01 X2.1617 Y5.2394
G01 X2.1623 Y5.2424
G01 X2.1630 Y5.2453
G01 X2.1640 Y5.2482
G01 X2.1650 Y5.2511
G01 X2.1656 Y5.2526
G01 X2.1663 Y5.2540
G01 X2.1677 Y5.2570
G01 X2.1693 Y5.2599
G01 X2.1712 Y5.2630
G01 X2.1732 Y5.2660
G01 X2.1754 Y5.2691
G01 X2.1779 Y5.2722
G01 X2.1805 Y5.2754
G01 X2.1819 Y5.2770
G01 X2.1834 Y5.2786
G01 X2.1867 Y5.2821
G01 X2.1905 Y5.2859
G01 X2.1948 Y5.2900
G01 X2.2020 Y5.2967
G01 X2.2133 Y5.3067
G01 X2.2197 Y5.3122
G01 X2.2250 Y5.3166
G01 X2.2341 Y5.3244
G01 X2.2412 Y5.3307
G01 X2.2463 Y5.3355
G01 X2.2481 Y5.3373
G01 X2.2496 Y5.3390
G01 X2.2525 Y5.3423
G01 X2.2551 Y5.3456
G01 X2.2574 Y5.3490
G01 X2.2585 Y5.3506
G01 X2.1604 Y5.3506
OFF
G00 X2.5142 Y5.3432
G00 X2.4031 Y5.2959
G00 X2.5210 Y5.1642
G00 X2.3009 Y5.3842
G00 X2.4031 Y5.2959
ON
G01 X2.4031 Y5.2723
G01 X2.3185 Y5.2723
G01 X2.3185 Y5.3464
G01 X2.3209 Y5.3483
G01 X2.3259 Y5.3520
G01 X2.3308 Y5.3554
G01 X2.3358 Y5.3585
G01 X2.3408 Y5.3615
G01 X2.3459 Y5.3641
G01 X2.3510 Y5.3666
G01 X2.3561 Y5.3688
G01 X2.3587 Y5.3698
G01 X2.3613 Y5.3707
G01 X2.3665 Y5.3724
G01 X2.3718 Y5.3739
G01 X2.3771 Y5.3751
G01 X2.3824 Y5.3761
G01 X2.3877 Y5.3769
G01 X2.3931 Y5.3773
G01 X2.3986 Y5.3776
G01 X2.4013 Y5.3776
G01 X2.4049 Y5.3776
G01 X2.4121 Y5.3772
G01 X2.4192 Y5.3764
G01 X2.4260 Y5.3752
G01 X2.4327 Y5.3736
G01 X2.4392 Y5.3717
G01 X2.4456 Y5.3693
G01 X2.4518 Y5.3665
G01 X2.4548 Y5.3650
G01 X2.4563 Y5.3642
G01 X2.4592 Y5.3625
G01 X2.4620 Y5.3608
G01 X2.4648 Y5.3589
G01 X2.4674 Y5.3570
G01 X2.4700 Y5.3550
G01 X2.4724 Y5.3529
G01 X2.4748 Y5.3507
G01 X2.4770 Y5.3484
G01 X2.4792 Y5.3460
G01 X2.4813 Y5.3436
G01 X2.4833 Y5.3410
G01 X2.4852 Y5.3384
G01 X2.4870 Y5.3357
G01 X2.4887 Y5.3329
G01 X2.4904 Y5.3300
G01 X2.4911 Y5.3285
G01 X2.4926 Y5.3255
G01 X2.4953 Y5.3193
G01 X2.4976 Y5.3130
G01 X2.4995 Y5.3065
G01 X2.5011 Y5.2999
G01 X2.5022 Y5.2930
G01 X2.5030 Y5.2860
G01 X2.5034 Y5.2788
G01 X2.5034 Y5.2751
G01 X2.5034 Y5.2715
G01 X2.5030 Y5.2643
G01 X2.5022 Y5.2573
G01 X2.5011 Y5.2503
G01 X2.4996 Y5.2435
G01 X2.4976 Y5.2368
G01 X2.4954 Y5.2303
G01 X2.4927 Y5.2238
G01 X2.4912 Y5.2206
G01 X2.4904 Y5.2191
G01 X2.4888 Y5.2160
G01 X2.4871 Y5.2130
G01 X2.4854 Y5.2102
G01 X2.4835 Y5.2074
G01 X2.4816 Y5.2048
G01 X2.4795 Y5.2022
G01 X2.4774 Y5.1998
G01 X2.4752 Y5.1974
G01 X2.4729 Y5.1952
G01 X2.4706 Y5.1930
G01 X2.4681 Y5.1910
G01 X2.4656 Y5.1890
G01 X2.4630 Y5.1872
G01 X2.4603 Y5.1855
G01 X2.4575 Y5.1838
G01 X2.4561 Y5.1830
G01 X2.4547 Y5.1823
G01 X2.4517 Y5.1808
G01 X2.4488 Y5.1795
G01 X2.4457 Y5.1783
G01 X2.4427 Y5.1771
G01 X2.4395 Y5.1760
G01 X2.4347 Y5.1746
G01 X2.4281 Y5.1731
G01 X2.4213 Y5.1720
G01 X2.4143 Y5.1712
G01 X2.4070 Y5.1708
G01 X2.4033 Y5.1708
G01 X2.4006 Y5.1708
G01 X2.3953 Y5.1710
G01 X2.3902 Y5.1714
G01 X2.3851 Y5.1721
G01 X2.3802 Y5.1730
G01 X2.3755 Y5.1741
G01 X2.3708 Y5.1754
G01 X2.3663 Y5.1769
G01 X2.3641 Y5.1778
G01 X2.3620 Y5.1787
G01 X2.3578 Y5.1806
G01 X2.3539 Y5.1827
G01 X2.3502 Y5.1850
G01 X2.3468 Y5.1875
G01 X2.3436 Y5.1901
G01 X2.3406 Y5.1929
G01 X2.3379 Y5.1959
G01 X2.3366 Y5.1974
G01 X2.3354 Y5.1990
G01 X2.3331 Y5.2024
G01 X2.3309 Y5.2060
G01 X2.3288 Y5.2099
G01 X2.3270 Y5.2140
G01 X2.3252 Y5.2183
G01 X2.3236 Y5.2229
G01 X2.3222 Y5.2277
G01 X2.3215 Y5.2302
G01 X2.3454 Y5.2368
G01 X2.3459 Y5.2349
G01 X2.3471 Y5.2313
G01 X2.3484 Y5.2278
G01 X2.3497 Y5.2246
G01 X2.3511 Y5.2216
G01 X2.3526 Y5.2188
G01 X2.3541 Y5.2162
G01 X2.3557 Y5.2138
G01 X2.3566 Y5.2127
G01 X2.3574 Y5.2117
G01 X2.3593 Y5.2096
G01 X2.3613 Y5.2076
G01 X2.3635 Y5.2057
G01 X2.3659 Y5.2040
G01 X2.3684 Y5.2024
G01 X2.3712 Y5.2008
G01 X2.3741 Y5.1994
G01 X2.3756 Y5.1987
G01 X2.3772 Y5.1981
G01 X2.3804 Y5.1969
G01 X2.3837 Y5.1960
G01 X2.3870 Y5.1951
G01 X2.3905 Y5.1945
G01 X2.3940 Y5.1940
G01 X2.3976 Y5.1937
G01 X2.4013 Y5.1935
G01 X2.4032 Y5.1935
G01 X2.4054 Y5.1935
G01 X2.4098 Y5.1937
G01 X2.4140 Y5.1940
G01 X2.4181 Y5.1945
G01 X2.4220 Y5.1952
G01 X2.4258 Y5.1961
G01 X2.4294 Y5.1971
G01 X2.4329 Y5.1983
G01 X2.4345 Y5.1990
G01 X2.4362 Y5.1997
G01 X2.4393 Y5.2012
G01 X2.4423 Y5.2028
G01 X2.4451 Y5.2045
G01 X2.4478 Y5.2063
G01 X2.4503 Y5.2082
G01 X2.4527 Y5.2103
G01 X2.4548 Y5.2124
G01 X2.4559 Y5.2135
G01 X2.4569 Y5.2146
G01 X2.4588 Y5.2170
G01 X2.4606 Y5.2193
G01 X2.4623 Y5.2217
G01 X2.4639 Y5.2242
G01 X2.4653 Y5.2267
G01 X2.4667 Y5.2293
G01 X2.4679 Y5.2319
G01 X2.4685 Y5.2333
G01 X2.4694 Y5.2356
G01 X2.4711 Y5.2404
G01 X2.4725 Y5.2452
G01 X2.4737 Y5.2501
G01 X2.4747 Y5.2551
G01 X2.4754 Y5.2603
G01 X2.4759 Y5.2655
G01 X2.4761 Y5.2708
G01 X2.4761 Y5.2735
G01 X2.4761 Y5.2768
G01 X2.4758 Y5.2832
G01 X2.4752 Y5.2894
G01 X2.4744 Y5.2952
G01 X2.4732 Y5.3008
G01 X2.4718 Y5.3061
G01 X2.4701 Y5.3112
G01 X2.4680 Y5.3160
G01 X2.4669 Y5.3182
G01 X2.4657 Y5.3204
G01 X2.4632 Y5.3247
G01 X2.4604 Y5.3286
G01 X2.4573 Y5.3322
G01 X2.4539 Y5.3355
G01 X2.4503 Y5.3386
G01 X2.4464 Y5.3414
G01 X2.4423 Y5.3438
G01 X2.4401 Y5.3450
G01 X2.4379 Y5.3460
G01 X2.4335 Y5.3479
G01 X2.4289 Y5.3496
G01 X2.4243 Y5.3509
G01 X2.4197 Y5.3520
G01 X2.4149 Y5.3528
G01 X2.4101 Y5.3534
G01 X2.4052 Y5.3537
G01 X2.4028 Y5.3537
G01 X2.4006 Y5.3537
G01 X2.3964 Y5.3535
G01 X2.3921 Y5.3530
G01 X2.3879 Y5.3524
G01 X2.3837 Y5.3516
G01 X2.3795 Y5.3506
G01 X2.3754 Y5.3493
G01 X2.3713 Y5.3479
G01 X2.3692 Y5.3471
G01 X2.3672 Y5.3463
G01 X2.3634 Y5.3446
G01 X2.3598 Y5.3429
G01 X2.3564 Y5.3412
G01 X2.3533 Y5.3394
G01 X2.3505 Y5.3376
G01 X2.3479 Y5.3358
G01 X2.3455 Y5.3340
G01 X2.3444 Y5.3330
G01 X2.3444 Y5.2959
G01 X2.4031 Y5.2959
OFF
G00 X4.1828 Y4.3747
ON
G01 X4.1828 Y0.8606
G01 X4.2828 Y0.8606
G01 X4.2828 Y5.2253
G01 X4.1828 Y5.2253
G01 X4.1828 Y4.3747
OFF
G00 X4.5810 Y4.9740
G00 X4.5860 Y5.3877
G00 X4.6170 Y5.2237
G00 X4.7075 Y5.3851
G00 X4.4876 Y5.1651
G00 X4.6170 Y5.2237
ON
G01 X4.6170 Y5.2254
G01 X4.6167 Y5.2288
G01 X4.6161 Y5.2320
G01 X4.6152 Y5.2351
G01 X4.6141 Y5.2380
G01 X4.6127 Y5.2407
G01 X4.6110 Y5.2433
G01 X4.6090 Y5.2457
G01 X4.6079 Y5.2468
G01 X4.6068 Y5.2479
G01 X4.6043 Y5.2499
G01 X4.6017 Y5.2516
G01 X4.5990 Y5.2530
G01 X4.5960 Y5.2541
G01 X4.5929 Y5.2549
G01 X4.5896 Y5.2555
G01 X4.5861 Y5.2558
G01 X4.5843 Y5.2558
G01 X4.5826 Y5.2558
G01 X4.5792 Y5.2555
G01 X4.5760 Y5.2549
G01 X4.5729 Y5.2541
G01 X4.5700 Y5.2530
G01 X4.5673 Y5.2516
G01 X4.5647 Y5.2499
G01 X4.5623 Y5.2480
G01 X4.5612 Y5.2469
G01 X4.5601 Y5.2458
G01 X4.5581 Y5.2434
G01 X4.5564 Y5.2409
G01 X4.5550 Y5.2383
G01 X4.5539 Y5.2356
G01 X4.5531 Y5.2327
G01 X4.5525 Y5.2297
G01 X4.5522 Y5.2266
G01 X4.5522 Y5.2250
G01 X4.5522 Y5.2234
G01 X4.5525 Y5.2201
G01 X4.5531 Y5.2170
G01 X4.5540 Y5.2141
G01 X4.5551 Y5.2112
G01 X4.5566 Y5.2085
G01 X4.5583 Y5.2060
G01 X4.5603 Y5.2035
G01 X4.5614 Y5.2024
G01 X4.5626 Y5.2012
G01 X4.5651 Y5.1992
G01 X4.5677 Y5.1975
G01 X4.5704 Y5.1961
G01 X4.5733 Y5.1949
G01 X4.5763 Y5.1941
G01 X4.5795 Y5.1935
G01 X4.5829 Y5.1932
G01 X4.5846 Y5.1932
G01 X4.5863 Y5.1932
G01 X4.5897 Y5.1935
G01 X4.5929 Y5.1940
G01 X4.5959 Y5.1949
G01 X4.5988 Y5.1960
G01 X4.6016 Y5.1974
G01 X4.6042 Y5.1991
G01 X4.6066 Y5.2011
G01 X4.6078 Y5.2022
G01 X4.6089 Y5.2033
G01 X4.6109 Y5.2056
G01 X4.6126 Y5.2081
G01 X4.6141 Y5.2107
G01 X4.6152 Y5.2134
G01 X4.6161 Y5.2162
G01 X4.6167 Y5.2191
G01 X4.6169 Y5.2221
G01 X4.6169 Y5.2237
G01 X4.6140 Y5.2645
G01 X4.6176 Y5.2630
G01 X4.6209 Y5.2613
G01 X4.6240 Y5.2595
G01 X4.6269 Y5.2575
G01 X4.6295 Y5.2553
G01 X4.6318 Y5.2530
G01 X4.6339 Y5.2506
G01 X4.6349 Y5.2493
G01 X4.6358 Y5.2480
G01 X4.6374 Y5.2453
G01 X4.6388 Y5.2425
G01 X4.6399 Y5.2395
G01 X4.6409 Y5.2364
G01 X4.6416 Y5.2332
G01 X4.6420 Y5.2298
G01 X4.6423 Y5.2263
G01 X4.6423 Y5.2245
G01 X4.6423 Y5.2232
G01 X4.6421 Y5.2205
G01 X4.6419 Y5.2179
G01 X4.6415 Y5.2153
G01 X4.6410 Y5.2128
G01 X4.6404 Y5.2104
G01 X4.6397 Y5.2080
G01 X4.6388 Y5.2056
G01 X4.6379 Y5.2033
G01 X4.6368 Y5.2011
G01 X4.6355 Y5.1989
G01 X4.6342 Y5.1968
G01 X4.6327 Y5.1947
G01 X4.6311 Y5.1927
G01 X4.6294 Y5.1907
G01 X4.6276 Y5.1888
G01 X4.6256 Y5.1870
G01 X4.6236 Y5.1852
G01 X4.6215 Y5.1836
G01 X4.6193 Y5.1821
G01 X4.6170 Y5.1807
G01 X4.6146 Y5.1794
G01 X4.6122 Y5.1783
G01 X4.6096 Y5.1772
G01 X4.6070 Y5.1763
G01 X4.6044 Y5.1755
G01 X4.6016 Y5.1748
G01 X4.5987 Y5.1742
G01 X4.5958 Y5.1738
G01 X4.5928 Y5.1734
G01 X4.5897 Y5.1732
G01 X4.5865 Y5.1731
G01 X4.5849 Y5.1731
G01 X4.5833 Y5.1731
G01 X4.5801 Y5.1732
G01 X4.5770 Y5.1734
G01 X4.5740 Y5.1738
G01 X4.5710 Y5.1742
G01 X4.5681 Y5.1748
G01 X4.5654 Y5.1755
G01 X4.5626 Y5.1764
G01 X4.5600 Y5.1773
G01 X4.5575 Y5.1784
G01 X4.5550 Y5.1796
G01 X4.5526 Y5.1809
G01 X4.5503 Y5.1823
G01 X4.5481 Y5.1839
G01 X4.5459 Y5.1855
G01 X4.5438 Y5.1873
G01 X4.5428 Y5.1882
G01 X4.5400 Y5.1911
G01 X4.5382 Y5.1931
G01 X4.5366 Y5.1952
G01 X4.5351 Y5.1973
G01 X4.5337 Y5.1995
G01 X4.5325 Y5.2017
G01 X4.5314 Y5.2039
G01 X4.5304 Y5.2062
G01 X4.5295 Y5.2086
G01 X4.5288 Y5.2110
G01 X4.5281 Y5.2135
G01 X4.5276 Y5.2160
G01 X4.5273 Y5.2186
G01 X4.5270 Y5.2212
G01 X4.5269 Y5.2239
G01 X4.5269 Y5.2252
G01 X4.5269 Y5.2269
G01 X4.5271 Y5.2303
G01 X4.5276 Y5.2335
G01 X4.5283 Y5.2367
G01 X4.5292 Y5.2397
G01 X4.5303 Y5.2426
G01 X4.5317 Y5.2454
G01 X4.5333 Y5.2481
G01 X4.5342 Y5.2494
G01 X4.5351 Y5.2507
G01 X4.5372 Y5.2531
G01 X4.5395 Y5.2554
G01 X4.5420 Y5.2575
G01 X4.5448 Y5.2595
G01 X4.5478 Y5.2613
G01 X4.5511 Y5.2630
G01 X4.5546 Y5.2645
G01 X4.5564 Y5.2653
G01 X4.5541 Y5.2660
G01 X4.5498 Y5.2678
G01 X4.5457 Y5.2697
G01 X4.5419 Y5.2719
G01 X4.5384 Y5.2743
G01 X4.5352 Y5.2770
G01 X4.5322 Y5.2799
G01 X4.5295 Y5.2830
G01 X4.5283 Y5.2846
G01 X4.5271 Y5.2863
G01 X4.5250 Y5.2898
G01 X4.5232 Y5.2935
G01 X4.5217 Y5.2973
G01 X4.5205 Y5.3013
G01 X4.5196 Y5.3055
G01 X4.5190 Y5.3098
G01 X4.5187 Y5.3143
G01 X4.5187 Y5.3166
G01 X4.5187 Y5.3182
G01 X4.5188 Y5.3213
G01 X4.5191 Y5.3244
G01 X4.5195 Y5.3274
G01 X4.5201 Y5.3304
G01 X4.5208 Y5.3332
G01 X4.5216 Y5.3361
G01 X4.5226 Y5.3388
G01 X4.5238 Y5.3415
G01 X4.5250 Y5.3441
G01 X4.5265 Y5.3467
G01 X4.5280 Y5.3492
G01 X4.5297 Y5.3517
G01 X4.5316 Y5.3540
G01 X4.5335 Y5.3563
G01 X4.5357 Y5.3586
G01 X4.5368 Y5.3597
G01 X4.5379 Y5.3608
G01 X4.5403 Y5.3628
G01 X4.5427 Y5.3647
G01 X4.5453 Y5.3665
G01 X4.5479 Y5.3681
G01 X4.5506 Y5.3696
G01 X4.5534 Y5.3710
G01 X4.5563 Y5.3722
G01 X4.5593 Y5.3733
G01 X4.5624 Y5.3743
G01 X4.5655 Y5.3751
G01 X4.5688 Y5.3758
G01 X4.5721 Y5.3763
G01 X4.5755 Y5.3767
G01 X4.5791 Y5.3770
G01 X4.5827 Y5.3771
G01 X4.5845 Y5.3771
G01 X4.5863 Y5.3771
G01 X4.5900 Y5.3770
G01 X4.5935 Y5.3767
G01 X4.5969 Y5.3763
G01 X4.6002 Y5.3758
G01 X4.6035 Y5.3751
G01 X4.6067 Y5.3743
G01 X4.6097 Y5.3733
G01 X4.6127 Y5.3722
G01 X4.6156 Y5.3710
G01 X4.6184 Y5.3696
G01 X4.6211 Y5.3681
G01 X4.6237 Y5.3665
G01 X4.6263 Y5.3647
G01 X4.6287 Y5.3628
G01 X4.6311 Y5.3607
G01 X4.6322 Y5.3596
G01 X4.6333 Y5.3585
G01 X4.6355 Y5.3563
G01 X4.6374 Y5.3539
G01 X4.6393 Y5.3515
G01 X4.6410 Y5.3491
G01 X4.6425 Y5.3465
G01 X4.6440 Y5.3439
G01 X4.6452 Y5.3413
G01 X4.6464 Y5.3385
G01 X4.6474 Y5.3357
G01 X4.6482 Y5.3329
G01 X4.6489 Y5.3299
G01 X4.6495 Y5.3269
G01 X4.6499 Y5.3239
G01 X4.6502 Y5.3207
G01 X4.6503 Y5.3175
G01 X4.6503 Y5.3159
G01 X4.6503 Y5.3135
G01 X4.6500 Y5.3088
G01 X4.6494 Y5.3043
G01 X4.6485 Y5.3000
G01 X4.6472 Y5.2959
G01 X4.6457 Y5.2921
G01 X4.6438 Y5.2884
G01 X4.6416 Y5.2849
G01 X4.6404 Y5.2832
G01 X4.6391 Y5.2816
G01 X4.6364 Y5.2786
G01 X4.6334 Y5.2758
G01 X4.6301 Y5.2733
G01 X4.6266 Y5.2710
G01 X4.6228 Y5.2691
G01 X4.6187 Y5.2673
G01 X4.6144 Y5.2659
G01 X4.6121 Y5.2653
G01 X4.6251 Y5.3174
G01 X4.6249 Y5.3200
G01 X4.6246 Y5.3226
G01 X4.6241 Y5.3251
G01 X4.6235 Y5.3277
G01 X4.6227 Y5.3302
G01 X4.6218 Y5.3327
G01 X4.6207 Y5.3352
G01 X4.6201 Y5.3364
G01 X4.6195 Y5.3376
G01 X4.6181 Y5.3400
G01 X4.6166 Y5.3421
G01 X4.6149 Y5.3442
G01 X4.6130 Y5.3461
G01 X4.6111 Y5.3478
G01 X4.6089 Y5.3495
G01 X4.6066 Y5.3510
G01 X4.6054 Y5.3516
G01 X4.6042 Y5.3523
G01 X4.6017 Y5.3535
G01 X4.5991 Y5.3545
G01 X4.5965 Y5.3553
G01 X4.5939 Y5.3560
G01 X4.5912 Y5.3565
G01 X4.5885 Y5.3568
G01 X4.5857 Y5.3570
G01 X4.5843 Y5.3570
G01 X4.5821 Y5.3570
G01 X4.5779 Y5.3566
G01 X4.5739 Y5.3559
G01 X4.5701 Y5.3549
G01 X4.5665 Y5.3535
G01 X4.5630 Y5.3517
G01 X4.5598 Y5.3496
G01 X4.5568 Y5.3471
G01 X4.5553 Y5.3457
G01 X4.5540 Y5.3443
G01 X4.5515 Y5.3412
G01 X4.5493 Y5.3380
G01 X4.5476 Y5.3346
G01 X4.5461 Y5.3310
G01 X4.5451 Y5.3272
G01 X4.5444 Y5.3232
G01 X4.5440 Y5.3191
G01 X4.5440 Y5.3169
G01 X4.5440 Y5.3147
G01 X4.5444 Y5.3105
G01 X4.5451 Y5.3064
G01 X4.5462 Y5.3025
G01 X4.5477 Y5.2989
G01 X4.5495 Y5.2954
G01 X4.5517 Y5.2921
G01 X4.5543 Y5.2890
G01 X4.5557 Y5.2875
G01 X4.5572 Y5.2861
G01 X4.5603 Y5.2836
G01 X4.5636 Y5.2814
G01 X4.5671 Y5.2796
G01 X4.5708 Y5.2782
G01 X4.5746 Y5.2771
G01 X4.5787 Y5.2763
G01 X4.5829 Y5.2760
G01 X4.5851 Y5.2760
G01 X4.5873 Y5.2760
G01 X4.5914 Y5.2763
G01 X4.5954 Y5.2771
G01 X4.5991 Y5.2781
G01 X4.6027 Y5.2796
G01 X4.6061 Y5.2814
G01 X4.6093 Y5.2835
G01 X4.6123 Y5.2860
G01 X4.6137 Y5.2874
G01 X4.6151 Y5.2889
G01 X4.6176 Y5.2919
G01 X4.6197 Y5.2951
G01 X4.6215 Y5.2985
G01 X4.6229 Y5.3021
G01 X4.6239 Y5.3059
G01 X4.6247 Y5.3098
G01 X4.6250 Y5.3140
G01 X4.6250 Y5.3161
G01 X4.6764 Y5.3738
OFF
G00 X4.8525 Y5.1635
G00 X4.6325 Y5.3835
G00 X4.6764 Y5.3738
ON
G01 X4.8086 Y5.3738
G01 X4.8086 Y5.3716
G01 X4.8084 Y5.3683
G01 X4.8082 Y5.3662
G01 X4.8078 Y5.3640
G01 X4.8074 Y5.3619
G01 X4.8068 Y5.3598
G01 X4.8061 Y5.3578
G01 X4.8057 Y5.3567
G01 X4.8051 Y5.3550
G01 X4.8036 Y5.3517
G01 X4.8020 Y5.3483
G01 X4.8001 Y5.3450
G01 X4.7981 Y5.3417
G01 X4.7959 Y5.3383
G01 X4.7935 Y5.3350
G01 X4.7909 Y5.3318
G01 X4.7895 Y5.3301
G01 X4.7881 Y5.3285
G01 X4.7850 Y5.3251
G01 X4.7816 Y5.3215
G01 X4.7779 Y5.3179
G01 X4.7739 Y5.3141
G01 X4.7696 Y5.3102
G01 X4.7625 Y5.3041
G01 X4.7574 Y5.2999
G01 X4.7534 Y5.2966
G01 X4.7460 Y5.2902
G01 X4.7391 Y5.2842
G01 X4.7330 Y5.2786
G01 X4.7275 Y5.2733
G01 X4.7227 Y5.2683
G01 X4.7185 Y5.2637
G01 X4.7150 Y5.2595
G01 X4.7135 Y5.2575
G01 X4.7121 Y5.2556
G01 X4.7096 Y5.2517
G01 X4.7074 Y5.2479
G01 X4.7056 Y5.2442
G01 X4.7042 Y5.2405
G01 X4.7032 Y5.2368
G01 X4.7024 Y5.2332
G01 X4.7021 Y5.2297
G01 X4.7021 Y5.2279
G01 X4.7021 Y5.2261
G01 X4.7024 Y5.2226
G01 X4.7031 Y5.2193
G01 X4.7040 Y5.2161
G01 X4.7053 Y5.2130
G01 X4.7070 Y5.2100
G01 X4.7089 Y5.2073
G01 X4.7112 Y5.2046
G01 X4.7125 Y5.2033
G01 X4.7138 Y5.2021
G01 X4.7166 Y5.1999
G01 X4.7196 Y5.1981
G01 X4.7228 Y5.1965
G01 X4.7262 Y5.1952
G01 X4.7298 Y5.1943
G01 X4.7336 Y5.1937
G01 X4.7376 Y5.1934
G01 X4.7396 Y5.1934
G01 X4.7418 Y5.1934
G01 X4.7460 Y5.1937
G01 X4.7500 Y5.1944
G01 X4.7538 Y5.1954
G01 X4.7573 Y5.1967
G01 X4.7606 Y5.1983
G01 X4.7637 Y5.2003
G01 X4.7666 Y5.2027
G01 X4.7680 Y5.2040
G01 X4.7692 Y5.2053
G01 X4.7716 Y5.2082
G01 X4.7736 Y5.2114
G01 X4.7752 Y5.2148
G01 X4.7766 Y5.2185
G01 X4.7776 Y5.2224
G01 X4.7783 Y5.2266
G01 X4.7787 Y5.2311
G01 X4.7787 Y5.2334
G01 X4.8040 Y5.2308
G01 X4.8038 Y5.2291
G01 X4.8034 Y5.2256
G01 X4.8029 Y5.2223
G01 X4.8022 Y5.2191
G01 X4.8014 Y5.2160
G01 X4.8005 Y5.2130
G01 X4.7995 Y5.2101
G01 X4.7984 Y5.2073
G01 X4.7972 Y5.2046
G01 X4.7959 Y5.2021
G01 X4.7944 Y5.1996
G01 X4.7929 Y5.1972
G01 X4.7912 Y5.1949
G01 X4.7894 Y5.1928
G01 X4.7876 Y5.1907
G01 X4.7856 Y5.1888
G01 X4.7845 Y5.1878
G01 X4.7834 Y5.1869
G01 X4.7812 Y5.1852
G01 X4.7789 Y5.1836
G01 X4.7766 Y5.1821
G01 X4.7741 Y5.1807
G01 X4.7715 Y5.1794
G01 X4.7688 Y5.1783
G01 X4.7661 Y5.1772
G01 X4.7633 Y5.1763
G01 X4.7603 Y5.1755
G01 X4.7573 Y5.1748
G01 X4.7542 Y5.1742
G01 X4.7510 Y5.1738
G01 X4.7477 Y5.1734
G01 X4.7443 Y5.1732
G01 X4.7408 Y5.1731
G01 X4.7391 Y5.1731
G01 X4.7373 Y5.1731
G01 X4.7338 Y5.1732
G01 X4.7304 Y5.1734
G01 X4.7271 Y5.1738
G01 X4.7238 Y5.1743
G01 X4.7207 Y5.1749
G01 X4.7177 Y5.1757
G01 X4.7147 Y5.1765
G01 X4.7119 Y5.1775
G01 X4.7091 Y5.1787
G01 X4.7065 Y5.1799
G01 X4.7039 Y5.1813
G01 X4.7014 Y5.1828
G01 X4.6990 Y5.1844
G01 X4.6968 Y5.1861
G01 X4.6946 Y5.1880
G01 X4.6935 Y5.1890
G01 X4.6925 Y5.1900
G01 X4.6905 Y5.1921
G01 X4.6887 Y5.1942
G01 X4.6870 Y5.1963
G01 X4.6854 Y5.1986
G01 X4.6840 Y5.2009
G01 X4.6826 Y5.2032
G01 X4.6815 Y5.2056
G01 X4.6804 Y5.2081
G01 X4.6795 Y5.2106
G01 X4.6787 Y5.2132
G01 X4.6781 Y5.2159
G01 X4.6775 Y5.2186
G01 X4.6771 Y5.2213
G01 X4.6769 Y5.2242
G01 X4.6767 Y5.2271
G01 X4.6767 Y5.2285
G01 X4.6767 Y5.2300
G01 X4.6769 Y5.2330
G01 X4.6772 Y5.2360
G01 X4.6777 Y5.2390
G01 X4.6783 Y5.2419
G01 X4.6790 Y5.2448
G01 X4.6800 Y5.2478
G01 X4.6810 Y5.2507
G01 X4.6816 Y5.2521
G01 X4.6823 Y5.2536
G01 X4.6837 Y5.2565
G01 X4.6853 Y5.2595
G01 X4.6872 Y5.2625
G01 X4.6892 Y5.2655
G01 X4.6914 Y5.2686
G01 X4.6939 Y5.2718
G01 X4.6965 Y5.2749
G01 X4.6979 Y5.2765
G01 X4.6994 Y5.2782
G01 X4.7027 Y5.2817
G01 X4.7065 Y5.2855
G01 X4.7108 Y5.2896
G01 X4.7180 Y5.2963
G01 X4.7293 Y5.3063
G01 X4.7357 Y5.3117
G01 X4.7410 Y5.3162
G01 X4.7501 Y5.3239
G01 X4.7572 Y5.3302
G01 X4.7623 Y5.3350
G01 X4.7641 Y5.3369
G01 X4.7656 Y5.3385
G01 X4.7685 Y5.3418
G01 X4.7711 Y5.3452
G01 X4.7734 Y5.3485
G01 X4.7745 Y5.3502
G01 X4.6764 Y5.3502
OFF
G00 X5.0399 Y5.3518
G00 X4.9191 Y5.2955
G00 X5.0369 Y5.1637
G00 X4.8170 Y5.3837
G00 X4.9191 Y5.2955
ON
G01 X4.9191 Y5.2718
G01 X4.8345 Y5.2718
G01 X4.8345 Y5.3460
G01 X4.8369 Y5.3479
G01 X4.8419 Y5.3515
G01 X4.8468 Y5.3549
G01 X4.8518 Y5.3581
G01 X4.8568 Y5.3610
G01 X4.8619 Y5.3637
G01 X4.8670 Y5.3661
G01 X4.8721 Y5.3683
G01 X4.8747 Y5.3693
G01 X4.8773 Y5.3703
G01 X4.8825 Y5.3720
G01 X4.8878 Y5.3735
G01 X4.8931 Y5.3747
G01 X4.8984 Y5.3757
G01 X4.9037 Y5.3764
G01 X4.9091 Y5.3769
G01 X4.9146 Y5.3771
G01 X4.9173 Y5.3771
G01 X4.9209 Y5.3771
G01 X4.9281 Y5.3767
G01 X4.9352 Y5.3759
G01 X4.9420 Y5.3747
G01 X4.9487 Y5.3732
G01 X4.9552 Y5.3712
G01 X4.9616 Y5.3688
G01 X4.9678 Y5.3661
G01 X4.9708 Y5.3645
G01 X4.9723 Y5.3637
G01 X4.9752 Y5.3621
G01 X4.9780 Y5.3603
G01 X4.9808 Y5.3585
G01 X4.9834 Y5.3565
G01 X4.9860 Y5.3545
G01 X4.9884 Y5.3524
G01 X4.9908 Y5.3502
G01 X4.9930 Y5.3480
G01 X4.9952 Y5.3456
G01 X4.9973 Y5.3431
G01 X4.9993 Y5.3406
G01 X5.0012 Y5.3379
G01 X5.0030 Y5.3352
G01 X5.0047 Y5.3324
G01 X5.0064 Y5.3295
G01 X5.0071 Y5.3280
G01 X5.0086 Y5.3250
G01 X5.0113 Y5.3189
G01 X5.0136 Y5.3126
G01 X5.0155 Y5.3061
G01 X5.0171 Y5.2994
G01 X5.0182 Y5.2926
G01 X5.0190 Y5.2855
G01 X5.0194 Y5.2783
G01 X5.0194 Y5.2747
G01 X5.0194 Y5.2710
G01 X5.0190 Y5.2639
G01 X5.0182 Y5.2568
G01 X5.0171 Y5.2499
G01 X5.0156 Y5.2431
G01 X5.0136 Y5.2364
G01 X5.0114 Y5.2298
G01 X5.0087 Y5.2234
G01 X5.0072 Y5.2202
G01 X5.0064 Y5.2186
G01 X5.0048 Y5.2155
G01 X5.0031 Y5.2126
G01 X5.0014 Y5.2097
G01 X4.9995 Y5.2070
G01 X4.9976 Y5.2043
G01 X4.9955 Y5.2018
G01 X4.9934 Y5.1993
G01 X4.9912 Y5.1970
G01 X4.9889 Y5.1947
G01 X4.9866 Y5.1926
G01 X4.9841 Y5.1905
G01 X4.9816 Y5.1886
G01 X4.9790 Y5.1867
G01 X4.9763 Y5.1850
G01 X4.9735 Y5.1834
G01 X4.9721 Y5.1826
G01 X4.9707 Y5.1818
G01 X4.9677 Y5.1804
G01 X4.9648 Y5.1790
G01 X4.9617 Y5.1778
G01 X4.9587 Y5.1766
G01 X4.9555 Y5.1756
G01 X4.9507 Y5.1742
G01 X4.9441 Y5.1726
G01 X4.9373 Y5.1715
G01 X4.9303 Y5.1707
G01 X4.9230 Y5.1703
G01 X4.9193 Y5.1703
G01 X4.9166 Y5.1703
G01 X4.9113 Y5.1705
G01 X4.9062 Y5.1710
G01 X4.9011 Y5.1716
G01 X4.8962 Y5.1725
G01 X4.8915 Y5.1736
G01 X4.8868 Y5.1749
G01 X4.8823 Y5.1765
G01 X4.8801 Y5.1773
G01 X4.8780 Y5.1782
G01 X4.8738 Y5.1802
G01 X4.8699 Y5.1823
G01 X4.8662 Y5.1846
G01 X4.8628 Y5.1870
G01 X4.8596 Y5.1896
G01 X4.8566 Y5.1924
G01 X4.8539 Y5.1954
G01 X4.8526 Y5.1970
G01 X4.8514 Y5.1986
G01 X4.8491 Y5.2019
G01 X4.8469 Y5.2056
G01 X4.8448 Y5.2094
G01 X4.8430 Y5.2135
G01 X4.8412 Y5.2179
G01 X4.8396 Y5.2224
G01 X4.8382 Y5.2273
G01 X4.8375 Y5.2298
G01 X4.8614 Y5.2363
G01 X4.8619 Y5.2344
G01 X4.8631 Y5.2308
G01 X4.8644 Y5.2274
G01 X4.8657 Y5.2242
G01 X4.8671 Y5.2212
G01 X4.8686 Y5.2184
G01 X4.8701 Y5.2158
G01 X4.8717 Y5.2134
G01 X4.8726 Y5.2123
G01 X4.8734 Y5.2112
G01 X4.8753 Y5.2091
G01 X4.8773 Y5.2071
G01 X4.8795 Y5.2053
G01 X4.8819 Y5.2035
G01 X4.8844 Y5.2019
G01 X4.8872 Y5.2004
G01 X4.8901 Y5.1989
G01 X4.8916 Y5.1983
G01 X4.8932 Y5.1976
G01 X4.8964 Y5.1965
G01 X4.8997 Y5.1955
G01 X4.9030 Y5.1947
G01 X4.9065 Y5.1940
G01 X4.9100 Y5.1935
G01 X4.9136 Y5.1932
G01 X4.9173 Y5.1930
G01 X4.9192 Y5.1930
G01 X4.9214 Y5.1930
G01 X4.9258 Y5.1932
G01 X4.9300 Y5.1936
G01 X4.9341 Y5.1941
G01 X4.9380 Y5.1948
G01 X4.9418 Y5.1956
G01 X4.9454 Y5.1967
G01 X4.9489 Y5.1979
G01 X4.9505 Y5.1985
G01 X4.9522 Y5.1992
G01 X4.9553 Y5.2007
G01 X4.9583 Y5.2023
G01 X4.9611 Y5.2040
G01 X4.9638 Y5.2058
G01 X4.9663 Y5.2078
G01 X4.9687 Y5.2098
G01 X4.9708 Y5.2119
G01 X4.9719 Y5.2131
G01 X4.9729 Y5.2142
G01 X4.9748 Y5.2165
G01 X4.9766 Y5.2189
G01 X4.9783 Y5.2213
G01 X4.9799 Y5.2237
G01 X4.9813 Y5.2263
G01 X4.9827 Y5.2289
G01 X4.9839 Y5.2315
G01 X4.9845 Y5.2328
G01 X4.9854 Y5.2352
G01 X4.9871 Y5.2399
G01 X4.9885 Y5.2447
G01 X4.9897 Y5.2497
G01 X4.9907 Y5.2547
G01 X4.9914 Y5.2598
G01 X4.9919 Y5.2650
G01 X4.9921 Y5.2704
G01 X4.9921 Y5.2731
G01 X4.9921 Y5.2764
G01 X4.9918 Y5.2828
G01 X4.9912 Y5.2889
G01 X4.9904 Y5.2948
G01 X4.9892 Y5.3004
G01 X4.9878 Y5.3057
G01 X4.9861 Y5.3107
G01 X4.9840 Y5.3155
G01 X4.9829 Y5.3178
G01 X4.9817 Y5.3200
G01 X4.9792 Y5.3242
G01 X4.9764 Y5.3281
G01 X4.9733 Y5.3317
G01 X4.9699 Y5.3351
G01 X4.9663 Y5.3381
G01 X4.9624 Y5.3409
G01 X4.9583 Y5.3434
G01 X4.9561 Y5.3445
G01 X4.9539 Y5.3456
G01 X4.9495 Y5.3475
G01 X4.9449 Y5.3491
G01 X4.9403 Y5.3505
G01 X4.9357 Y5.3516
G01 X4.9309 Y5.3524
G01 X4.9261 Y5.3529
G01 X4.9212 Y5.3532
G01 X4.9188 Y5.3532
G01 X4.9166 Y5.3532
G01 X4.9124 Y5.3530
G01 X4.9081 Y5.3526
G01 X4.9039 Y5.3520
G01 X4.8997 Y5.3511
G01 X4.8955 Y5.3501
G01 X4.8914 Y5.3489
G01 X4.8873 Y5.3474
G01 X4.8852 Y5.3466
G01 X4.8832 Y5.3458
G01 X4.8794 Y5.3441
G01 X4.8758 Y5.3424
G01 X4.8724 Y5.3407
G01 X4.8693 Y5.3389
G01 X4.8665 Y5.3372
G01 X4.8639 Y5.3353
G01 X4.8615 Y5.3335
G01 X4.8604 Y5.3326
G01 X4.8604 Y5.2955
G01 X4.9191 Y5.2955
OFF
G00 X6.9906 Y3.1761
G00 X6.9926 Y4.1359
ON
G01 X6.9926 Y0.8606
G01 X7.0926 Y0.8606
G01 X7.0926 Y4.1626
OFF
G00 X6.9326 Y4.2592
G00 X7.1526 Y4.0393
G00 X7.0926 Y4.1626
ON
G01 X6.9926 Y4.1626
G01 X6.9926 Y4.1359
OFF
G00 X8.4957 Y4.1415
G00 X7.6910 Y5.3821
G00 X7.7099 Y5.2393
G00 X7.6515 Y5.3851
G00 X7.8716 Y5.1651
G00 X7.7099 Y5.2393
ON
G01 X7.7099 Y5.2367
G01 X7.7103 Y5.2317
G01 X7.7110 Y5.2269
G01 X7.7121 Y5.2225
G01 X7.7135 Y5.2183
G01 X7.7148 Y5.2153
G01 X7.7157 Y5.2134
G01 X7.7168 Y5.2116
G01 X7.7179 Y5.2098
G01 X7.7191 Y5.2081
G01 X7.7204 Y5.2065
G01 X7.7225 Y5.2042
G01 X7.7255 Y5.2015
G01 X7.7286 Y5.1992
G01 X7.7318 Y5.1972
G01 X7.7352 Y5.1957
G01 X7.7387 Y5.1945
G01 X7.7424 Y5.1938
G01 X7.7462 Y5.1934
G01 X7.7482 Y5.1934
G01 X7.7502 Y5.1934
G01 X7.7532 Y5.1936
G01 X7.7552 Y5.1940
G01 X7.7571 Y5.1944
G01 X7.7590 Y5.1949
G01 X7.7608 Y5.1955
G01 X7.7626 Y5.1963
G01 X7.7644 Y5.1971
G01 X7.7661 Y5.1980
G01 X7.7687 Y5.1996
G01 X7.7720 Y5.2021
G01 X7.7751 Y5.2051
G01 X7.7767 Y5.2067
G01 X7.7788 Y5.2093
G01 X7.7802 Y5.2111
G01 X7.7814 Y5.2129
G01 X7.7825 Y5.2148
G01 X7.7835 Y5.2168
G01 X7.7845 Y5.2189
G01 X7.7853 Y5.2210
G01 X7.7861 Y5.2231
G01 X7.7868 Y5.2254
G01 X7.7876 Y5.2288
G01 X7.7883 Y5.2336
G01 X7.7887 Y5.2387
G01 X7.7887 Y5.2413
G01 X7.7887 Y5.2437
G01 X7.7883 Y5.2483
G01 X7.7876 Y5.2526
G01 X7.7866 Y5.2567
G01 X7.7851 Y5.2606
G01 X7.7833 Y5.2642
G01 X7.7812 Y5.2677
G01 X7.7787 Y5.2709
G01 X7.7773 Y5.2724
G01 X7.7758 Y5.2738
G01 X7.7728 Y5.2764
G01 X7.7696 Y5.2787
G01 X7.7662 Y5.2805
G01 X7.7627 Y5.2820
G01 X7.7589 Y5.2832
G01 X7.7550 Y5.2839
G01 X7.7510 Y5.2843
G01 X7.7489 Y5.2843
G01 X7.7468 Y5.2843
G01 X7.7427 Y5.2839
G01 X7.7388 Y5.2832
G01 X7.7351 Y5.2820
G01 X7.7316 Y5.2805
G01 X7.7283 Y5.2787
G01 X7.7252 Y5.2764
G01 X7.7223 Y5.2738
G01 X7.7209 Y5.2724
G01 X7.7189 Y5.2701
G01 X7.7177 Y5.2684
G01 X7.7166 Y5.2667
G01 X7.7156 Y5.2649
G01 X7.7147 Y5.2631
G01 X7.7134 Y5.2602
G01 X7.7120 Y5.2560
G01 X7.7110 Y5.2516
G01 X7.7103 Y5.2469
G01 X7.7100 Y5.2419
G01 X7.7100 Y5.2393
G01 X7.7868 Y5.3253
G01 X7.7864 Y5.3274
G01 X7.7855 Y5.3313
G01 X7.7844 Y5.3349
G01 X7.7831 Y5.3382
G01 X7.7817 Y5.3412
G01 X7.7801 Y5.3439
G01 X7.7783 Y5.3464
G01 X7.7764 Y5.3485
G01 X7.7753 Y5.3495
G01 X7.7742 Y5.3504
G01 X7.7720 Y5.3521
G01 X7.7696 Y5.3535
G01 X7.7670 Y5.3547
G01 X7.7643 Y5.3556
G01 X7.7615 Y5.3563
G01 X7.7584 Y5.3568
G01 X7.7553 Y5.3570
G01 X7.7537 Y5.3570
G01 X7.7523 Y5.3570
G01 X7.7495 Y5.3569
G01 X7.7469 Y5.3565
G01 X7.7443 Y5.3560
G01 X7.7418 Y5.3554
G01 X7.7394 Y5.3546
G01 X7.7371 Y5.3536
G01 X7.7349 Y5.3525
G01 X7.7338 Y5.3518
G01 X7.7327 Y5.3512
G01 X7.7307 Y5.3498
G01 X7.7288 Y5.3483
G01 X7.7269 Y5.3466
G01 X7.7252 Y5.3449
G01 X7.7235 Y5.3431
G01 X7.7220 Y5.3411
G01 X7.7205 Y5.3391
G01 X7.7198 Y5.3380
G01 X7.7192 Y5.3369
G01 X7.7179 Y5.3345
G01 X7.7166 Y5.3320
G01 X7.7154 Y5.3292
G01 X7.7143 Y5.3263
G01 X7.7132 Y5.3232
G01 X7.7117 Y5.3182
G01 X7.7107 Y5.3146
G01 X7.7103 Y5.3127
G01 X7.7095 Y5.3090
G01 X7.7088 Y5.3053
G01 X7.7082 Y5.3016
G01 X7.7078 Y5.2978
G01 X7.7074 Y5.2940
G01 X7.7072 Y5.2903
G01 X7.7071 Y5.2865
G01 X7.7071 Y5.2846
G01 X7.7071 Y5.2825
G01 X7.7072 Y5.2796
G01 X7.7081 Y5.2811
G01 X7.7101 Y5.2839
G01 X7.7123 Y5.2865
G01 X7.7147 Y5.2891
G01 X7.7172 Y5.2914
G01 X7.7199 Y5.2937
G01 X7.7227 Y5.2958
G01 X7.7257 Y5.2977
G01 X7.7273 Y5.2987
G01 X7.7289 Y5.2996
G01 X7.7322 Y5.3012
G01 X7.7355 Y5.3025
G01 X7.7389 Y5.3037
G01 X7.7423 Y5.3046
G01 X7.7458 Y5.3053
G01 X7.7494 Y5.3057
G01 X7.7531 Y5.3059
G01 X7.7549 Y5.3059
G01 X7.7564 Y5.3059
G01 X7.7595 Y5.3058
G01 X7.7625 Y5.3055
G01 X7.7654 Y5.3051
G01 X7.7682 Y5.3045
G01 X7.7711 Y5.3038
G01 X7.7738 Y5.3030
G01 X7.7765 Y5.3020
G01 X7.7791 Y5.3009
G01 X7.7817 Y5.2996
G01 X7.7842 Y5.2982
G01 X7.7866 Y5.2967
G01 X7.7890 Y5.2950
G01 X7.7913 Y5.2932
G01 X7.7936 Y5.2912
G01 X7.7958 Y5.2891
G01 X7.7969 Y5.2880
G01 X7.7979 Y5.2868
G01 X7.7999 Y5.2845
G01 X7.8018 Y5.2821
G01 X7.8036 Y5.2796
G01 X7.8052 Y5.2769
G01 X7.8067 Y5.2742
G01 X7.8080 Y5.2715
G01 X7.8092 Y5.2686
G01 X7.8103 Y5.2656
G01 X7.8112 Y5.2626
G01 X7.8120 Y5.2594
G01 X7.8127 Y5.2562
G01 X7.8132 Y5.2529
G01 X7.8136 Y5.2495
G01 X7.8139 Y5.2459
G01 X7.8140 Y5.2424
G01 X7.8140 Y5.2405
G01 X7.8140 Y5.2386
G01 X7.8139 Y5.2349
G01 X7.8136 Y5.2313
G01 X7.8132 Y5.2278
G01 X7.8126 Y5.2244
G01 X7.8119 Y5.2210
G01 X7.8111 Y5.2178
G01 X7.8101 Y5.2146
G01 X7.8090 Y5.2116
G01 X7.8077 Y5.2086
G01 X7.8063 Y5.2057
G01 X7.8048 Y5.2030
G01 X7.8031 Y5.2003
G01 X7.8013 Y5.1977
G01 X7.7993 Y5.1952
G01 X7.7972 Y5.1928
G01 X7.7961 Y5.1916
G01 X7.7950 Y5.1904
G01 X7.7927 Y5.1883
G01 X7.7903 Y5.1862
G01 X7.7879 Y5.1844
G01 X7.7853 Y5.1826
G01 X7.7827 Y5.1810
G01 X7.7801 Y5.1796
G01 X7.7773 Y5.1783
G01 X7.7745 Y5.1771
G01 X7.7716 Y5.1761
G01 X7.7687 Y5.1752
G01 X7.7657 Y5.1745
G01 X7.7626 Y5.1739
G01 X7.7594 Y5.1735
G01 X7.7562 Y5.1732
G01 X7.7529 Y5.1731
G01 X7.7512 Y5.1731
G01 X7.7488 Y5.1731
G01 X7.7440 Y5.1734
G01 X7.7394 Y5.1741
G01 X7.7348 Y5.1751
G01 X7.7303 Y5.1764
G01 X7.7260 Y5.1780
G01 X7.7217 Y5.1800
G01 X7.7176 Y5.1823
G01 X7.7156 Y5.1835
G01 X7.7136 Y5.1849
G01 X7.7098 Y5.1878
G01 X7.7062 Y5.1910
G01 X7.7029 Y5.1944
G01 X7.6999 Y5.1982
G01 X7.6970 Y5.2022
G01 X7.6945 Y5.2065
G01 X7.6921 Y5.2111
G01 X7.6910 Y5.2135
G01 X7.6905 Y5.2147
G01 X7.6895 Y5.2173
G01 X7.6882 Y5.2214
G01 X7.6866 Y5.2273
G01 X7.6853 Y5.2338
G01 X7.6843 Y5.2408
G01 X7.6835 Y5.2484
G01 X7.6829 Y5.2565
G01 X7.6827 Y5.2652
G01 X7.6827 Y5.2697
G01 X7.6827 Y5.2744
G01 X7.6829 Y5.2835
G01 X7.6835 Y5.2921
G01 X7.6842 Y5.3003
G01 X7.6853 Y5.3079
G01 X7.6866 Y5.3150
G01 X7.6881 Y5.3217
G01 X7.6900 Y5.3278
G01 X7.6910 Y5.3307
G01 X7.6920 Y5.3335
G01 X7.6944 Y5.3389
G01 X7.6970 Y5.3439
G01 X7.6998 Y5.3485
G01 X7.7029 Y5.3528
G01 X7.7062 Y5.3568
G01 X7.7098 Y5.3605
G01 X7.7137 Y5.3638
G01 X7.7157 Y5.3653
G01 X7.7178 Y5.3667
G01 X7.7221 Y5.3693
G01 X7.7265 Y5.3716
G01 X7.7312 Y5.3734
G01 X7.7360 Y5.3749
G01 X7.7410 Y5.3760
G01 X7.7461 Y5.3767
G01 X7.7515 Y5.3771
G01 X7.7542 Y5.3771
G01 X7.7571 Y5.3771
G01 X7.7613 Y5.3768
G01 X7.7641 Y5.3765
G01 X7.7667 Y5.3761
G01 X7.7693 Y5.3756
G01 X7.7719 Y5.3750
G01 X7.7743 Y5.3743
G01 X7.7767 Y5.3735
G01 X7.7790 Y5.3726
G01 X7.7813 Y5.3715
G01 X7.7835 Y5.3704
G01 X7.7856 Y5.3692
G01 X7.7877 Y5.3679
G01 X7.7897 Y5.3665
G01 X7.7916 Y5.3649
G01 X7.7935 Y5.3633
G01 X7.7952 Y5.3616
G01 X7.7969 Y5.3598
G01 X7.7985 Y5.3579
G01 X7.8000 Y5.3559
G01 X7.8014 Y5.3539
G01 X7.8027 Y5.3518
G01 X7.8039 Y5.3496
G01 X7.8050 Y5.3473
G01 X7.8060 Y5.3449
G01 X7.8069 Y5.3425
G01 X7.8078 Y5.3399
G01 X7.8085 Y5.3373
G01 X7.8092 Y5.3346
G01 X7.8100 Y5.3304
G01 X7.8104 Y5.3275
G01 X7.8404 Y5.3738
OFF
G00 X8.0165 Y5.1635
G00 X7.7965 Y5.3835
G00 X7.8404 Y5.3738
ON
G01 X7.9726 Y5.3738
G01 X7.9726 Y5.3716
G01 X7.9724 Y5.3683
G01 X7.9722 Y5.3662
G01 X7.9718 Y5.3640
G01 X7.9714 Y5.3619
G01 X7.9708 Y5.3598
G01 X7.9701 Y5.3578
G01 X7.9697 Y5.3567
G01 X7.9691 Y5.3550
G01 X7.9676 Y5.3517
G01 X7.9660 Y5.3483
G01 X7.9641 Y5.3450
G01 X7.9621 Y5.3417
G01 X7.9599 Y5.3383
G01 X7.9575 Y5.3350
G01 X7.9549 Y5.3318
G01 X7.9535 Y5.3301
G01 X7.9521 Y5.3285
G01 X7.9490 Y5.3251
G01 X7.9456 Y5.3215
G01 X7.9419 Y5.3179
G01 X7.9379 Y5.3141
G01 X7.9336 Y5.3102
G01 X7.9265 Y5.3041
G01 X7.9214 Y5.2999
G01 X7.9174 Y5.2966
G01 X7.9100 Y5.2902
G01 X7.9031 Y5.2842
G01 X7.8970 Y5.2786
G01 X7.8915 Y5.2733
G01 X7.8867 Y5.2683
G01 X7.8825 Y5.2637
G01 X7.8790 Y5.2595
G01 X7.8775 Y5.2575
G01 X7.8761 Y5.2556
G01 X7.8736 Y5.2517
G01 X7.8714 Y5.2479
G01 X7.8696 Y5.2442
G01 X7.8682 Y5.2405
G01 X7.8672 Y5.2368
G01 X7.8664 Y5.2332
G01 X7.8661 Y5.2297
G01 X7.8661 Y5.2279
G01 X7.8661 Y5.2261
G01 X7.8664 Y5.2226
G01 X7.8671 Y5.2193
G01 X7.8680 Y5.2161
G01 X7.8693 Y5.2130
G01 X7.8710 Y5.2100
G01 X7.8729 Y5.2073
G01 X7.8752 Y5.2046
G01 X7.8765 Y5.2033
G01 X7.8778 Y5.2021
G01 X7.8806 Y5.1999
G01 X7.8836 Y5.1981
G01 X7.8868 Y5.1965
G01 X7.8902 Y5.1952
G01 X7.8938 Y5.1943
G01 X7.8976 Y5.1937
G01 X7.9016 Y5.1934
G01 X7.9036 Y5.1934
G01 X7.9058 Y5.1934
G01 X7.9100 Y5.1937
G01 X7.9140 Y5.1944
G01 X7.9178 Y5.1954
G01 X7.9213 Y5.1967
G01 X7.9246 Y5.1983
G01 X7.9277 Y5.2003
G01 X7.9306 Y5.2027
G01 X7.9320 Y5.2040
G01 X7.9332 Y5.2053
G01 X7.9356 Y5.2082
G01 X7.9376 Y5.2114
G01 X7.9392 Y5.2148
G01 X7.9406 Y5.2185
G01 X7.9416 Y5.2224
G01 X7.9423 Y5.2266
G01 X7.9427 Y5.2311
G01 X7.9427 Y5.2334
G01 X7.9680 Y5.2308
G01 X7.9678 Y5.2291
G01 X7.9674 Y5.2256
G01 X7.9669 Y5.2223
G01 X7.9662 Y5.2191
G01 X7.9654 Y5.2160
G01 X7.9645 Y5.2130
G01 X7.9635 Y5.2101
G01 X7.9624 Y5.2073
G01 X7.9612 Y5.2046
G01 X7.9599 Y5.2021
G01 X7.9584 Y5.1996
G01 X7.9569 Y5.1972
G01 X7.9552 Y5.1949
G01 X7.9534 Y5.1928
G01 X7.9516 Y5.1907
G01 X7.9496 Y5.1888
G01 X7.9485 Y5.1878
G01 X7.9474 Y5.1869
G01 X7.9452 Y5.1852
G01 X7.9429 Y5.1836
G01 X7.9406 Y5.1821
G01 X7.9381 Y5.1807
G01 X7.9355 Y5.1794
G01 X7.9328 Y5.1783
G01 X7.9301 Y5.1772
G01 X7.9273 Y5.1763
G01 X7.9243 Y5.1755
G01 X7.9213 Y5.1748
G01 X7.9182 Y5.1742
G01 X7.9150 Y5.1738
G01 X7.9117 Y5.1734
G01 X7.9083 Y5.1732
G01 X7.9048 Y5.1731
G01 X7.9031 Y5.1731
G01 X7.9013 Y5.1731
G01 X7.8978 Y5.1732
G01 X7.8944 Y5.1734
G01 X7.8911 Y5.1738
G01 X7.8878 Y5.1743
G01 X7.8847 Y5.1749
G01 X7.8817 Y5.1757
G01 X7.8787 Y5.1765
G01 X7.8759 Y5.1775
G01 X7.8731 Y5.1787
G01 X7.8705 Y5.1799
G01 X7.8679 Y5.1813
G01 X7.8654 Y5.1828
G01 X7.8630 Y5.1844
G01 X7.8608 Y5.1861
G01 X7.8586 Y5.1880
G01 X7.8575 Y5.1890
G01 X7.8565 Y5.1900
G01 X7.8545 Y5.1921
G01 X7.8527 Y5.1942
G01 X7.8510 Y5.1963
G01 X7.8494 Y5.1986
G01 X7.8480 Y5.2009
G01 X7.8466 Y5.2032
G01 X7.8455 Y5.2056
G01 X7.8444 Y5.2081
G01 X7.8435 Y5.2106
G01 X7.8427 Y5.2132
G01 X7.8421 Y5.2159
G01 X7.8415 Y5.2186
G01 X7.8411 Y5.2213
G01 X7.8409 Y5.2242
G01 X7.8407 Y5.2271
G01 X7.8407 Y5.2285
G01 X7.8407 Y5.2300
G01 X7.8409 Y5.2330
G01 X7.8412 Y5.2360
G01 X7.8417 Y5.2390
G01 X7.8423 Y5.2419
G01 X7.8430 Y5.2448
G01 X7.8440 Y5.2478
G01 X7.8450 Y5.2507
G01 X7.8456 Y5.2521
G01 X7.8463 Y5.2536
G01 X7.8477 Y5.2565
G01 X7.8493 Y5.2595
G01 X7.8512 Y5.2625
G01 X7.8532 Y5.2655
G01 X7.8554 Y5.2686
G01 X7.8579 Y5.2718
G01 X7.8605 Y5.2749
G01 X7.8619 Y5.2765
G01 X7.8634 Y5.2782
G01 X7.8667 Y5.2817
G01 X7.8705 Y5.2855
G01 X7.8748 Y5.2896
G01 X7.8820 Y5.2963
G01 X7.8933 Y5.3063
G01 X7.8997 Y5.3117
G01 X7.9050 Y5.3162
G01 X7.9141 Y5.3239
G01 X7.9212 Y5.3302
G01 X7.9263 Y5.3350
G01 X7.9281 Y5.3369
G01 X7.9296 Y5.3385
G01 X7.9325 Y5.3418
G01 X7.9351 Y5.3452
G01 X7.9374 Y5.3485
G01 X7.9385 Y5.3502
G01 X7.8404 Y5.3502
OFF
G00 X8.2050 Y5.3524
G00 X8.0831 Y5.2955
G00 X8.2009 Y5.1637
G00 X7.9809 Y5.3837
G00 X8.0831 Y5.2955
ON
G01 X8.0831 Y5.2718
G01 X7.9985 Y5.2718
G01 X7.9985 Y5.3460
G01 X8.0009 Y5.3479
G01 X8.0059 Y5.3515
G01 X8.0108 Y5.3549
G01 X8.0158 Y5.3581
G01 X8.0208 Y5.3610
G01 X8.0259 Y5.3637
G01 X8.0310 Y5.3661
G01 X8.0361 Y5.3683
G01 X8.0387 Y5.3693
G01 X8.0413 Y5.3703
G01 X8.0465 Y5.3720
G01 X8.0518 Y5.3735
G01 X8.0571 Y5.3747
G01 X8.0624 Y5.3757
G01 X8.0677 Y5.3764
G01 X8.0731 Y5.3769
G01 X8.0786 Y5.3771
G01 X8.0813 Y5.3771
G01 X8.0849 Y5.3771
G01 X8.0921 Y5.3767
G01 X8.0992 Y5.3759
G01 X8.1060 Y5.3747
G01 X8.1127 Y5.3732
G01 X8.1192 Y5.3712
G01 X8.1256 Y5.3688
G01 X8.1318 Y5.3661
G01 X8.1348 Y5.3645
G01 X8.1363 Y5.3637
G01 X8.1392 Y5.3621
G01 X8.1420 Y5.3603
G01 X8.1448 Y5.3585
G01 X8.1474 Y5.3565
G01 X8.1500 Y5.3545
G01 X8.1524 Y5.3524
G01 X8.1548 Y5.3502
G01 X8.1570 Y5.3480
G01 X8.1592 Y5.3456
G01 X8.1613 Y5.3431
G01 X8.1633 Y5.3406
G01 X8.1652 Y5.3379
G01 X8.1670 Y5.3352
G01 X8.1687 Y5.3324
G01 X8.1704 Y5.3295
G01 X8.1711 Y5.3280
G01 X8.1726 Y5.3250
G01 X8.1753 Y5.3189
G01 X8.1776 Y5.3126
G01 X8.1795 Y5.3061
G01 X8.1811 Y5.2994
G01 X8.1822 Y5.2926
G01 X8.1830 Y5.2855
G01 X8.1834 Y5.2783
G01 X8.1834 Y5.2747
G01 X8.1834 Y5.2710
G01 X8.1830 Y5.2639
G01 X8.1822 Y5.2568
G01 X8.1811 Y5.2499
G01 X8.1796 Y5.2431
G01 X8.1776 Y5.2364
G01 X8.1754 Y5.2298
G01 X8.1727 Y5.2234
G01 X8.1712 Y5.2202
G01 X8.1704 Y5.2186
G01 X8.1688 Y5.2155
G01 X8.1671 Y5.2126
G01 X8.1654 Y5.2097
G01 X8.1635 Y5.2070
G01 X8.1616 Y5.2043
G01 X8.1595 Y5.2018
G01 X8.1574 Y5.1993
G01 X8.1552 Y5.1970
G01 X8.1529 Y5.1947
G01 X8.1506 Y5.1926
G01 X8.1481 Y5.1905
G01 X8.1456 Y5.1886
G01 X8.1430 Y5.1867
G01 X8.1403 Y5.1850
G01 X8.1375 Y5.1834
G01 X8.1361 Y5.1826
G01 X8.1347 Y5.1818
G01 X8.1317 Y5.1804
G01 X8.1288 Y5.1790
G01 X8.1257 Y5.1778
G01 X8.1227 Y5.1766
G01 X8.1195 Y5.1756
G01 X8.1147 Y5.1742
G01 X8.1081 Y5.1726
G01 X8.1013 Y5.1715
G01 X8.0943 Y5.1707
G01 X8.0870 Y5.1703
G01 X8.0833 Y5.1703
G01 X8.0806 Y5.1703
G01 X8.0753 Y5.1705
G01 X8.0702 Y5.1710
G01 X8.0651 Y5.1716
G01 X8.0602 Y5.1725
G01 X8.0555 Y5.1736
G01 X8.0508 Y5.1749
G01 X8.0463 Y5.1765
G01 X8.0441 Y5.1773
G01 X8.0420 Y5.1782
G01 X8.0378 Y5.1802
G01 X8.0339 Y5.1823
G01 X8.0302 Y5.1846
G01 X8.0268 Y5.1870
G01 X8.0236 Y5.1896
G01 X8.0206 Y5.1924
G01 X8.0179 Y5.1954
G01 X8.0166 Y5.1970
G01 X8.0154 Y5.1986
G01 X8.0131 Y5.2019
G01 X8.0109 Y5.2056
G01 X8.0088 Y5.2094
G01 X8.0070 Y5.2135
G01 X8.0052 Y5.2179
G01 X8.0036 Y5.2224
G01 X8.0022 Y5.2273
G01 X8.0015 Y5.2298
G01 X8.0254 Y5.2363
G01 X8.0259 Y5.2344
G01 X8.0271 Y5.2308
G01 X8.0284 Y5.2274
G01 X8.0297 Y5.2242
G01 X8.0311 Y5.2212
G01 X8.0326 Y5.2184
G01 X8.0341 Y5.2158
G01 X8.0357 Y5.2134
G01 X8.0366 Y5.2123
G01 X8.0374 Y5.2112
G01 X8.0393 Y5.2091
G01 X8.0413 Y5.2071
G01 X8.0435 Y5.2053
G01 X8.0459 Y5.2035
G01 X8.0484 Y5.2019
G01 X8.0512 Y5.2004
G01 X8.0541 Y5.1989
G01 X8.0556 Y5.1983
G01 X8.0572 Y5.1976
G01 X8.0604 Y5.1965
G01 X8.0637 Y5.1955
G01 X8.0670 Y5.1947
G01 X8.0705 Y5.1940
G01 X8.0740 Y5.1935
G01 X8.0776 Y5.1932
G01 X8.0813 Y5.1930
G01 X8.0832 Y5.1930
G01 X8.0854 Y5.1930
G01 X8.0898 Y5.1932
G01 X8.0940 Y5.1936
G01 X8.0981 Y5.1941
G01 X8.1020 Y5.1948
G01 X8.1058 Y5.1956
G01 X8.1094 Y5.1967
G01 X8.1129 Y5.1979
G01 X8.1145 Y5.1985
G01 X8.1162 Y5.1992
G01 X8.1193 Y5.2007
G01 X8.1223 Y5.2023
G01 X8.1251 Y5.2040
G01 X8.1278 Y5.2058
G01 X8.1303 Y5.2078
G01 X8.1327 Y5.2098
G01 X8.1348 Y5.2119
G01 X8.1359 Y5.2131
G01 X8.1369 Y5.2142
G01 X8.1388 Y5.2165
G01 X8.1406 Y5.2189
G01 X8.1423 Y5.2213
G01 X8.1439 Y5.2237
G01 X8.1453 Y5.2263
G01 X8.1467 Y5.2289
G01 X8.1479 Y5.2315
G01 X8.1485 Y5.2328
G01 X8.1494 Y5.2352
G01 X8.1511 Y5.2399
G01 X8.1525 Y5.2447
G01 X8.1537 Y5.2497
G01 X8.1547 Y5.2547
G01 X8.1554 Y5.2598
G01 X8.1559 Y5.2650
G01 X8.1561 Y5.2704
G01 X8.1561 Y5.2731
G01 X8.1561 Y5.2764
G01 X8.1558 Y5.2828
G01 X8.1552 Y5.2889
G01 X8.1544 Y5.2948
G01 X8.1532 Y5.3004
G01 X8.1518 Y5.3057
G01 X8.1501 Y5.3107
G01 X8.1480 Y5.3155
G01 X8.1469 Y5.3178
G01 X8.1457 Y5.3200
G01 X8.1432 Y5.3242
G01 X8.1404 Y5.3281
G01 X8.1373 Y5.3317
G01 X8.1339 Y5.3351
G01 X8.1303 Y5.3381
G01 X8.1264 Y5.3409
G01 X8.1223 Y5.3434
G01 X8.1201 Y5.3445
G01 X8.1179 Y5.3456
G01 X8.1135 Y5.3475
G01 X8.1089 Y5.3491
G01 X8.1043 Y5.3505
G01 X8.0997 Y5.3516
G01 X8.0949 Y5.3524
G01 X8.0901 Y5.3529
G01 X8.0852 Y5.3532
G01 X8.0828 Y5.3532
G01 X8.0806 Y5.3532
G01 X8.0764 Y5.3530
G01 X8.0721 Y5.3526
G01 X8.0679 Y5.3520
G01 X8.0637 Y5.3511
G01 X8.0595 Y5.3501
G01 X8.0554 Y5.3489
G01 X8.0513 Y5.3474
G01 X8.0492 Y5.3466
G01 X8.0472 Y5.3458
G01 X8.0434 Y5.3441
G01 X8.0398 Y5.3424
G01 X8.0364 Y5.3407
G01 X8.0333 Y5.3389
G01 X8.0305 Y5.3372
G01 X8.0279 Y5.3353
G01 X8.0255 Y5.3335
G01 X8.0244 Y5.3326
G01 X8.0244 Y5.2955
G01 X8.0831 Y5.2955
OFF
G00 X9.8025 Y5.2253
ON
G01 X9.8025 Y0.8606
G01 X9.9025 Y0.8606
G01 X9.9025 Y5.2253
G01 X9.8025 Y5.2253
OFF
G00 X11.2873 Y3.8929
G00 X12.4010 Y4.1555
ON
G01 X12.7068 Y0.8606
G01 X12.8073 Y0.8606
G01 X12.5014 Y4.1555
G01 X12.4010 Y4.1555
OFF
G00 X14.0342 Y3.9055
G00 X13.8680 Y5.6118
ON
G01 X14.3306 Y0.6072
G01 X0.2513 Y0.6072
OFF
G00 X10.6672 Y0.7052
ON
G01 X10.7723 Y0.7052
G01 X10.5018 Y1.0865
G01 X10.7283 Y1.4069
G01 X10.6216 Y1.4069
G01 X10.4954 Y1.2283
G01 X10.4484 Y1.1618
G01 X10.2744 Y1.4068
G01 X10.1692 Y1.4068
G01 X10.3959 Y1.0875
G01 X10.1255 Y0.7051
G01 X10.2322 Y0.7051
G01 X10.4081 Y0.9542
G01 X10.4494 Y1.0122
G01 X10.6672 Y0.7052
OFF
G00 X15.0255 Y1.4553
ON
G01 X15.2592 Y1.3325
G01 X15.7007 Y2.1735
G01 X15.9566 Y-0.5830
G01 X16.2192 Y-0.5586
G01 X15.9634 Y2.1979
G01 X16.5521 Y1.4526
G01 X16.7593 Y1.6162
G01 X15.7685 Y2.8706
G01 X15.0255 Y1.4553
OFF
G00 X0.2513 Y5.6118

%